(G-CODE GENERATED BY FLATCAM v8.97 - www.flatcam.org - Version Date: 2019/09/27)

(Name: hexPre-F_Cu.gbr_cutout_1_cnc)
(Type: G-code from Geometry)
(Units: MM)

(Created on Saturday, 09 November 2019 at 20:09)

(TOOL DIAMETER: 1.0 mm)
(Feedrate: 79.9998 mm/min)
(Feedrate_Z: 79.9998 mm/min)
(Feedrate rapids 79.9998 mm/min)

(Z_Cut: -2.6 mm)
(Z_Move: 2.0 mm)
(Z Toolchange: 12.7 mm)
(X,Y Toolchange: 0.0000, 0.0000 mm)
(Z Start: None mm)
(Z End: 12.7 mm)
(Steps per circle: 128)
(Postprocessor Geometry: default)

(X range:    0.2899 ...   61.9401  mm)
(Y range:   -0.3451 ...   28.2851  mm)

(Spindle Speed: None RPM)

G21
G90
G94

G01 F80.00
G00 Z2.0000

M03
G00 X59.9401 Y-0.3451
G01 F80.00
G01 Z-2.6000
G01 F80.00
G01 X2.2899 Y-0.3451
G01 X2.0938 Y-0.3355
G01 X1.8997 Y-0.3067
G01 X1.7093 Y-0.2590
G01 X1.5245 Y-0.1929
G01 X1.3471 Y-0.1090
G01 X1.1787 Y-0.0081
G01 X1.0211 Y0.1089
G01 X0.8757 Y0.2407
G01 X0.7439 Y0.3861
G01 X0.6269 Y0.5437
G01 X0.5260 Y0.7121
G01 X0.4421 Y0.8895
G01 X0.3760 Y1.0743
G01 X0.3283 Y1.2647
G01 X0.2995 Y1.4588
G01 X0.2899 Y1.6549
G01 X0.2899 Y26.2851
G01 X0.2995 Y26.4812
G01 X0.3283 Y26.6753
G01 X0.3760 Y26.8657
G01 X0.4421 Y27.0505
G01 X0.5260 Y27.2279
G01 X0.6269 Y27.3963
G01 X0.7439 Y27.5539
G01 X0.8757 Y27.6993
G01 X1.0211 Y27.8311
G01 X1.1787 Y27.9481
G01 X1.3471 Y28.0490
G01 X1.5245 Y28.1329
G01 X1.7093 Y28.1990
G01 X1.8997 Y28.2467
G01 X2.0938 Y28.2755
G01 X2.2899 Y28.2851
G01 X59.9401 Y28.2851
G01 X60.1362 Y28.2755
G01 X60.3303 Y28.2467
G01 X60.5207 Y28.1990
G01 X60.7055 Y28.1329
G01 X60.8829 Y28.0490
G01 X61.0513 Y27.9481
G01 X61.2089 Y27.8311
G01 X61.3543 Y27.6993
G01 X61.4861 Y27.5539
G01 X61.6031 Y27.3963
G01 X61.7040 Y27.2279
G01 X61.7879 Y27.0505
G01 X61.8540 Y26.8657
G01 X61.9017 Y26.6753
G01 X61.9305 Y26.4812
G01 X61.9401 Y26.2851
G01 X61.9401 Y1.6549
G01 X61.9305 Y1.4588
G01 X61.9017 Y1.2647
G01 X61.8540 Y1.0743
G01 X61.7879 Y0.8895
G01 X61.7040 Y0.7121
G01 X61.6031 Y0.5437
G01 X61.4861 Y0.3861
G01 X61.3543 Y0.2407
G01 X61.2089 Y0.1089
G01 X61.0513 Y-0.0081
G01 X60.8829 Y-0.1090
G01 X60.7055 Y-0.1929
G01 X60.5207 Y-0.2590
G01 X60.3303 Y-0.3067
G01 X60.1362 Y-0.3355
G01 X59.9401 Y-0.3451
G00 Z2.0000
M05
G00 Z2.0000
G00 Z12.70
G00 X0.0 Y0.0

M02