(G-CODE GENERATED BY FLATCAM v8.97 - www.flatcam.org - Version Date: 2019/09/27)

(Name: hexPre-F_Cu.gbr_iso_cnc)
(Type: G-code from Geometry)
(Units: MM)

(Created on Saturday, 09 November 2019 at 18:57)

(TOOL DIAMETER: 0.4 mm)
(Feedrate: 79.9998 mm/min)
(Feedrate_Z: 79.9998 mm/min)
(Feedrate rapids 79.9998 mm/min)

(Z_Cut: -0.2 mm)
(Z_Move: 1.5 mm)
(Z Toolchange: 12.7 mm)
(X,Y Toolchange: 0.0000, 0.0000 mm)
(Z Start: None mm)
(Z End: 12.7 mm)
(Steps per circle: 128)
(Postprocessor Geometry: default)

(X range:    2.0899 ...   60.1401  mm)
(Y range:    1.4549 ...   26.4851  mm)

(Spindle Speed: None RPM)

G21
G90
G94

G01 F80.00
G00 Z1.5000

M03
G00 X2.9600 Y2.7600
G01 F80.00
G01 Z-0.2000
G01 F80.00
G01 X3.3599 Y2.7600
G01 X3.3599 Y2.4551
G01 X3.3602 Y2.4428
G01 X3.3616 Y2.4208
G01 X3.3655 Y2.3891
G01 X3.3686 Y2.3720
G01 X3.3722 Y2.3554
G01 X3.3779 Y2.3340
G01 X3.3846 Y2.3130
G01 X3.3932 Y2.2900
G01 X3.4050 Y2.2636
G01 X3.4154 Y2.2435
G01 X3.4260 Y2.2252
G01 X3.4331 Y2.2140
G01 X3.4456 Y2.1958
G01 X3.4644 Y2.1716
G01 X3.4798 Y2.1541
G01 X3.4917 Y2.1417
G01 X4.0467 Y1.5867
G01 X4.0664 Y1.5682
G01 X4.0833 Y1.5540
G01 X4.0960 Y1.5441
G01 X4.1190 Y1.5281
G01 X4.1294 Y1.5215
G01 X4.1485 Y1.5104
G01 X4.1686 Y1.5000
G01 X4.1950 Y1.4882
G01 X4.2088 Y1.4829
G01 X4.2297 Y1.4757
G01 X4.2604 Y1.4672
G01 X4.2770 Y1.4636
G01 X4.2941 Y1.4605
G01 X4.3258 Y1.4566
G01 X4.3478 Y1.4552
G01 X4.3650 Y1.4549
G01 X10.7950 Y1.4549
G01 X10.8122 Y1.4552
G01 X10.8342 Y1.4566
G01 X10.8659 Y1.4605
G01 X10.8830 Y1.4636
G01 X10.8996 Y1.4672
G01 X10.9303 Y1.4757
G01 X10.9512 Y1.4829
G01 X10.9650 Y1.4882
G01 X10.9830 Y1.4960
G01 X11.0028 Y1.5058
G01 X11.0222 Y1.5164
G01 X11.0410 Y1.5281
G01 X11.0640 Y1.5441
G01 X11.0834 Y1.5594
G01 X11.1009 Y1.5748
G01 X11.1133 Y1.5867
G01 X11.7242 Y2.1976
G01 X11.7426 Y2.2173
G01 X11.7569 Y2.2341
G01 X11.7668 Y2.2469
G01 X11.7774 Y2.2617
G01 X11.7894 Y2.2803
G01 X11.8051 Y2.3080
G01 X11.8148 Y2.3279
G01 X11.8226 Y2.3459
G01 X11.8280 Y2.3596
G01 X11.8351 Y2.3805
G01 X11.8412 Y2.4017
G01 X11.8473 Y2.4278
G01 X11.8518 Y2.4547
G01 X11.8542 Y2.4766
G01 X11.8556 Y2.4987
G01 X11.8560 Y2.5159
G01 X11.8560 Y3.0154
G01 X12.1559 Y3.0154
G01 X12.1744 Y3.0162
G01 X12.1837 Y3.0173
G01 X12.2019 Y3.0207
G01 X12.2198 Y3.0258
G01 X12.2285 Y3.0290
G01 X12.2459 Y3.0368
G01 X12.2546 Y3.0414
G01 X12.2711 Y3.0519
G01 X12.2790 Y3.0577
G01 X12.2938 Y3.0705
G01 X12.3073 Y3.0847
G01 X12.3193 Y3.1001
G01 X12.3248 Y3.1083
G01 X12.3344 Y3.1253
G01 X12.3386 Y3.1341
G01 X12.3454 Y3.1514
G01 X12.3505 Y3.1693
G01 X12.3539 Y3.1876
G01 X12.3556 Y3.2061
G01 X12.3559 Y3.3901
G01 X13.8098 Y3.3894
G01 X13.8347 Y3.3807
G01 X13.8559 Y3.3746
G01 X13.8820 Y3.3686
G01 X13.8991 Y3.3655
G01 X13.9210 Y3.3626
G01 X13.9430 Y3.3607
G01 X13.9700 Y3.3599
G01 X13.9872 Y3.3602
G01 X14.0178 Y3.3624
G01 X14.0409 Y3.3655
G01 X14.0580 Y3.3686
G01 X14.0841 Y3.3746
G01 X14.0960 Y3.3779
G01 X14.1170 Y3.3846
G01 X14.1400 Y3.3932
G01 X14.1669 Y3.4052
G01 X14.1778 Y3.4108
G01 X14.1972 Y3.4214
G01 X14.2241 Y3.4385
G01 X14.2390 Y3.4491
G01 X14.2584 Y3.4644
G01 X14.2759 Y3.4798
G01 X14.2883 Y3.4917
G01 X18.0983 Y7.3017
G01 X18.1168 Y7.3214
G01 X18.1248 Y7.3307
G01 X18.1386 Y7.3480
G01 X18.1515 Y7.3659
G01 X18.1686 Y7.3928
G01 X18.1792 Y7.4122
G01 X18.1850 Y7.4236
G01 X18.1968 Y7.4500
G01 X18.2054 Y7.4730
G01 X18.2121 Y7.4940
G01 X18.2154 Y7.5059
G01 X18.2214 Y7.5320
G01 X18.2259 Y7.5588
G01 X18.2274 Y7.5710
G01 X18.2293 Y7.5930
G01 X18.2301 Y7.6200
G01 X18.2301 Y24.2100
G01 X18.2293 Y24.2370
G01 X18.2276 Y24.2578
G01 X18.2259 Y24.2712
G01 X18.2214 Y24.2980
G01 X18.2178 Y24.3146
G01 X18.2093 Y24.3453
G01 X18.2021 Y24.3662
G01 X18.1968 Y24.3800
G01 X18.1890 Y24.3980
G01 X18.1792 Y24.4178
G01 X18.1640 Y24.4448
G01 X18.1515 Y24.4641
G01 X18.1409 Y24.4790
G01 X18.1310 Y24.4917
G01 X18.1168 Y24.5086
G01 X18.0983 Y24.5283
G01 X16.9250 Y25.7016
G01 X16.9250 Y26.2500
G01 X16.9241 Y26.2686
G01 X16.9231 Y26.2778
G01 X16.9196 Y26.2961
G01 X16.9145 Y26.3139
G01 X16.9113 Y26.3227
G01 X16.9036 Y26.3401
G01 X16.8989 Y26.3487
G01 X16.8885 Y26.3652
G01 X16.8764 Y26.3807
G01 X16.8629 Y26.3948
G01 X16.8557 Y26.4014
G01 X16.8402 Y26.4135
G01 X16.8237 Y26.4239
G01 X16.8062 Y26.4328
G01 X16.7889 Y26.4395
G01 X16.7800 Y26.4423
G01 X16.7711 Y26.4446
G01 X16.7528 Y26.4481
G01 X16.7343 Y26.4498
G01 X16.7250 Y26.4500
G01 X15.0250 Y26.4500
G01 X15.0064 Y26.4491
G01 X14.9880 Y26.4466
G01 X14.9789 Y26.4446
G01 X14.9611 Y26.4395
G01 X14.9438 Y26.4328
G01 X14.9349 Y26.4286
G01 X14.9263 Y26.4239
G01 X14.9098 Y26.4135
G01 X14.9019 Y26.4076
G01 X14.8871 Y26.3948
G01 X14.8802 Y26.3879
G01 X14.8674 Y26.3731
G01 X14.8561 Y26.3571
G01 X14.8464 Y26.3401
G01 X14.8422 Y26.3312
G01 X14.8355 Y26.3139
G01 X14.8327 Y26.3050
G01 X14.8284 Y26.2870
G01 X14.8269 Y26.2778
G01 X14.8259 Y26.2686
G01 X14.8250 Y26.2500
G01 X14.8250 Y25.8501
G01 X14.0764 Y25.8501
G01 X13.5733 Y26.3533
G01 X13.5536 Y26.3718
G01 X13.5367 Y26.3860
G01 X13.5240 Y26.3959
G01 X13.5091 Y26.4065
G01 X13.4822 Y26.4236
G01 X13.4628 Y26.4342
G01 X13.4514 Y26.4400
G01 X13.4250 Y26.4518
G01 X13.4020 Y26.4604
G01 X13.3810 Y26.4671
G01 X13.3691 Y26.4704
G01 X13.3380 Y26.4774
G01 X13.3259 Y26.4795
G01 X13.3040 Y26.4824
G01 X13.2820 Y26.4843
G01 X13.2550 Y26.4851
G01 X8.2550 Y26.4851
G01 X8.2378 Y26.4848
G01 X8.2158 Y26.4834
G01 X8.1841 Y26.4795
G01 X8.1670 Y26.4764
G01 X8.1504 Y26.4728
G01 X8.1197 Y26.4643
G01 X8.0988 Y26.4571
G01 X8.0850 Y26.4518
G01 X8.0670 Y26.4440
G01 X8.0472 Y26.4342
G01 X8.0278 Y26.4236
G01 X8.0090 Y26.4119
G01 X7.9860 Y26.3959
G01 X7.9666 Y26.3806
G01 X7.9491 Y26.3652
G01 X7.9367 Y26.3533
G01 X7.3017 Y25.7183
G01 X7.2898 Y25.7059
G01 X7.2752 Y25.6893
G01 X7.2591 Y25.6690
G01 X7.2485 Y25.6541
G01 X7.2365 Y25.6356
G01 X7.2208 Y25.6078
G01 X7.2110 Y25.5880
G01 X7.2032 Y25.5700
G01 X7.1979 Y25.5562
G01 X7.1879 Y25.5260
G01 X7.1822 Y25.5046
G01 X7.1786 Y25.4880
G01 X7.1741 Y25.4612
G01 X7.1726 Y25.4490
G01 X7.1707 Y25.4270
G01 X7.1699 Y25.4000
G01 X7.1699 Y25.0600
G01 X6.9857 Y25.0598
G01 X6.9672 Y25.0581
G01 X6.9580 Y25.0566
G01 X6.9400 Y25.0523
G01 X6.9311 Y25.0495
G01 X6.9138 Y25.0428
G01 X6.9049 Y25.0386
G01 X6.8879 Y25.0289
G01 X6.8719 Y25.0176
G01 X6.8571 Y25.0048
G01 X6.8436 Y24.9907
G01 X6.8315 Y24.9752
G01 X6.8211 Y24.9587
G01 X6.8122 Y24.9412
G01 X6.8055 Y24.9239
G01 X6.8027 Y24.9150
G01 X6.7984 Y24.8970
G01 X6.7959 Y24.8786
G01 X6.7950 Y24.8600
G01 X6.7952 Y23.3507
G01 X6.7969 Y23.3322
G01 X6.8004 Y23.3139
G01 X6.8055 Y23.2961
G01 X6.8122 Y23.2788
G01 X6.8211 Y23.2613
G01 X6.8315 Y23.2448
G01 X6.8436 Y23.2293
G01 X6.8571 Y23.2152
G01 X6.8719 Y23.2024
G01 X6.8879 Y23.1911
G01 X6.9049 Y23.1814
G01 X6.9138 Y23.1772
G01 X6.9311 Y23.1705
G01 X6.9489 Y23.1654
G01 X6.9672 Y23.1619
G01 X6.9857 Y23.1602
G01 X8.2543 Y23.1602
G01 X8.2636 Y23.1609
G01 X8.2820 Y23.1634
G01 X8.3000 Y23.1677
G01 X8.3176 Y23.1737
G01 X8.3262 Y23.1772
G01 X8.3437 Y23.1861
G01 X8.3602 Y23.1965
G01 X8.3681 Y23.2024
G01 X8.3829 Y23.2152
G01 X8.3964 Y23.2293
G01 X8.4085 Y23.2448
G01 X8.4189 Y23.2613
G01 X8.4236 Y23.2699
G01 X8.4278 Y23.2788
G01 X8.4345 Y23.2961
G01 X8.4396 Y23.3139
G01 X8.4431 Y23.3322
G01 X8.4448 Y23.3507
G01 X8.4450 Y23.3600
G01 X8.4450 Y24.8600
G01 X8.4441 Y24.8786
G01 X8.4416 Y24.8970
G01 X8.4396 Y24.9061
G01 X8.4345 Y24.9239
G01 X8.4278 Y24.9412
G01 X8.4236 Y24.9501
G01 X8.4139 Y24.9671
G01 X8.4026 Y24.9831
G01 X8.3898 Y24.9979
G01 X8.3829 Y25.0048
G01 X8.3681 Y25.0176
G01 X8.3602 Y25.0235
G01 X8.3437 Y25.0339
G01 X8.3262 Y25.0428
G01 X8.3089 Y25.0495
G01 X8.2911 Y25.0546
G01 X8.2728 Y25.0581
G01 X8.2543 Y25.0598
G01 X8.0701 Y25.0600
G01 X8.0701 Y25.2136
G01 X8.4414 Y25.5849
G01 X13.0686 Y25.5849
G01 X13.5717 Y25.0817
G01 X13.5841 Y25.0698
G01 X13.6007 Y25.0552
G01 X13.6210 Y25.0391
G01 X13.6359 Y25.0285
G01 X13.6544 Y25.0165
G01 X13.6735 Y25.0054
G01 X13.6936 Y24.9950
G01 X13.7132 Y24.9861
G01 X13.7338 Y24.9779
G01 X13.7640 Y24.9679
G01 X13.7854 Y24.9622
G01 X13.8020 Y24.9586
G01 X13.8191 Y24.9555
G01 X13.8410 Y24.9526
G01 X13.8728 Y24.9502
G01 X13.8900 Y24.9499
G01 X14.8250 Y24.9499
G01 X14.8250 Y24.5500
G01 X14.8259 Y24.5314
G01 X14.8269 Y24.5222
G01 X14.8304 Y24.5039
G01 X14.8327 Y24.4950
G01 X14.8387 Y24.4773
G01 X14.8464 Y24.4599
G01 X14.8561 Y24.4429
G01 X14.8674 Y24.4269
G01 X14.8736 Y24.4193
G01 X14.8802 Y24.4121
G01 X14.8943 Y24.3986
G01 X14.9098 Y24.3865
G01 X14.9263 Y24.3761
G01 X14.9349 Y24.3714
G01 X14.9524 Y24.3637
G01 X14.9700 Y24.3577
G01 X14.9880 Y24.3534
G01 X15.0064 Y24.3509
G01 X15.0250 Y24.3500
G01 X16.7343 Y24.3502
G01 X16.7528 Y24.3519
G01 X16.7620 Y24.3534
G01 X16.7800 Y24.3577
G01 X16.7889 Y24.3605
G01 X16.8062 Y24.3672
G01 X16.8151 Y24.3714
G01 X16.8321 Y24.3811
G01 X16.8402 Y24.3865
G01 X16.8557 Y24.3986
G01 X16.8698 Y24.4121
G01 X16.8764 Y24.4193
G01 X16.8885 Y24.4348
G01 X16.8939 Y24.4429
G01 X16.9001 Y24.4534
G01 X17.3299 Y24.0236
G01 X17.3299 Y19.5001
G01 X16.6400 Y19.5001
G01 X16.6398 Y19.8593
G01 X16.6381 Y19.8778
G01 X16.6366 Y19.8870
G01 X16.6323 Y19.9050
G01 X16.6295 Y19.9139
G01 X16.6228 Y19.9312
G01 X16.6186 Y19.9401
G01 X16.6089 Y19.9571
G01 X16.6035 Y19.9652
G01 X16.5976 Y19.9731
G01 X16.5848 Y19.9879
G01 X16.5779 Y19.9948
G01 X16.5631 Y20.0076
G01 X16.5471 Y20.0189
G01 X16.5387 Y20.0239
G01 X16.5301 Y20.0286
G01 X16.5126 Y20.0363
G01 X16.5039 Y20.0395
G01 X16.4861 Y20.0446
G01 X16.4678 Y20.0481
G01 X16.4586 Y20.0491
G01 X16.4400 Y20.0500
G01 X14.0400 Y20.0500
G01 X14.0214 Y20.0491
G01 X14.0030 Y20.0466
G01 X13.9850 Y20.0423
G01 X13.9674 Y20.0363
G01 X13.9499 Y20.0286
G01 X13.9329 Y20.0189
G01 X13.9169 Y20.0076
G01 X13.9093 Y20.0014
G01 X13.8952 Y19.9879
G01 X13.8824 Y19.9731
G01 X13.8711 Y19.9571
G01 X13.8614 Y19.9401
G01 X13.8537 Y19.9226
G01 X13.8477 Y19.9050
G01 X13.8434 Y19.8870
G01 X13.8409 Y19.8686
G01 X13.8400 Y19.8500
G01 X13.8400 Y18.2500
G01 X13.8409 Y18.2314
G01 X13.8419 Y18.2222
G01 X13.8454 Y18.2039
G01 X13.8505 Y18.1861
G01 X13.8537 Y18.1774
G01 X13.8614 Y18.1599
G01 X13.8661 Y18.1513
G01 X13.8765 Y18.1348
G01 X13.8824 Y18.1269
G01 X13.8952 Y18.1121
G01 X13.9021 Y18.1052
G01 X13.9169 Y18.0924
G01 X13.9248 Y18.0865
G01 X13.9413 Y18.0761
G01 X13.9499 Y18.0714
G01 X13.9588 Y18.0672
G01 X13.9761 Y18.0605
G01 X13.9939 Y18.0554
G01 X14.0030 Y18.0534
G01 X14.0214 Y18.0509
G01 X14.0400 Y18.0500
G01 X16.4400 Y18.0500
G01 X16.4493 Y18.0502
G01 X16.4678 Y18.0519
G01 X16.4861 Y18.0554
G01 X16.4950 Y18.0577
G01 X16.5127 Y18.0637
G01 X16.5212 Y18.0672
G01 X16.5387 Y18.0761
G01 X16.5471 Y18.0811
G01 X16.5552 Y18.0865
G01 X16.5707 Y18.0986
G01 X16.5848 Y18.1121
G01 X16.5914 Y18.1193
G01 X16.6035 Y18.1348
G01 X16.6139 Y18.1513
G01 X16.6186 Y18.1599
G01 X16.6228 Y18.1688
G01 X16.6295 Y18.1861
G01 X16.6346 Y18.2039
G01 X16.6366 Y18.2130
G01 X16.6391 Y18.2314
G01 X16.6398 Y18.2407
G01 X16.6400 Y18.5999
G01 X17.3299 Y18.5999
G01 X17.3299 Y7.8064
G01 X13.8139 Y4.2905
G01 X12.3559 Y4.2905
G01 X12.3559 Y4.4654
G01 X12.3550 Y4.4839
G01 X12.3524 Y4.5023
G01 X12.3481 Y4.5204
G01 X12.3422 Y4.5380
G01 X12.3344 Y4.5554
G01 X12.3248 Y4.5725
G01 X12.3135 Y4.5885
G01 X12.3073 Y4.5960
G01 X12.2938 Y4.6102
G01 X12.2790 Y4.6230
G01 X12.2711 Y4.6288
G01 X12.2546 Y4.6393
G01 X12.2459 Y4.6439
G01 X12.2285 Y4.6517
G01 X12.2198 Y4.6549
G01 X12.2019 Y4.6600
G01 X12.1837 Y4.6634
G01 X12.1744 Y4.6645
G01 X12.1559 Y4.6654
G01 X10.6466 Y4.6651
G01 X10.6281 Y4.6634
G01 X10.6098 Y4.6600
G01 X10.5919 Y4.6549
G01 X10.5832 Y4.6517
G01 X10.5658 Y4.6439
G01 X10.5572 Y4.6393
G01 X10.5488 Y4.6343
G01 X10.5328 Y4.6230
G01 X10.5252 Y4.6168
G01 X10.5110 Y4.6033
G01 X10.4982 Y4.5885
G01 X10.4870 Y4.5725
G01 X10.4773 Y4.5554
G01 X10.4695 Y4.5380
G01 X10.4636 Y4.5204
G01 X10.4612 Y4.5114
G01 X10.4578 Y4.4932
G01 X10.4561 Y4.4746
G01 X10.4559 Y3.2154
G01 X10.4567 Y3.1968
G01 X10.4578 Y3.1876
G01 X10.4612 Y3.1693
G01 X10.4636 Y3.1603
G01 X10.4695 Y3.1427
G01 X10.4731 Y3.1341
G01 X10.4773 Y3.1253
G01 X10.4870 Y3.1083
G01 X10.4924 Y3.1001
G01 X10.5044 Y3.0847
G01 X10.5179 Y3.0705
G01 X10.5328 Y3.0577
G01 X10.5488 Y3.0465
G01 X10.5572 Y3.0414
G01 X10.5746 Y3.0326
G01 X10.5919 Y3.0258
G01 X10.6008 Y3.0231
G01 X10.6098 Y3.0207
G01 X10.6281 Y3.0173
G01 X10.6466 Y3.0156
G01 X10.6559 Y3.0154
G01 X10.9557 Y3.0154
G01 X10.9557 Y2.7023
G01 X10.6086 Y2.3551
G01 X4.5514 Y2.3551
G01 X4.2601 Y2.6464
G01 X4.2601 Y2.7600
G01 X4.6600 Y2.7600
G01 X4.6693 Y2.7602
G01 X4.6878 Y2.7619
G01 X4.6970 Y2.7634
G01 X4.7150 Y2.7677
G01 X4.7327 Y2.7737
G01 X4.7412 Y2.7772
G01 X4.7501 Y2.7814
G01 X4.7671 Y2.7911
G01 X4.7831 Y2.8024
G01 X4.7907 Y2.8086
G01 X4.8048 Y2.8221
G01 X4.8114 Y2.8293
G01 X4.8235 Y2.8448
G01 X4.8289 Y2.8529
G01 X4.8386 Y2.8699
G01 X4.8428 Y2.8788
G01 X4.8495 Y2.8961
G01 X4.8546 Y2.9139
G01 X4.8566 Y2.9230
G01 X4.8591 Y2.9414
G01 X4.8600 Y2.9600
G01 X4.8600 Y4.6600
G01 X4.8591 Y4.6786
G01 X4.8566 Y4.6970
G01 X4.8523 Y4.7150
G01 X4.8463 Y4.7327
G01 X4.8386 Y4.7501
G01 X4.8289 Y4.7671
G01 X4.8176 Y4.7831
G01 X4.8048 Y4.7979
G01 X4.7979 Y4.8048
G01 X4.7831 Y4.8176
G01 X4.7671 Y4.8289
G01 X4.7501 Y4.8386
G01 X4.7412 Y4.8428
G01 X4.7239 Y4.8495
G01 X4.7061 Y4.8546
G01 X4.6878 Y4.8581
G01 X4.6693 Y4.8598
G01 X2.9507 Y4.8598
G01 X2.9322 Y4.8581
G01 X2.9139 Y4.8546
G01 X2.9050 Y4.8523
G01 X2.8874 Y4.8463
G01 X2.8699 Y4.8386
G01 X2.8613 Y4.8339
G01 X2.8448 Y4.8235
G01 X2.8293 Y4.8114
G01 X2.8152 Y4.7979
G01 X2.8024 Y4.7831
G01 X2.7911 Y4.7671
G01 X2.7861 Y4.7587
G01 X2.7772 Y4.7412
G01 X2.7705 Y4.7239
G01 X2.7654 Y4.7061
G01 X2.7619 Y4.6878
G01 X2.7602 Y4.6693
G01 X2.7600 Y4.6600
G01 X2.7600 Y2.9600
G01 X2.7609 Y2.9414
G01 X2.7634 Y2.9230
G01 X2.7677 Y2.9050
G01 X2.7737 Y2.8873
G01 X2.7814 Y2.8699
G01 X2.7911 Y2.8529
G01 X2.8024 Y2.8369
G01 X2.8086 Y2.8293
G01 X2.8221 Y2.8152
G01 X2.8369 Y2.8024
G01 X2.8529 Y2.7911
G01 X2.8699 Y2.7814
G01 X2.8873 Y2.7737
G01 X2.9050 Y2.7677
G01 X2.9230 Y2.7634
G01 X2.9414 Y2.7609
G01 X2.9600 Y2.7600
G00 Z1.5000
G00 X2.7612 Y6.3966
G01 F80.00
G01 Z-0.2000
G01 F80.00
G01 X2.7600 Y6.3500
G01 X2.7611 Y6.3034
G01 X2.7646 Y6.2520
G01 X2.7707 Y6.2008
G01 X2.7802 Y6.1449
G01 X2.7903 Y6.0996
G01 X2.8067 Y6.0405
G01 X2.8231 Y5.9917
G01 X2.8390 Y5.9504
G01 X2.8588 Y5.9055
G01 X2.8817 Y5.8594
G01 X2.9069 Y5.8144
G01 X2.9343 Y5.7708
G01 X2.9673 Y5.7237
G01 X2.9953 Y5.6877
G01 X3.0353 Y5.6413
G01 X3.0675 Y5.6075
G01 X3.1085 Y5.5687
G01 X3.1477 Y5.5353
G01 X3.1837 Y5.5073
G01 X3.2226 Y5.4797
G01 X3.2660 Y5.4520
G01 X3.3107 Y5.4263
G01 X3.3571 Y5.4027
G01 X3.4104 Y5.3790
G01 X3.4517 Y5.3631
G01 X3.5099 Y5.3438
G01 X3.5596 Y5.3303
G01 X3.6100 Y5.3193
G01 X3.6511 Y5.3121
G01 X3.7022 Y5.3056
G01 X3.7634 Y5.3011
G01 X3.8100 Y5.3000
G01 X3.8664 Y5.3016
G01 X3.9166 Y5.3055
G01 X3.9592 Y5.3107
G01 X4.0150 Y5.3202
G01 X4.0604 Y5.3303
G01 X4.1195 Y5.3467
G01 X4.1683 Y5.3631
G01 X4.2096 Y5.3790
G01 X4.2545 Y5.3988
G01 X4.3006 Y5.4217
G01 X4.3456 Y5.4469
G01 X4.3892 Y5.4743
G01 X4.4394 Y5.5096
G01 X4.4789 Y5.5407
G01 X4.5115 Y5.5687
G01 X4.5525 Y5.6075
G01 X4.5847 Y5.6413
G01 X4.6185 Y5.6801
G01 X4.6504 Y5.7206
G01 X4.6857 Y5.7708
G01 X4.7080 Y5.8060
G01 X4.7337 Y5.8507
G01 X4.7573 Y5.8971
G01 X4.7676 Y5.9199
G01 X5.5250 Y5.9199
G01 X5.5252 Y5.6107
G01 X5.5259 Y5.6014
G01 X5.5284 Y5.5830
G01 X5.5327 Y5.5650
G01 X5.5355 Y5.5561
G01 X5.5422 Y5.5388
G01 X5.5464 Y5.5299
G01 X5.5511 Y5.5213
G01 X5.5615 Y5.5048
G01 X5.5736 Y5.4893
G01 X5.5802 Y5.4821
G01 X5.5943 Y5.4686
G01 X5.6019 Y5.4624
G01 X5.6179 Y5.4511
G01 X5.6349 Y5.4414
G01 X5.6438 Y5.4372
G01 X5.6611 Y5.4305
G01 X5.6700 Y5.4277
G01 X5.6880 Y5.4234
G01 X5.6972 Y5.4219
G01 X5.7157 Y5.4202
G01 X5.7250 Y5.4200
G01 X6.9750 Y5.4200
G01 X6.9936 Y5.4209
G01 X7.0120 Y5.4234
G01 X7.0300 Y5.4277
G01 X7.0477 Y5.4337
G01 X7.0562 Y5.4372
G01 X7.0737 Y5.4461
G01 X7.0902 Y5.4565
G01 X7.0981 Y5.4624
G01 X7.1129 Y5.4752
G01 X7.1264 Y5.4893
G01 X7.1326 Y5.4969
G01 X7.1385 Y5.5048
G01 X7.1489 Y5.5213
G01 X7.1536 Y5.5299
G01 X7.1613 Y5.5474
G01 X7.1673 Y5.5650
G01 X7.1716 Y5.5830
G01 X7.1741 Y5.6014
G01 X7.1750 Y5.6200
G01 X7.1750 Y7.1200
G01 X7.1741 Y7.1386
G01 X7.1716 Y7.1570
G01 X7.1673 Y7.1750
G01 X7.1613 Y7.1927
G01 X7.1578 Y7.2012
G01 X7.1536 Y7.2101
G01 X7.1439 Y7.2271
G01 X7.1326 Y7.2431
G01 X7.1198 Y7.2579
G01 X7.1129 Y7.2648
G01 X7.0981 Y7.2776
G01 X7.0902 Y7.2835
G01 X7.0737 Y7.2939
G01 X7.0651 Y7.2986
G01 X7.0477 Y7.3063
G01 X7.0300 Y7.3123
G01 X7.0120 Y7.3166
G01 X6.9936 Y7.3191
G01 X6.9750 Y7.3200
G01 X5.7250 Y7.3200
G01 X5.7064 Y7.3191
G01 X5.6972 Y7.3181
G01 X5.6789 Y7.3146
G01 X5.6611 Y7.3095
G01 X5.6523 Y7.3063
G01 X5.6349 Y7.2986
G01 X5.6263 Y7.2939
G01 X5.6179 Y7.2889
G01 X5.6019 Y7.2776
G01 X5.5871 Y7.2648
G01 X5.5802 Y7.2579
G01 X5.5674 Y7.2431
G01 X5.5561 Y7.2271
G01 X5.5464 Y7.2101
G01 X5.5422 Y7.2012
G01 X5.5355 Y7.1839
G01 X5.5327 Y7.1750
G01 X5.5284 Y7.1570
G01 X5.5269 Y7.1478
G01 X5.5259 Y7.1386
G01 X5.5250 Y7.1200
G01 X5.5250 Y6.8201
G01 X4.7486 Y6.8201
G01 X4.7337 Y6.8493
G01 X4.7086 Y6.8932
G01 X4.6857 Y6.9292
G01 X4.6562 Y6.9715
G01 X4.6185 Y7.0199
G01 X4.5847 Y7.0587
G01 X4.5525 Y7.0925
G01 X4.5187 Y7.1247
G01 X4.4799 Y7.1585
G01 X4.4315 Y7.1962
G01 X4.3892 Y7.2257
G01 X4.3456 Y7.2531
G01 X4.3006 Y7.2783
G01 X4.2629 Y7.2973
G01 X4.2096 Y7.3210
G01 X4.1683 Y7.3369
G01 X4.1101 Y7.3562
G01 X4.0604 Y7.3697
G01 X4.0150 Y7.3798
G01 X3.9689 Y7.3879
G01 X3.9178 Y7.3944
G01 X3.8566 Y7.3989
G01 X3.8100 Y7.4000
G01 X3.7536 Y7.3984
G01 X3.7034 Y7.3945
G01 X3.6608 Y7.3893
G01 X3.6004 Y7.3788
G01 X3.5501 Y7.3673
G01 X3.5005 Y7.3533
G01 X3.4609 Y7.3402
G01 X3.4127 Y7.3219
G01 X3.3567 Y7.2970
G01 X3.3107 Y7.2737
G01 X3.2668 Y7.2486
G01 X3.2308 Y7.2257
G01 X3.1885 Y7.1962
G01 X3.1401 Y7.1585
G01 X3.1013 Y7.1247
G01 X3.0675 Y7.0925
G01 X3.0353 Y7.0587
G01 X3.0015 Y7.0199
G01 X2.9673 Y6.9763
G01 X2.9397 Y6.9374
G01 X2.9069 Y6.8856
G01 X2.8817 Y6.8406
G01 X2.8627 Y6.8029
G01 X2.8390 Y6.7496
G01 X2.8231 Y6.7083
G01 X2.8038 Y6.6501
G01 X2.7903 Y6.6004
G01 X2.7802 Y6.5551
G01 X2.7721 Y6.5089
G01 X2.7656 Y6.4578
G01 X2.7616 Y6.4064
G01 X2.7612 Y6.3966
G00 Z1.5000
G00 X2.0899 Y10.1551
G01 F80.00
G01 Z-0.2000
G01 F80.00
G01 X2.0907 Y10.1330
G01 X2.0924 Y10.1122
G01 X2.0941 Y10.0988
G01 X2.0976 Y10.0770
G01 X2.1046 Y10.0459
G01 X2.1079 Y10.0340
G01 X2.1146 Y10.0130
G01 X2.1232 Y9.9900
G01 X2.1310 Y9.9720
G01 X2.1454 Y9.9435
G01 X2.1560 Y9.9252
G01 X2.1685 Y9.9059
G01 X2.1791 Y9.8910
G01 X2.1890 Y9.8783
G01 X2.2032 Y9.8614
G01 X2.2217 Y9.8417
G01 X2.8210 Y9.2424
G01 X2.8067 Y9.1995
G01 X2.7927 Y9.1499
G01 X2.7802 Y9.0951
G01 X2.7707 Y9.0392
G01 X2.7656 Y8.9978
G01 X2.7616 Y8.9464
G01 X2.7601 Y8.8851
G01 X2.7611 Y8.8434
G01 X2.7646 Y8.7920
G01 X2.7721 Y8.7311
G01 X2.7802 Y8.6849
G01 X2.7903 Y8.6396
G01 X2.8067 Y8.5805
G01 X2.8231 Y8.5317
G01 X2.8390 Y8.4904
G01 X2.8627 Y8.4371
G01 X2.8817 Y8.3994
G01 X2.9069 Y8.3544
G01 X2.9397 Y8.3026
G01 X2.9673 Y8.2637
G01 X2.9953 Y8.2277
G01 X3.0353 Y8.1813
G01 X3.0675 Y8.1475
G01 X3.1013 Y8.1153
G01 X3.1401 Y8.0815
G01 X3.1806 Y8.0496
G01 X3.2308 Y8.0143
G01 X3.2744 Y7.9869
G01 X3.3194 Y7.9617
G01 X3.3655 Y7.9388
G01 X3.4104 Y7.9190
G01 X3.4517 Y7.9031
G01 X3.5005 Y7.8867
G01 X3.5596 Y7.8703
G01 X3.6050 Y7.8602
G01 X3.6511 Y7.8521
G01 X3.7022 Y7.8456
G01 X3.7536 Y7.8416
G01 X3.8149 Y7.8401
G01 X3.8664 Y7.8416
G01 X3.9166 Y7.8455
G01 X3.9689 Y7.8521
G01 X4.0150 Y7.8602
G01 X4.0604 Y7.8703
G01 X4.1101 Y7.8838
G01 X4.1683 Y7.9031
G01 X4.2096 Y7.9190
G01 X4.2629 Y7.9427
G01 X4.3006 Y7.9617
G01 X4.3456 Y7.9869
G01 X4.3974 Y8.0197
G01 X4.4363 Y8.0473
G01 X4.4789 Y8.0807
G01 X4.5187 Y8.1153
G01 X4.5525 Y8.1475
G01 X4.5847 Y8.1813
G01 X4.6185 Y8.2201
G01 X4.6527 Y8.2637
G01 X4.6803 Y8.3026
G01 X4.7080 Y8.3460
G01 X4.7337 Y8.3907
G01 X4.7573 Y8.4371
G01 X4.7810 Y8.4904
G01 X4.7969 Y8.5317
G01 X4.8133 Y8.5805
G01 X4.8273 Y8.6301
G01 X4.8388 Y8.6804
G01 X4.8479 Y8.7311
G01 X4.8544 Y8.7822
G01 X4.8589 Y8.8434
G01 X4.8600 Y8.8900
G01 X4.8584 Y8.9464
G01 X4.8545 Y8.9966
G01 X4.8479 Y9.0489
G01 X4.8398 Y9.0951
G01 X4.8273 Y9.1499
G01 X4.8133 Y9.1995
G01 X4.7969 Y9.2483
G01 X4.7810 Y9.2896
G01 X4.7573 Y9.3429
G01 X4.7337 Y9.3893
G01 X4.7086 Y9.4332
G01 X4.6803 Y9.4774
G01 X4.6527 Y9.5163
G01 X4.6193 Y9.5589
G01 X4.5913 Y9.5915
G01 X4.5525 Y9.6325
G01 X4.5187 Y9.6647
G01 X4.4723 Y9.7047
G01 X4.4363 Y9.7327
G01 X4.3974 Y9.7603
G01 X4.3540 Y9.7880
G01 X4.3093 Y9.8137
G01 X4.2545 Y9.8412
G01 X4.2096 Y9.8610
G01 X4.1591 Y9.8802
G01 X4.1195 Y9.8933
G01 X4.0699 Y9.9073
G01 X4.0150 Y9.9198
G01 X3.9689 Y9.9279
G01 X3.9080 Y9.9354
G01 X3.8566 Y9.9389
G01 X3.8100 Y9.9400
G01 X3.7634 Y9.9389
G01 X3.7120 Y9.9354
G01 X3.6511 Y9.9279
G01 X3.6050 Y9.9198
G01 X3.5501 Y9.9073
G01 X3.5005 Y9.8933
G01 X3.4576 Y9.8790
G01 X2.9901 Y10.3464
G01 X2.9901 Y13.5199
G01 X3.6800 Y13.5199
G01 X3.6802 Y13.1607
G01 X3.6809 Y13.1514
G01 X3.6834 Y13.1330
G01 X3.6854 Y13.1239
G01 X3.6905 Y13.1061
G01 X3.6972 Y13.0888
G01 X3.7014 Y13.0799
G01 X3.7061 Y13.0713
G01 X3.7165 Y13.0548
G01 X3.7224 Y13.0469
G01 X3.7352 Y13.0321
G01 X3.7421 Y13.0252
G01 X3.7569 Y13.0124
G01 X3.7729 Y13.0011
G01 X3.7813 Y12.9961
G01 X3.7899 Y12.9914
G01 X3.8074 Y12.9837
G01 X3.8161 Y12.9805
G01 X3.8339 Y12.9754
G01 X3.8430 Y12.9734
G01 X3.8614 Y12.9709
G01 X3.8800 Y12.9700
G01 X6.2893 Y12.9702
G01 X6.3078 Y12.9719
G01 X6.3261 Y12.9754
G01 X6.3439 Y12.9805
G01 X6.3526 Y12.9837
G01 X6.3701 Y12.9914
G01 X6.3871 Y13.0011
G01 X6.3952 Y13.0065
G01 X6.4107 Y13.0186
G01 X6.4248 Y13.0321
G01 X6.4314 Y13.0393
G01 X6.4435 Y13.0548
G01 X6.4489 Y13.0629
G01 X6.4586 Y13.0799
G01 X6.4628 Y13.0888
G01 X6.4695 Y13.1061
G01 X6.4746 Y13.1239
G01 X6.4781 Y13.1422
G01 X6.4791 Y13.1514
G01 X6.4800 Y13.1700
G01 X6.4798 Y14.7793
G01 X6.4791 Y14.7886
G01 X6.4766 Y14.8070
G01 X6.4746 Y14.8161
G01 X6.4695 Y14.8339
G01 X6.4628 Y14.8512
G01 X6.4586 Y14.8601
G01 X6.4539 Y14.8687
G01 X6.4435 Y14.8852
G01 X6.4314 Y14.9007
G01 X6.4248 Y14.9079
G01 X6.4107 Y14.9214
G01 X6.4031 Y14.9276
G01 X6.3952 Y14.9335
G01 X6.3787 Y14.9439
G01 X6.3701 Y14.9486
G01 X6.3527 Y14.9563
G01 X6.3350 Y14.9623
G01 X6.3170 Y14.9666
G01 X6.2986 Y14.9691
G01 X6.2800 Y14.9700
G01 X3.8800 Y14.9700
G01 X3.8614 Y14.9691
G01 X3.8522 Y14.9681
G01 X3.8430 Y14.9666
G01 X3.8250 Y14.9623
G01 X3.8074 Y14.9563
G01 X3.7988 Y14.9528
G01 X3.7899 Y14.9486
G01 X3.7729 Y14.9389
G01 X3.7648 Y14.9335
G01 X3.7493 Y14.9214
G01 X3.7421 Y14.9148
G01 X3.7286 Y14.9007
G01 X3.7165 Y14.8852
G01 X3.7061 Y14.8687
G01 X3.7014 Y14.8601
G01 X3.6972 Y14.8512
G01 X3.6905 Y14.8339
G01 X3.6877 Y14.8250
G01 X3.6834 Y14.8070
G01 X3.6809 Y14.7886
G01 X3.6802 Y14.7793
G01 X3.6800 Y14.4201
G01 X2.9901 Y14.4201
G01 X2.9901 Y23.3086
G01 X3.3414 Y23.6599
G01 X4.2550 Y23.6599
G01 X4.2550 Y23.3600
G01 X4.2559 Y23.3414
G01 X4.2569 Y23.3322
G01 X4.2604 Y23.3139
G01 X4.2627 Y23.3050
G01 X4.2687 Y23.2874
G01 X4.2722 Y23.2788
G01 X4.2811 Y23.2613
G01 X4.2861 Y23.2529
G01 X4.2915 Y23.2448
G01 X4.3036 Y23.2293
G01 X4.3171 Y23.2152
G01 X4.3319 Y23.2024
G01 X4.3398 Y23.1965
G01 X4.3563 Y23.1861
G01 X4.3738 Y23.1772
G01 X4.3823 Y23.1737
G01 X4.4000 Y23.1677
G01 X4.4180 Y23.1634
G01 X4.4272 Y23.1619
G01 X4.4364 Y23.1609
G01 X4.4550 Y23.1600
G01 X5.7050 Y23.1600
G01 X5.7143 Y23.1602
G01 X5.7328 Y23.1619
G01 X5.7511 Y23.1654
G01 X5.7600 Y23.1677
G01 X5.7777 Y23.1737
G01 X5.7862 Y23.1772
G01 X5.8037 Y23.1861
G01 X5.8121 Y23.1911
G01 X5.8202 Y23.1965
G01 X5.8357 Y23.2086
G01 X5.8498 Y23.2221
G01 X5.8626 Y23.2369
G01 X5.8739 Y23.2529
G01 X5.8789 Y23.2613
G01 X5.8878 Y23.2788
G01 X5.8913 Y23.2873
G01 X5.8973 Y23.3050
G01 X5.9016 Y23.3230
G01 X5.9041 Y23.3414
G01 X5.9048 Y23.3507
G01 X5.9048 Y24.8693
G01 X5.9031 Y24.8878
G01 X5.8996 Y24.9061
G01 X5.8945 Y24.9239
G01 X5.8913 Y24.9327
G01 X5.8836 Y24.9501
G01 X5.8739 Y24.9671
G01 X5.8626 Y24.9831
G01 X5.8564 Y24.9907
G01 X5.8429 Y25.0048
G01 X5.8357 Y25.0114
G01 X5.8281 Y25.0176
G01 X5.8121 Y25.0289
G01 X5.7951 Y25.0386
G01 X5.7862 Y25.0428
G01 X5.7689 Y25.0495
G01 X5.7511 Y25.0546
G01 X5.7328 Y25.0581
G01 X5.7236 Y25.0591
G01 X5.7050 Y25.0600
G01 X4.4550 Y25.0600
G01 X4.4364 Y25.0591
G01 X4.4180 Y25.0566
G01 X4.4000 Y25.0523
G01 X4.3911 Y25.0495
G01 X4.3738 Y25.0428
G01 X4.3649 Y25.0386
G01 X4.3479 Y25.0289
G01 X4.3398 Y25.0235
G01 X4.3243 Y25.0114
G01 X4.3171 Y25.0048
G01 X4.3036 Y24.9907
G01 X4.2915 Y24.9752
G01 X4.2861 Y24.9671
G01 X4.2764 Y24.9501
G01 X4.2722 Y24.9412
G01 X4.2655 Y24.9239
G01 X4.2627 Y24.9150
G01 X4.2584 Y24.8970
G01 X4.2569 Y24.8878
G01 X4.2552 Y24.8693
G01 X4.2550 Y24.5601
G01 X3.1550 Y24.5601
G01 X3.1378 Y24.5598
G01 X3.1158 Y24.5584
G01 X3.0938 Y24.5559
G01 X3.0624 Y24.5505
G01 X3.0409 Y24.5454
G01 X3.0197 Y24.5393
G01 X2.9988 Y24.5321
G01 X2.9850 Y24.5268
G01 X2.9670 Y24.5190
G01 X2.9472 Y24.5092
G01 X2.9278 Y24.4986
G01 X2.9090 Y24.4869
G01 X2.8908 Y24.4744
G01 X2.8733 Y24.4610
G01 X2.8491 Y24.4402
G01 X2.8367 Y24.4283
G01 X2.2183 Y23.8098
G01 X2.2098 Y23.8009
G01 X2.1952 Y23.7843
G01 X2.1791 Y23.7640
G01 X2.1631 Y23.7410
G01 X2.1565 Y23.7306
G01 X2.1454 Y23.7115
G01 X2.1310 Y23.6830
G01 X2.1232 Y23.6650
G01 X2.1179 Y23.6512
G01 X2.1079 Y23.6210
G01 X2.1022 Y23.5996
G01 X2.0986 Y23.5830
G01 X2.0955 Y23.5659
G01 X2.0926 Y23.5440
G01 X2.0907 Y23.5220
G01 X2.0899 Y23.4950
G01 X2.0899 Y10.1551
G00 Z1.5000
G00 X3.6800 Y12.2300
G01 F80.00
G01 Z-0.2000
G01 F80.00
G01 X3.6802 Y10.6207
G01 X3.6809 Y10.6114
G01 X3.6834 Y10.5930
G01 X3.6877 Y10.5750
G01 X3.6937 Y10.5574
G01 X3.6972 Y10.5488
G01 X3.7061 Y10.5313
G01 X3.7111 Y10.5229
G01 X3.7224 Y10.5069
G01 X3.7352 Y10.4921
G01 X3.7493 Y10.4786
G01 X3.7648 Y10.4665
G01 X3.7729 Y10.4611
G01 X3.7899 Y10.4514
G01 X3.7988 Y10.4472
G01 X3.8074 Y10.4437
G01 X3.8250 Y10.4377
G01 X3.8430 Y10.4334
G01 X3.8522 Y10.4319
G01 X3.8707 Y10.4302
G01 X3.8800 Y10.4300
G01 X6.2800 Y10.4300
G01 X6.2893 Y10.4302
G01 X6.3078 Y10.4319
G01 X6.3261 Y10.4354
G01 X6.3350 Y10.4377
G01 X6.3526 Y10.4437
G01 X6.3612 Y10.4472
G01 X6.3787 Y10.4561
G01 X6.3871 Y10.4611
G01 X6.4031 Y10.4724
G01 X6.4179 Y10.4852
G01 X6.4248 Y10.4921
G01 X6.4376 Y10.5069
G01 X6.4489 Y10.5229
G01 X6.4586 Y10.5399
G01 X6.4628 Y10.5488
G01 X6.4695 Y10.5661
G01 X6.4723 Y10.5750
G01 X6.4746 Y10.5839
G01 X6.4781 Y10.6022
G01 X6.4791 Y10.6114
G01 X6.4800 Y10.6300
G01 X6.4798 Y12.2393
G01 X6.4791 Y12.2486
G01 X6.4766 Y12.2670
G01 X6.4723 Y12.2850
G01 X6.4663 Y12.3027
G01 X6.4628 Y12.3112
G01 X6.4539 Y12.3287
G01 X6.4435 Y12.3452
G01 X6.4376 Y12.3531
G01 X6.4248 Y12.3679
G01 X6.4107 Y12.3814
G01 X6.3952 Y12.3935
G01 X6.3871 Y12.3989
G01 X6.3701 Y12.4086
G01 X6.3612 Y12.4128
G01 X6.3527 Y12.4163
G01 X6.3350 Y12.4223
G01 X6.3261 Y12.4246
G01 X6.3078 Y12.4281
G01 X6.2986 Y12.4291
G01 X6.2800 Y12.4300
G01 X3.8707 Y12.4298
G01 X3.8522 Y12.4281
G01 X3.8339 Y12.4246
G01 X3.8161 Y12.4195
G01 X3.7988 Y12.4128
G01 X3.7813 Y12.4039
G01 X3.7648 Y12.3935
G01 X3.7493 Y12.3814
G01 X3.7352 Y12.3679
G01 X3.7224 Y12.3531
G01 X3.7111 Y12.3371
G01 X3.7014 Y12.3201
G01 X3.6937 Y12.3027
G01 X3.6877 Y12.2850
G01 X3.6834 Y12.2670
G01 X3.6809 Y12.2486
G01 X3.6800 Y12.2300
G00 Z1.5000
G00 X3.6800 Y17.3100
G01 F80.00
G01 Z-0.2000
G01 F80.00
G01 X3.6802 Y15.7007
G01 X3.6809 Y15.6914
G01 X3.6834 Y15.6730
G01 X3.6854 Y15.6639
G01 X3.6905 Y15.6461
G01 X3.6972 Y15.6288
G01 X3.7014 Y15.6199
G01 X3.7111 Y15.6029
G01 X3.7224 Y15.5869
G01 X3.7286 Y15.5793
G01 X3.7421 Y15.5652
G01 X3.7493 Y15.5586
G01 X3.7648 Y15.5465
G01 X3.7729 Y15.5411
G01 X3.7899 Y15.5314
G01 X3.8074 Y15.5237
G01 X3.8250 Y15.5177
G01 X3.8339 Y15.5154
G01 X3.8522 Y15.5119
G01 X3.8614 Y15.5109
G01 X3.8800 Y15.5100
G01 X6.2800 Y15.5100
G01 X6.2893 Y15.5102
G01 X6.3078 Y15.5119
G01 X6.3170 Y15.5134
G01 X6.3350 Y15.5177
G01 X6.3527 Y15.5237
G01 X6.3612 Y15.5272
G01 X6.3787 Y15.5361
G01 X6.3871 Y15.5411
G01 X6.3952 Y15.5465
G01 X6.4107 Y15.5586
G01 X6.4179 Y15.5652
G01 X6.4314 Y15.5793
G01 X6.4435 Y15.5948
G01 X6.4539 Y15.6113
G01 X6.4586 Y15.6199
G01 X6.4628 Y15.6288
G01 X6.4695 Y15.6461
G01 X6.4723 Y15.6550
G01 X6.4766 Y15.6730
G01 X6.4791 Y15.6914
G01 X6.4798 Y15.7007
G01 X6.4800 Y16.0599
G01 X7.4336 Y16.0599
G01 X8.4557 Y15.0377
G01 X8.4557 Y9.7454
G01 X8.1559 Y9.7454
G01 X8.1373 Y9.7445
G01 X8.1281 Y9.7434
G01 X8.1098 Y9.7400
G01 X8.1008 Y9.7376
G01 X8.0832 Y9.7317
G01 X8.0658 Y9.7239
G01 X8.0572 Y9.7193
G01 X8.0406 Y9.7088
G01 X8.0328 Y9.7030
G01 X8.0179 Y9.6902
G01 X8.0044 Y9.6760
G01 X7.9982 Y9.6685
G01 X7.9870 Y9.6525
G01 X7.9773 Y9.6354
G01 X7.9731 Y9.6266
G01 X7.9664 Y9.6093
G01 X7.9612 Y9.5914
G01 X7.9578 Y9.5732
G01 X7.9561 Y9.5546
G01 X7.9559 Y9.3705
G01 X7.1750 Y9.3705
G01 X7.1748 Y9.6293
G01 X7.1731 Y9.6478
G01 X7.1716 Y9.6570
G01 X7.1696 Y9.6661
G01 X7.1645 Y9.6839
G01 X7.1578 Y9.7012
G01 X7.1536 Y9.7101
G01 X7.1439 Y9.7271
G01 X7.1385 Y9.7352
G01 X7.1264 Y9.7507
G01 X7.1129 Y9.7648
G01 X7.1057 Y9.7714
G01 X7.0902 Y9.7835
G01 X7.0737 Y9.7939
G01 X7.0562 Y9.8028
G01 X7.0476 Y9.8063
G01 X7.0300 Y9.8123
G01 X7.0211 Y9.8146
G01 X7.0028 Y9.8181
G01 X6.9843 Y9.8198
G01 X6.9750 Y9.8200
G01 X5.7250 Y9.8200
G01 X5.7157 Y9.8198
G01 X5.6972 Y9.8181
G01 X5.6789 Y9.8146
G01 X5.6700 Y9.8123
G01 X5.6524 Y9.8063
G01 X5.6438 Y9.8028
G01 X5.6263 Y9.7939
G01 X5.6179 Y9.7889
G01 X5.6019 Y9.7776
G01 X5.5871 Y9.7648
G01 X5.5802 Y9.7579
G01 X5.5674 Y9.7431
G01 X5.5561 Y9.7271
G01 X5.5464 Y9.7101
G01 X5.5422 Y9.7012
G01 X5.5355 Y9.6839
G01 X5.5304 Y9.6661
G01 X5.5284 Y9.6570
G01 X5.5269 Y9.6478
G01 X5.5252 Y9.6293
G01 X5.5250 Y8.1200
G01 X5.5252 Y8.1107
G01 X5.5269 Y8.0922
G01 X5.5304 Y8.0739
G01 X5.5327 Y8.0650
G01 X5.5387 Y8.0473
G01 X5.5422 Y8.0388
G01 X5.5511 Y8.0213
G01 X5.5561 Y8.0129
G01 X5.5615 Y8.0048
G01 X5.5736 Y7.9893
G01 X5.5871 Y7.9752
G01 X5.6019 Y7.9624
G01 X5.6179 Y7.9511
G01 X5.6263 Y7.9461
G01 X5.6438 Y7.9372
G01 X5.6611 Y7.9305
G01 X5.6700 Y7.9277
G01 X5.6789 Y7.9254
G01 X5.6972 Y7.9219
G01 X5.7157 Y7.9202
G01 X6.9750 Y7.9200
G01 X6.9936 Y7.9209
G01 X7.0028 Y7.9219
G01 X7.0211 Y7.9254
G01 X7.0300 Y7.9277
G01 X7.0477 Y7.9337
G01 X7.0562 Y7.9372
G01 X7.0651 Y7.9414
G01 X7.0821 Y7.9511
G01 X7.0981 Y7.9624
G01 X7.1057 Y7.9686
G01 X7.1198 Y7.9821
G01 X7.1326 Y7.9969
G01 X7.1385 Y8.0048
G01 X7.1489 Y8.0213
G01 X7.1578 Y8.0388
G01 X7.1613 Y8.0473
G01 X7.1673 Y8.0650
G01 X7.1716 Y8.0830
G01 X7.1731 Y8.0922
G01 X7.1748 Y8.1107
G01 X7.1750 Y8.1200
G01 X7.1750 Y8.4702
G01 X7.9559 Y8.4702
G01 X7.9561 Y8.2861
G01 X7.9578 Y8.2676
G01 X7.9612 Y8.2493
G01 X7.9664 Y8.2314
G01 X7.9731 Y8.2141
G01 X7.9819 Y8.1967
G01 X7.9924 Y8.1801
G01 X7.9982 Y8.1723
G01 X8.0110 Y8.1574
G01 X8.0179 Y8.1505
G01 X8.0328 Y8.1377
G01 X8.0406 Y8.1319
G01 X8.0572 Y8.1214
G01 X8.0746 Y8.1126
G01 X8.0919 Y8.1058
G01 X8.1008 Y8.1031
G01 X8.1098 Y8.1007
G01 X8.1281 Y8.0973
G01 X8.1466 Y8.0956
G01 X8.1559 Y8.0954
G01 X9.6559 Y8.0954
G01 X9.6744 Y8.0962
G01 X9.6837 Y8.0973
G01 X9.6928 Y8.0988
G01 X9.7109 Y8.1031
G01 X9.7285 Y8.1090
G01 X9.7371 Y8.1126
G01 X9.7546 Y8.1214
G01 X9.7630 Y8.1265
G01 X9.7711 Y8.1319
G01 X9.7865 Y8.1439
G01 X9.8007 Y8.1574
G01 X9.8073 Y8.1647
G01 X9.8193 Y8.1801
G01 X9.8298 Y8.1967
G01 X9.8386 Y8.2141
G01 X9.8454 Y8.2314
G01 X9.8481 Y8.2403
G01 X9.8524 Y8.2584
G01 X9.8550 Y8.2768
G01 X9.8556 Y8.2861
G01 X9.8559 Y9.5454
G01 X9.8556 Y9.5546
G01 X9.8539 Y9.5732
G01 X9.8505 Y9.5914
G01 X9.8481 Y9.6004
G01 X9.8422 Y9.6180
G01 X9.8344 Y9.6354
G01 X9.8298 Y9.6441
G01 X9.8193 Y9.6606
G01 X9.8135 Y9.6685
G01 X9.8007 Y9.6833
G01 X9.7938 Y9.6902
G01 X9.7790 Y9.7030
G01 X9.7630 Y9.7143
G01 X9.7459 Y9.7239
G01 X9.7371 Y9.7281
G01 X9.7198 Y9.7349
G01 X9.7109 Y9.7376
G01 X9.7019 Y9.7400
G01 X9.6837 Y9.7434
G01 X9.6652 Y9.7451
G01 X9.6559 Y9.7454
G01 X9.3560 Y9.7454
G01 X9.3559 Y15.2290
G01 X9.3556 Y15.2413
G01 X9.3542 Y15.2634
G01 X9.3503 Y15.2950
G01 X9.3473 Y15.3122
G01 X9.3436 Y15.3287
G01 X9.3380 Y15.3501
G01 X9.3280 Y15.3804
G01 X9.3226 Y15.3941
G01 X9.3148 Y15.4121
G01 X9.3005 Y15.4406
G01 X9.2899 Y15.4589
G01 X9.2828 Y15.4701
G01 X9.2703 Y15.4883
G01 X9.2569 Y15.5059
G01 X9.2426 Y15.5227
G01 X9.2242 Y15.5424
G01 X7.9383 Y16.8283
G01 X7.9186 Y16.8468
G01 X7.9017 Y16.8610
G01 X7.8890 Y16.8709
G01 X7.8741 Y16.8815
G01 X7.8556 Y16.8935
G01 X7.8278 Y16.9092
G01 X7.8080 Y16.9190
G01 X7.7900 Y16.9268
G01 X7.7762 Y16.9321
G01 X7.7553 Y16.9393
G01 X7.7341 Y16.9454
G01 X7.7080 Y16.9514
G01 X7.6909 Y16.9545
G01 X7.6592 Y16.9584
G01 X7.6372 Y16.9598
G01 X7.6200 Y16.9601
G01 X6.4800 Y16.9601
G01 X6.4800 Y17.3100
G01 X6.4798 Y17.3193
G01 X6.4781 Y17.3378
G01 X6.4746 Y17.3561
G01 X6.4695 Y17.3739
G01 X6.4663 Y17.3827
G01 X6.4586 Y17.4001
G01 X6.4539 Y17.4087
G01 X6.4489 Y17.4171
G01 X6.4376 Y17.4331
G01 X6.4248 Y17.4479
G01 X6.4107 Y17.4614
G01 X6.3952 Y17.4735
G01 X6.3871 Y17.4789
G01 X6.3701 Y17.4886
G01 X6.3612 Y17.4928
G01 X6.3439 Y17.4995
G01 X6.3261 Y17.5046
G01 X6.3170 Y17.5066
G01 X6.2986 Y17.5091
G01 X6.2800 Y17.5100
G01 X3.8800 Y17.5100
G01 X3.8614 Y17.5091
G01 X3.8430 Y17.5066
G01 X3.8250 Y17.5023
G01 X3.8073 Y17.4963
G01 X3.7899 Y17.4886
G01 X3.7729 Y17.4789
G01 X3.7569 Y17.4676
G01 X3.7421 Y17.4548
G01 X3.7352 Y17.4479
G01 X3.7224 Y17.4331
G01 X3.7111 Y17.4171
G01 X3.7014 Y17.4001
G01 X3.6937 Y17.3827
G01 X3.6877 Y17.3650
G01 X3.6834 Y17.3470
G01 X3.6809 Y17.3286
G01 X3.6800 Y17.3100
G00 Z1.5000
G00 X3.6800 Y19.8500
G01 F80.00
G01 Z-0.2000
G01 F80.00
G01 X3.6802 Y18.2407
G01 X3.6819 Y18.2222
G01 X3.6854 Y18.2039
G01 X3.6877 Y18.1950
G01 X3.6937 Y18.1774
G01 X3.6972 Y18.1688
G01 X3.7061 Y18.1513
G01 X3.7165 Y18.1348
G01 X3.7224 Y18.1269
G01 X3.7352 Y18.1121
G01 X3.7421 Y18.1052
G01 X3.7569 Y18.0924
G01 X3.7729 Y18.0811
G01 X3.7899 Y18.0714
G01 X3.7988 Y18.0672
G01 X3.8074 Y18.0637
G01 X3.8250 Y18.0577
G01 X3.8430 Y18.0534
G01 X3.8522 Y18.0519
G01 X3.8707 Y18.0502
G01 X3.8800 Y18.0500
G01 X6.2800 Y18.0500
G01 X6.2986 Y18.0509
G01 X6.3078 Y18.0519
G01 X6.3170 Y18.0534
G01 X6.3350 Y18.0577
G01 X6.3527 Y18.0637
G01 X6.3612 Y18.0672
G01 X6.3787 Y18.0761
G01 X6.3952 Y18.0865
G01 X6.4031 Y18.0924
G01 X6.4179 Y18.1052
G01 X6.4248 Y18.1121
G01 X6.4376 Y18.1269
G01 X6.4489 Y18.1429
G01 X6.4586 Y18.1599
G01 X6.4628 Y18.1688
G01 X6.4695 Y18.1861
G01 X6.4723 Y18.1950
G01 X6.4766 Y18.2130
G01 X6.4781 Y18.2222
G01 X6.4798 Y18.2407
G01 X6.4800 Y18.2500
G01 X6.4798 Y19.8593
G01 X6.4781 Y19.8778
G01 X6.4766 Y19.8870
G01 X6.4723 Y19.9050
G01 X6.4663 Y19.9227
G01 X6.4628 Y19.9312
G01 X6.4539 Y19.9487
G01 X6.4435 Y19.9652
G01 X6.4376 Y19.9731
G01 X6.4248 Y19.9879
G01 X6.4107 Y20.0014
G01 X6.4031 Y20.0076
G01 X6.3871 Y20.0189
G01 X6.3701 Y20.0286
G01 X6.3612 Y20.0328
G01 X6.3527 Y20.0363
G01 X6.3350 Y20.0423
G01 X6.3170 Y20.0466
G01 X6.3078 Y20.0481
G01 X6.2986 Y20.0491
G01 X6.2800 Y20.0500
G01 X3.8707 Y20.0498
G01 X3.8522 Y20.0481
G01 X3.8339 Y20.0446
G01 X3.8161 Y20.0395
G01 X3.7988 Y20.0328
G01 X3.7813 Y20.0239
G01 X3.7648 Y20.0135
G01 X3.7493 Y20.0014
G01 X3.7352 Y19.9879
G01 X3.7224 Y19.9731
G01 X3.7111 Y19.9571
G01 X3.7014 Y19.9401
G01 X3.6937 Y19.9227
G01 X3.6877 Y19.9050
G01 X3.6834 Y19.8870
G01 X3.6809 Y19.8686
G01 X3.6800 Y19.8500
G00 Z1.5000
G00 X4.4550 Y20.6600
G01 F80.00
G01 Z-0.2000
G01 F80.00
G01 X5.7050 Y20.6600
G01 X5.7143 Y20.6602
G01 X5.7328 Y20.6619
G01 X5.7511 Y20.6654
G01 X5.7689 Y20.6705
G01 X5.7862 Y20.6772
G01 X5.7951 Y20.6814
G01 X5.8121 Y20.6911
G01 X5.8202 Y20.6965
G01 X5.8357 Y20.7086
G01 X5.8498 Y20.7221
G01 X5.8626 Y20.7369
G01 X5.8739 Y20.7529
G01 X5.8789 Y20.7613
G01 X5.8878 Y20.7788
G01 X5.8945 Y20.7961
G01 X5.8973 Y20.8050
G01 X5.8996 Y20.8139
G01 X5.9031 Y20.8322
G01 X5.9041 Y20.8414
G01 X5.9050 Y20.8600
G01 X5.9050 Y21.1599
G01 X6.7950 Y21.1599
G01 X6.7952 Y20.8507
G01 X6.7959 Y20.8414
G01 X6.7984 Y20.8230
G01 X6.8004 Y20.8139
G01 X6.8055 Y20.7961
G01 X6.8122 Y20.7788
G01 X6.8164 Y20.7699
G01 X6.8261 Y20.7529
G01 X6.8315 Y20.7448
G01 X6.8436 Y20.7293
G01 X6.8571 Y20.7152
G01 X6.8643 Y20.7086
G01 X6.8798 Y20.6965
G01 X6.8963 Y20.6861
G01 X6.9049 Y20.6814
G01 X6.9138 Y20.6772
G01 X6.9311 Y20.6705
G01 X6.9400 Y20.6677
G01 X6.9580 Y20.6634
G01 X6.9764 Y20.6609
G01 X6.9950 Y20.6600
G01 X8.2450 Y20.6600
G01 X8.2636 Y20.6609
G01 X8.2820 Y20.6634
G01 X8.2911 Y20.6654
G01 X8.3089 Y20.6705
G01 X8.3176 Y20.6737
G01 X8.3351 Y20.6814
G01 X8.3437 Y20.6861
G01 X8.3602 Y20.6965
G01 X8.3681 Y20.7024
G01 X8.3829 Y20.7152
G01 X8.3898 Y20.7221
G01 X8.4026 Y20.7369
G01 X8.4085 Y20.7448
G01 X8.4189 Y20.7613
G01 X8.4236 Y20.7699
G01 X8.4313 Y20.7874
G01 X8.4373 Y20.8050
G01 X8.4396 Y20.8139
G01 X8.4431 Y20.8322
G01 X8.4448 Y20.8507
G01 X8.4450 Y21.1599
G01 X9.3350 Y21.1599
G01 X9.3350 Y20.8600
G01 X9.3359 Y20.8414
G01 X9.3369 Y20.8322
G01 X9.3404 Y20.8139
G01 X9.3455 Y20.7961
G01 X9.3487 Y20.7874
G01 X9.3564 Y20.7699
G01 X9.3611 Y20.7613
G01 X9.3715 Y20.7448
G01 X9.3774 Y20.7369
G01 X9.3902 Y20.7221
G01 X9.3971 Y20.7152
G01 X9.4119 Y20.7024
G01 X9.4279 Y20.6911
G01 X9.4449 Y20.6814
G01 X9.4538 Y20.6772
G01 X9.4711 Y20.6705
G01 X9.4889 Y20.6654
G01 X9.5072 Y20.6619
G01 X9.5257 Y20.6602
G01 X9.7099 Y20.6600
G01 X9.7099 Y19.0500
G01 X9.7102 Y19.0328
G01 X9.7124 Y19.0022
G01 X9.7155 Y18.9791
G01 X9.7186 Y18.9620
G01 X9.7222 Y18.9454
G01 X9.7279 Y18.9240
G01 X9.7346 Y18.9030
G01 X9.7461 Y18.8732
G01 X9.7550 Y18.8536
G01 X9.7608 Y18.8422
G01 X9.7760 Y18.8152
G01 X9.7885 Y18.7959
G01 X9.7991 Y18.7810
G01 X9.8090 Y18.7683
G01 X9.8232 Y18.7514
G01 X9.8417 Y18.7317
G01 X12.3817 Y16.1917
G01 X12.4014 Y16.1732
G01 X12.4183 Y16.1590
G01 X12.4310 Y16.1491
G01 X12.4540 Y16.1331
G01 X12.4644 Y16.1265
G01 X12.4835 Y16.1154
G01 X12.5120 Y16.1010
G01 X12.5300 Y16.0932
G01 X12.5438 Y16.0879
G01 X12.5740 Y16.0779
G01 X12.5954 Y16.0722
G01 X12.6120 Y16.0686
G01 X12.6388 Y16.0641
G01 X12.6510 Y16.0626
G01 X12.6730 Y16.0607
G01 X12.7000 Y16.0599
G01 X13.8400 Y16.0599
G01 X13.8402 Y15.7007
G01 X13.8419 Y15.6822
G01 X13.8434 Y15.6730
G01 X13.8454 Y15.6639
G01 X13.8505 Y15.6461
G01 X13.8572 Y15.6288
G01 X13.8614 Y15.6199
G01 X13.8661 Y15.6113
G01 X13.8765 Y15.5948
G01 X13.8886 Y15.5793
G01 X13.8952 Y15.5721
G01 X13.9093 Y15.5586
G01 X13.9248 Y15.5465
G01 X13.9329 Y15.5411
G01 X13.9499 Y15.5314
G01 X13.9588 Y15.5272
G01 X13.9674 Y15.5237
G01 X13.9850 Y15.5177
G01 X13.9939 Y15.5154
G01 X14.0122 Y15.5119
G01 X14.0307 Y15.5102
G01 X14.0400 Y15.5100
G01 X16.4493 Y15.5102
G01 X16.4586 Y15.5109
G01 X16.4770 Y15.5134
G01 X16.4861 Y15.5154
G01 X16.5039 Y15.5205
G01 X16.5212 Y15.5272
G01 X16.5301 Y15.5314
G01 X16.5471 Y15.5411
G01 X16.5552 Y15.5465
G01 X16.5631 Y15.5524
G01 X16.5779 Y15.5652
G01 X16.5914 Y15.5793
G01 X16.5976 Y15.5869
G01 X16.6089 Y15.6029
G01 X16.6139 Y15.6113
G01 X16.6186 Y15.6199
G01 X16.6263 Y15.6374
G01 X16.6323 Y15.6550
G01 X16.6366 Y15.6730
G01 X16.6391 Y15.6914
G01 X16.6400 Y15.7100
G01 X16.6398 Y17.3193
G01 X16.6381 Y17.3378
G01 X16.6366 Y17.3470
G01 X16.6346 Y17.3561
G01 X16.6295 Y17.3739
G01 X16.6228 Y17.3912
G01 X16.6186 Y17.4001
G01 X16.6089 Y17.4171
G01 X16.6035 Y17.4252
G01 X16.5914 Y17.4407
G01 X16.5779 Y17.4548
G01 X16.5631 Y17.4676
G01 X16.5471 Y17.4789
G01 X16.5387 Y17.4839
G01 X16.5212 Y17.4928
G01 X16.5039 Y17.4995
G01 X16.4950 Y17.5023
G01 X16.4861 Y17.5046
G01 X16.4678 Y17.5081
G01 X16.4493 Y17.5098
G01 X16.4400 Y17.5100
G01 X14.0400 Y17.5100
G01 X14.0307 Y17.5098
G01 X14.0122 Y17.5081
G01 X13.9939 Y17.5046
G01 X13.9850 Y17.5023
G01 X13.9674 Y17.4963
G01 X13.9588 Y17.4928
G01 X13.9413 Y17.4839
G01 X13.9329 Y17.4789
G01 X13.9248 Y17.4735
G01 X13.9093 Y17.4614
G01 X13.8952 Y17.4479
G01 X13.8886 Y17.4407
G01 X13.8765 Y17.4252
G01 X13.8661 Y17.4087
G01 X13.8614 Y17.4001
G01 X13.8572 Y17.3912
G01 X13.8505 Y17.3739
G01 X13.8454 Y17.3561
G01 X13.8434 Y17.3470
G01 X13.8409 Y17.3286
G01 X13.8402 Y17.3193
G01 X13.8400 Y16.9601
G01 X12.8864 Y16.9601
G01 X10.6101 Y19.2364
G01 X10.6101 Y20.6600
G01 X10.7850 Y20.6600
G01 X10.8036 Y20.6609
G01 X10.8220 Y20.6634
G01 X10.8400 Y20.6677
G01 X10.8576 Y20.6737
G01 X10.8751 Y20.6814
G01 X10.8921 Y20.6911
G01 X10.9002 Y20.6965
G01 X10.9157 Y20.7086
G01 X10.9298 Y20.7221
G01 X10.9364 Y20.7293
G01 X10.9485 Y20.7448
G01 X10.9589 Y20.7613
G01 X10.9636 Y20.7699
G01 X10.9713 Y20.7874
G01 X10.9773 Y20.8050
G01 X10.9796 Y20.8139
G01 X10.9831 Y20.8322
G01 X10.9841 Y20.8414
G01 X10.9850 Y20.8600
G01 X10.9850 Y22.3600
G01 X10.9841 Y22.3786
G01 X10.9831 Y22.3878
G01 X10.9796 Y22.4061
G01 X10.9773 Y22.4150
G01 X10.9713 Y22.4326
G01 X10.9636 Y22.4501
G01 X10.9589 Y22.4587
G01 X10.9539 Y22.4671
G01 X10.9426 Y22.4831
G01 X10.9364 Y22.4907
G01 X10.9229 Y22.5048
G01 X10.9081 Y22.5176
G01 X10.8921 Y22.5289
G01 X10.8837 Y22.5339
G01 X10.8751 Y22.5386
G01 X10.8576 Y22.5463
G01 X10.8400 Y22.5523
G01 X10.8220 Y22.5566
G01 X10.8036 Y22.5591
G01 X10.7850 Y22.5600
G01 X9.5350 Y22.5600
G01 X9.5164 Y22.5591
G01 X9.4980 Y22.5566
G01 X9.4889 Y22.5546
G01 X9.4711 Y22.5495
G01 X9.4538 Y22.5428
G01 X9.4449 Y22.5386
G01 X9.4363 Y22.5339
G01 X9.4198 Y22.5235
G01 X9.4043 Y22.5114
G01 X9.3902 Y22.4979
G01 X9.3774 Y22.4831
G01 X9.3715 Y22.4752
G01 X9.3611 Y22.4587
G01 X9.3564 Y22.4501
G01 X9.3522 Y22.4412
G01 X9.3455 Y22.4239
G01 X9.3427 Y22.4150
G01 X9.3384 Y22.3970
G01 X9.3369 Y22.3878
G01 X9.3352 Y22.3693
G01 X9.3350 Y22.0601
G01 X8.4450 Y22.0601
G01 X8.4450 Y22.3600
G01 X8.4441 Y22.3786
G01 X8.4431 Y22.3878
G01 X8.4396 Y22.4061
G01 X8.4373 Y22.4150
G01 X8.4313 Y22.4327
G01 X8.4278 Y22.4412
G01 X8.4189 Y22.4587
G01 X8.4085 Y22.4752
G01 X8.4026 Y22.4831
G01 X8.3898 Y22.4979
G01 X8.3757 Y22.5114
G01 X8.3602 Y22.5235
G01 X8.3521 Y22.5289
G01 X8.3351 Y22.5386
G01 X8.3262 Y22.5428
G01 X8.3089 Y22.5495
G01 X8.2911 Y22.5546
G01 X8.2820 Y22.5566
G01 X8.2636 Y22.5591
G01 X8.2450 Y22.5600
G01 X6.9950 Y22.5600
G01 X6.9764 Y22.5591
G01 X6.9580 Y22.5566
G01 X6.9489 Y22.5546
G01 X6.9400 Y22.5523
G01 X6.9223 Y22.5463
G01 X6.9049 Y22.5386
G01 X6.8963 Y22.5339
G01 X6.8798 Y22.5235
G01 X6.8719 Y22.5176
G01 X6.8571 Y22.5048
G01 X6.8436 Y22.4907
G01 X6.8374 Y22.4831
G01 X6.8261 Y22.4671
G01 X6.8211 Y22.4587
G01 X6.8164 Y22.4501
G01 X6.8087 Y22.4327
G01 X6.8027 Y22.4150
G01 X6.8004 Y22.4061
G01 X6.7969 Y22.3878
G01 X6.7952 Y22.3693
G01 X6.7950 Y22.0601
G01 X5.9050 Y22.0601
G01 X5.9050 Y22.3600
G01 X5.9041 Y22.3786
G01 X5.9031 Y22.3878
G01 X5.8996 Y22.4061
G01 X5.8973 Y22.4150
G01 X5.8913 Y22.4327
G01 X5.8878 Y22.4412
G01 X5.8789 Y22.4587
G01 X5.8739 Y22.4671
G01 X5.8626 Y22.4831
G01 X5.8498 Y22.4979
G01 X5.8429 Y22.5048
G01 X5.8281 Y22.5176
G01 X5.8121 Y22.5289
G01 X5.7951 Y22.5386
G01 X5.7862 Y22.5428
G01 X5.7689 Y22.5495
G01 X5.7511 Y22.5546
G01 X5.7328 Y22.5581
G01 X5.7236 Y22.5591
G01 X5.7050 Y22.5600
G01 X4.4550 Y22.5600
G01 X4.4364 Y22.5591
G01 X4.4272 Y22.5581
G01 X4.4180 Y22.5566
G01 X4.4000 Y22.5523
G01 X4.3823 Y22.5463
G01 X4.3738 Y22.5428
G01 X4.3563 Y22.5339
G01 X4.3479 Y22.5289
G01 X4.3398 Y22.5235
G01 X4.3243 Y22.5114
G01 X4.3171 Y22.5048
G01 X4.3036 Y22.4907
G01 X4.2915 Y22.4752
G01 X4.2861 Y22.4671
G01 X4.2764 Y22.4501
G01 X4.2722 Y22.4412
G01 X4.2655 Y22.4239
G01 X4.2627 Y22.4150
G01 X4.2584 Y22.3970
G01 X4.2559 Y22.3786
G01 X4.2550 Y22.3600
G01 X4.2552 Y20.8507
G01 X4.2569 Y20.8322
G01 X4.2604 Y20.8139
G01 X4.2655 Y20.7961
G01 X4.2722 Y20.7788
G01 X4.2811 Y20.7613
G01 X4.2915 Y20.7448
G01 X4.3036 Y20.7293
G01 X4.3171 Y20.7152
G01 X4.3319 Y20.7024
G01 X4.3479 Y20.6911
G01 X4.3649 Y20.6814
G01 X4.3823 Y20.6737
G01 X4.4000 Y20.6677
G01 X4.4180 Y20.6634
G01 X4.4364 Y20.6609
G01 X4.4550 Y20.6600
G00 Z1.5000
G00 X9.5350 Y23.1600
G01 F80.00
G01 Z-0.2000
G01 F80.00
G01 X10.7850 Y23.1600
G01 X10.8036 Y23.1609
G01 X10.8128 Y23.1619
G01 X10.8311 Y23.1654
G01 X10.8489 Y23.1705
G01 X10.8662 Y23.1772
G01 X10.8751 Y23.1814
G01 X10.8921 Y23.1911
G01 X10.9002 Y23.1965
G01 X10.9157 Y23.2086
G01 X10.9298 Y23.2221
G01 X10.9426 Y23.2369
G01 X10.9539 Y23.2529
G01 X10.9589 Y23.2613
G01 X10.9678 Y23.2788
G01 X10.9713 Y23.2874
G01 X10.9773 Y23.3050
G01 X10.9796 Y23.3139
G01 X10.9831 Y23.3322
G01 X10.9848 Y23.3507
G01 X10.9850 Y23.3600
G01 X10.9850 Y23.6599
G01 X11.8750 Y23.6599
G01 X11.8752 Y23.3507
G01 X11.8769 Y23.3322
G01 X11.8784 Y23.3230
G01 X11.8804 Y23.3139
G01 X11.8855 Y23.2961
G01 X11.8922 Y23.2788
G01 X11.8964 Y23.2699
G01 X11.9011 Y23.2613
G01 X11.9115 Y23.2448
G01 X11.9174 Y23.2369
G01 X11.9302 Y23.2221
G01 X11.9443 Y23.2086
G01 X11.9598 Y23.1965
G01 X11.9763 Y23.1861
G01 X11.9849 Y23.1814
G01 X11.9938 Y23.1772
G01 X12.0111 Y23.1705
G01 X12.0289 Y23.1654
G01 X12.0380 Y23.1634
G01 X12.0564 Y23.1609
G01 X12.0750 Y23.1600
G01 X13.3250 Y23.1600
G01 X13.3436 Y23.1609
G01 X13.3620 Y23.1634
G01 X13.3711 Y23.1654
G01 X13.3889 Y23.1705
G01 X13.4062 Y23.1772
G01 X13.4237 Y23.1861
G01 X13.4402 Y23.1965
G01 X13.4481 Y23.2024
G01 X13.4629 Y23.2152
G01 X13.4698 Y23.2221
G01 X13.4826 Y23.2369
G01 X13.4885 Y23.2448
G01 X13.4989 Y23.2613
G01 X13.5036 Y23.2699
G01 X13.5078 Y23.2788
G01 X13.5145 Y23.2961
G01 X13.5173 Y23.3050
G01 X13.5216 Y23.3230
G01 X13.5231 Y23.3322
G01 X13.5248 Y23.3507
G01 X13.5250 Y24.8600
G01 X13.5241 Y24.8786
G01 X13.5231 Y24.8878
G01 X13.5196 Y24.9061
G01 X13.5145 Y24.9239
G01 X13.5078 Y24.9412
G01 X13.5036 Y24.9501
G01 X13.4939 Y24.9671
G01 X13.4826 Y24.9831
G01 X13.4698 Y24.9979
G01 X13.4629 Y25.0048
G01 X13.4481 Y25.0176
G01 X13.4402 Y25.0235
G01 X13.4237 Y25.0339
G01 X13.4151 Y25.0386
G01 X13.3977 Y25.0463
G01 X13.3889 Y25.0495
G01 X13.3711 Y25.0546
G01 X13.3620 Y25.0566
G01 X13.3436 Y25.0591
G01 X13.3250 Y25.0600
G01 X12.0750 Y25.0600
G01 X12.0657 Y25.0598
G01 X12.0472 Y25.0581
G01 X12.0380 Y25.0566
G01 X12.0200 Y25.0523
G01 X12.0024 Y25.0463
G01 X11.9938 Y25.0428
G01 X11.9763 Y25.0339
G01 X11.9679 Y25.0289
G01 X11.9519 Y25.0176
G01 X11.9443 Y25.0114
G01 X11.9302 Y24.9979
G01 X11.9174 Y24.9831
G01 X11.9115 Y24.9752
G01 X11.9011 Y24.9587
G01 X11.8964 Y24.9501
G01 X11.8922 Y24.9412
G01 X11.8855 Y24.9239
G01 X11.8827 Y24.9150
G01 X11.8784 Y24.8970
G01 X11.8769 Y24.8878
G01 X11.8752 Y24.8693
G01 X11.8750 Y24.5601
G01 X10.9850 Y24.5601
G01 X10.9850 Y24.8600
G01 X10.9848 Y24.8693
G01 X10.9831 Y24.8878
G01 X10.9796 Y24.9061
G01 X10.9773 Y24.9150
G01 X10.9713 Y24.9326
G01 X10.9678 Y24.9412
G01 X10.9589 Y24.9587
G01 X10.9485 Y24.9752
G01 X10.9364 Y24.9907
G01 X10.9298 Y24.9979
G01 X10.9157 Y25.0114
G01 X10.9002 Y25.0235
G01 X10.8921 Y25.0289
G01 X10.8751 Y25.0386
G01 X10.8662 Y25.0428
G01 X10.8489 Y25.0495
G01 X10.8311 Y25.0546
G01 X10.8128 Y25.0581
G01 X10.8036 Y25.0591
G01 X10.7850 Y25.0600
G01 X9.5350 Y25.0600
G01 X9.5164 Y25.0591
G01 X9.4980 Y25.0566
G01 X9.4889 Y25.0546
G01 X9.4711 Y25.0495
G01 X9.4538 Y25.0428
G01 X9.4363 Y25.0339
G01 X9.4198 Y25.0235
G01 X9.4119 Y25.0176
G01 X9.3971 Y25.0048
G01 X9.3902 Y24.9979
G01 X9.3774 Y24.9831
G01 X9.3715 Y24.9752
G01 X9.3611 Y24.9587
G01 X9.3564 Y24.9501
G01 X9.3487 Y24.9326
G01 X9.3427 Y24.9150
G01 X9.3404 Y24.9061
G01 X9.3369 Y24.8878
G01 X9.3359 Y24.8786
G01 X9.3350 Y24.8600
G01 X9.3352 Y23.3507
G01 X9.3369 Y23.3322
G01 X9.3404 Y23.3139
G01 X9.3455 Y23.2961
G01 X9.3522 Y23.2788
G01 X9.3611 Y23.2613
G01 X9.3715 Y23.2448
G01 X9.3836 Y23.2293
G01 X9.3971 Y23.2152
G01 X9.4119 Y23.2024
G01 X9.4279 Y23.1911
G01 X9.4449 Y23.1814
G01 X9.4624 Y23.1737
G01 X9.4800 Y23.1677
G01 X9.4980 Y23.1634
G01 X9.5164 Y23.1609
G01 X9.5350 Y23.1600
G00 Z1.5000
G00 X12.0750 Y20.6600
G01 F80.00
G01 Z-0.2000
G01 F80.00
G01 X13.3250 Y20.6600
G01 X13.3343 Y20.6602
G01 X13.3528 Y20.6619
G01 X13.3620 Y20.6634
G01 X13.3800 Y20.6677
G01 X13.3976 Y20.6737
G01 X13.4062 Y20.6772
G01 X13.4237 Y20.6861
G01 X13.4321 Y20.6911
G01 X13.4481 Y20.7024
G01 X13.4629 Y20.7152
G01 X13.4698 Y20.7221
G01 X13.4826 Y20.7369
G01 X13.4885 Y20.7448
G01 X13.4989 Y20.7613
G01 X13.5078 Y20.7788
G01 X13.5113 Y20.7874
G01 X13.5173 Y20.8050
G01 X13.5216 Y20.8230
G01 X13.5231 Y20.8322
G01 X13.5241 Y20.8414
G01 X13.5250 Y20.8600
G01 X13.5250 Y21.1599
G01 X14.4726 Y21.1599
G01 X14.5004 Y21.1522
G01 X14.5170 Y21.1486
G01 X14.5341 Y21.1455
G01 X14.5658 Y21.1416
G01 X14.5878 Y21.1402
G01 X14.6050 Y21.1399
G01 X14.6320 Y21.1407
G01 X14.6528 Y21.1424
G01 X14.6662 Y21.1441
G01 X14.6930 Y21.1486
G01 X14.7191 Y21.1546
G01 X14.7403 Y21.1607
G01 X14.7612 Y21.1679
G01 X14.7750 Y21.1732
G01 X14.7930 Y21.1810
G01 X14.8128 Y21.1908
G01 X14.8398 Y21.2060
G01 X14.8591 Y21.2185
G01 X14.8740 Y21.2291
G01 X14.8867 Y21.2390
G01 X14.9036 Y21.2532
G01 X14.9233 Y21.2717
G01 X15.5226 Y21.8710
G01 X15.5749 Y21.8538
G01 X15.6246 Y21.8403
G01 X15.6699 Y21.8302
G01 X15.7161 Y21.8221
G01 X15.7672 Y21.8156
G01 X15.8186 Y21.8116
G01 X15.8750 Y21.8100
G01 X15.9314 Y21.8116
G01 X15.9816 Y21.8155
G01 X16.0339 Y21.8221
G01 X16.0800 Y21.8302
G01 X16.1349 Y21.8427
G01 X16.1845 Y21.8567
G01 X16.2333 Y21.8731
G01 X16.2746 Y21.8890
G01 X16.3195 Y21.9088
G01 X16.3656 Y21.9317
G01 X16.4106 Y21.9569
G01 X16.4542 Y21.9843
G01 X16.5013 Y22.0173
G01 X16.5439 Y22.0507
G01 X16.5765 Y22.0787
G01 X16.6175 Y22.1175
G01 X16.6497 Y22.1513
G01 X16.6835 Y22.1901
G01 X16.7177 Y22.2337
G01 X16.7453 Y22.2726
G01 X16.7730 Y22.3160
G01 X16.7987 Y22.3607
G01 X16.8223 Y22.4071
G01 X16.8460 Y22.4604
G01 X16.8619 Y22.5017
G01 X16.8783 Y22.5505
G01 X16.8923 Y22.6001
G01 X16.9048 Y22.6550
G01 X16.9129 Y22.7011
G01 X16.9194 Y22.7522
G01 X16.9234 Y22.8036
G01 X16.9250 Y22.8600
G01 X16.9239 Y22.9066
G01 X16.9204 Y22.9580
G01 X16.9143 Y23.0092
G01 X16.9048 Y23.0650
G01 X16.8947 Y23.1104
G01 X16.8812 Y23.1601
G01 X16.8652 Y23.2091
G01 X16.8460 Y23.2596
G01 X16.8262 Y23.3045
G01 X16.8033 Y23.3506
G01 X16.7781 Y23.3956
G01 X16.7507 Y23.4392
G01 X16.7177 Y23.4863
G01 X16.6843 Y23.5289
G01 X16.6563 Y23.5615
G01 X16.6175 Y23.6025
G01 X16.5837 Y23.6347
G01 X16.5449 Y23.6685
G01 X16.5013 Y23.7027
G01 X16.4624 Y23.7303
G01 X16.4190 Y23.7580
G01 X16.3743 Y23.7837
G01 X16.3279 Y23.8073
G01 X16.2746 Y23.8310
G01 X16.2333 Y23.8469
G01 X16.1845 Y23.8633
G01 X16.1349 Y23.8773
G01 X16.0800 Y23.8898
G01 X16.0339 Y23.8979
G01 X15.9828 Y23.9044
G01 X15.9314 Y23.9084
G01 X15.8750 Y23.9100
G01 X15.8284 Y23.9089
G01 X15.7770 Y23.9054
G01 X15.7258 Y23.8993
G01 X15.6699 Y23.8898
G01 X15.6246 Y23.8797
G01 X15.5749 Y23.8662
G01 X15.5259 Y23.8502
G01 X15.4754 Y23.8310
G01 X15.4305 Y23.8112
G01 X15.3844 Y23.7883
G01 X15.3394 Y23.7631
G01 X15.2876 Y23.7303
G01 X15.2487 Y23.7027
G01 X15.2061 Y23.6693
G01 X15.1663 Y23.6347
G01 X15.1325 Y23.6025
G01 X15.1003 Y23.5687
G01 X15.0665 Y23.5299
G01 X15.0323 Y23.4863
G01 X15.0047 Y23.4474
G01 X14.9719 Y23.3956
G01 X14.9467 Y23.3506
G01 X14.9277 Y23.3129
G01 X14.9040 Y23.2596
G01 X14.8881 Y23.2183
G01 X14.8688 Y23.1601
G01 X14.8553 Y23.1104
G01 X14.8443 Y23.0600
G01 X14.8357 Y23.0092
G01 X14.8296 Y22.9580
G01 X14.8261 Y22.9066
G01 X14.8250 Y22.8600
G01 X14.8261 Y22.8134
G01 X14.8296 Y22.7620
G01 X14.8371 Y22.7011
G01 X14.8452 Y22.6550
G01 X14.8577 Y22.6001
G01 X14.8717 Y22.5505
G01 X14.8860 Y22.5076
G01 X14.4386 Y22.0601
G01 X13.5250 Y22.0601
G01 X13.5248 Y22.3693
G01 X13.5241 Y22.3786
G01 X13.5216 Y22.3970
G01 X13.5196 Y22.4061
G01 X13.5145 Y22.4239
G01 X13.5078 Y22.4412
G01 X13.5036 Y22.4501
G01 X13.4939 Y22.4671
G01 X13.4885 Y22.4752
G01 X13.4826 Y22.4831
G01 X13.4698 Y22.4979
G01 X13.4557 Y22.5114
G01 X13.4402 Y22.5235
G01 X13.4321 Y22.5289
G01 X13.4151 Y22.5386
G01 X13.4062 Y22.5428
G01 X13.3889 Y22.5495
G01 X13.3711 Y22.5546
G01 X13.3620 Y22.5566
G01 X13.3436 Y22.5591
G01 X13.3250 Y22.5600
G01 X12.0750 Y22.5600
G01 X12.0657 Y22.5598
G01 X12.0472 Y22.5581
G01 X12.0380 Y22.5566
G01 X12.0200 Y22.5523
G01 X12.0024 Y22.5463
G01 X11.9938 Y22.5428
G01 X11.9763 Y22.5339
G01 X11.9598 Y22.5235
G01 X11.9519 Y22.5176
G01 X11.9371 Y22.5048
G01 X11.9302 Y22.4979
G01 X11.9174 Y22.4831
G01 X11.9061 Y22.4671
G01 X11.8964 Y22.4501
G01 X11.8922 Y22.4412
G01 X11.8855 Y22.4239
G01 X11.8827 Y22.4150
G01 X11.8784 Y22.3970
G01 X11.8769 Y22.3878
G01 X11.8752 Y22.3693
G01 X11.8752 Y20.8507
G01 X11.8769 Y20.8322
G01 X11.8804 Y20.8139
G01 X11.8855 Y20.7961
G01 X11.8922 Y20.7788
G01 X11.9011 Y20.7613
G01 X11.9115 Y20.7448
G01 X11.9236 Y20.7293
G01 X11.9371 Y20.7152
G01 X11.9519 Y20.7024
G01 X11.9679 Y20.6911
G01 X11.9849 Y20.6814
G01 X12.0024 Y20.6737
G01 X12.0200 Y20.6677
G01 X12.0380 Y20.6634
G01 X12.0564 Y20.6609
G01 X12.0750 Y20.6600
G00 Z1.5000
G00 X14.0400 Y10.4300
G01 F80.00
G01 Z-0.2000
G01 F80.00
G01 X16.4400 Y10.4300
G01 X16.4586 Y10.4309
G01 X16.4678 Y10.4319
G01 X16.4861 Y10.4354
G01 X16.5039 Y10.4405
G01 X16.5212 Y10.4472
G01 X16.5387 Y10.4561
G01 X16.5471 Y10.4611
G01 X16.5631 Y10.4724
G01 X16.5779 Y10.4852
G01 X16.5914 Y10.4993
G01 X16.5976 Y10.5069
G01 X16.6089 Y10.5229
G01 X16.6186 Y10.5399
G01 X16.6263 Y10.5574
G01 X16.6295 Y10.5661
G01 X16.6346 Y10.5839
G01 X16.6381 Y10.6022
G01 X16.6398 Y10.6207
G01 X16.6400 Y10.6300
G01 X16.6398 Y12.2393
G01 X16.6381 Y12.2578
G01 X16.6346 Y12.2761
G01 X16.6295 Y12.2939
G01 X16.6263 Y12.3027
G01 X16.6186 Y12.3201
G01 X16.6139 Y12.3287
G01 X16.6089 Y12.3371
G01 X16.5976 Y12.3531
G01 X16.5848 Y12.3679
G01 X16.5779 Y12.3748
G01 X16.5631 Y12.3876
G01 X16.5471 Y12.3989
G01 X16.5301 Y12.4086
G01 X16.5127 Y12.4163
G01 X16.4950 Y12.4223
G01 X16.4861 Y12.4246
G01 X16.4678 Y12.4281
G01 X16.4586 Y12.4291
G01 X16.4400 Y12.4300
G01 X14.0400 Y12.4300
G01 X14.0214 Y12.4291
G01 X14.0030 Y12.4266
G01 X13.9939 Y12.4246
G01 X13.9761 Y12.4195
G01 X13.9588 Y12.4128
G01 X13.9413 Y12.4039
G01 X13.9248 Y12.3935
G01 X13.9169 Y12.3876
G01 X13.9093 Y12.3814
G01 X13.8952 Y12.3679
G01 X13.8824 Y12.3531
G01 X13.8711 Y12.3371
G01 X13.8614 Y12.3201
G01 X13.8537 Y12.3026
G01 X13.8477 Y12.2850
G01 X13.8434 Y12.2670
G01 X13.8419 Y12.2578
G01 X13.8402 Y12.2393
G01 X13.8402 Y10.6207
G01 X13.8419 Y10.6022
G01 X13.8454 Y10.5839
G01 X13.8505 Y10.5661
G01 X13.8572 Y10.5488
G01 X13.8661 Y10.5313
G01 X13.8765 Y10.5148
G01 X13.8886 Y10.4993
G01 X13.9021 Y10.4852
G01 X13.9169 Y10.4724
G01 X13.9329 Y10.4611
G01 X13.9499 Y10.4514
G01 X13.9674 Y10.4437
G01 X13.9850 Y10.4377
G01 X14.0030 Y10.4334
G01 X14.0214 Y10.4309
G01 X14.0400 Y10.4300
G00 Z1.5000
G00 X10.6559 Y5.5554
G01 F80.00
G01 Z-0.2000
G01 F80.00
G01 X12.1559 Y5.5554
G01 X12.1744 Y5.5562
G01 X12.1928 Y5.5588
G01 X12.2109 Y5.5631
G01 X12.2285 Y5.5690
G01 X12.2371 Y5.5726
G01 X12.2546 Y5.5814
G01 X12.2630 Y5.5865
G01 X12.2790 Y5.5977
G01 X12.2938 Y5.6105
G01 X12.3007 Y5.6174
G01 X12.3135 Y5.6323
G01 X12.3248 Y5.6483
G01 X12.3298 Y5.6567
G01 X12.3344 Y5.6653
G01 X12.3422 Y5.6827
G01 X12.3481 Y5.7003
G01 X12.3524 Y5.7184
G01 X12.3550 Y5.7368
G01 X12.3559 Y5.7554
G01 X12.3559 Y7.0054
G01 X12.3550 Y7.0239
G01 X12.3524 Y7.0423
G01 X12.3505 Y7.0514
G01 X12.3454 Y7.0693
G01 X12.3386 Y7.0866
G01 X12.3344 Y7.0954
G01 X12.3248 Y7.1125
G01 X12.3135 Y7.1285
G01 X12.3007 Y7.1433
G01 X12.2938 Y7.1502
G01 X12.2790 Y7.1630
G01 X12.2711 Y7.1688
G01 X12.2546 Y7.1793
G01 X12.2371 Y7.1881
G01 X12.2198 Y7.1949
G01 X12.2109 Y7.1976
G01 X12.2019 Y7.2000
G01 X12.1837 Y7.2034
G01 X12.1744 Y7.2045
G01 X12.1559 Y7.2054
G01 X11.8560 Y7.2054
G01 X11.8560 Y8.0954
G01 X12.1652 Y8.0956
G01 X12.1744 Y8.0962
G01 X12.1928 Y8.0988
G01 X12.2109 Y8.1031
G01 X12.2285 Y8.1090
G01 X12.2459 Y8.1168
G01 X12.2546 Y8.1214
G01 X12.2711 Y8.1319
G01 X12.2790 Y8.1377
G01 X12.2938 Y8.1505
G01 X12.3007 Y8.1574
G01 X12.3073 Y8.1647
G01 X12.3193 Y8.1801
G01 X12.3298 Y8.1967
G01 X12.3344 Y8.2053
G01 X12.3386 Y8.2141
G01 X12.3454 Y8.2314
G01 X12.3481 Y8.2403
G01 X12.3524 Y8.2584
G01 X12.3550 Y8.2768
G01 X12.3559 Y8.2954
G01 X12.3559 Y9.5454
G01 X12.3556 Y9.5546
G01 X12.3539 Y9.5732
G01 X12.3505 Y9.5914
G01 X12.3454 Y9.6093
G01 X12.3386 Y9.6266
G01 X12.3344 Y9.6354
G01 X12.3248 Y9.6525
G01 X12.3193 Y9.6606
G01 X12.3073 Y9.6760
G01 X12.2938 Y9.6902
G01 X12.2865 Y9.6968
G01 X12.2711 Y9.7088
G01 X12.2546 Y9.7193
G01 X12.2371 Y9.7281
G01 X12.2198 Y9.7349
G01 X12.2109 Y9.7376
G01 X12.2019 Y9.7400
G01 X12.1837 Y9.7434
G01 X12.1652 Y9.7451
G01 X12.1559 Y9.7454
G01 X11.8560 Y9.7454
G01 X11.8560 Y12.4894
G01 X12.8864 Y13.5199
G01 X13.8400 Y13.5199
G01 X13.8402 Y13.1607
G01 X13.8419 Y13.1422
G01 X13.8434 Y13.1330
G01 X13.8454 Y13.1239
G01 X13.8505 Y13.1061
G01 X13.8572 Y13.0888
G01 X13.8614 Y13.0799
G01 X13.8661 Y13.0713
G01 X13.8765 Y13.0548
G01 X13.8886 Y13.0393
G01 X13.9021 Y13.0252
G01 X13.9093 Y13.0186
G01 X13.9169 Y13.0124
G01 X13.9329 Y13.0011
G01 X13.9499 Y12.9914
G01 X13.9588 Y12.9872
G01 X13.9761 Y12.9805
G01 X13.9850 Y12.9777
G01 X13.9939 Y12.9754
G01 X14.0122 Y12.9719
G01 X14.0307 Y12.9702
G01 X14.0400 Y12.9700
G01 X16.4400 Y12.9700
G01 X16.4586 Y12.9709
G01 X16.4770 Y12.9734
G01 X16.4861 Y12.9754
G01 X16.4950 Y12.9777
G01 X16.5127 Y12.9837
G01 X16.5301 Y12.9914
G01 X16.5471 Y13.0011
G01 X16.5631 Y13.0124
G01 X16.5707 Y13.0186
G01 X16.5848 Y13.0321
G01 X16.5914 Y13.0393
G01 X16.6035 Y13.0548
G01 X16.6089 Y13.0629
G01 X16.6186 Y13.0799
G01 X16.6228 Y13.0888
G01 X16.6295 Y13.1061
G01 X16.6323 Y13.1150
G01 X16.6346 Y13.1239
G01 X16.6381 Y13.1422
G01 X16.6398 Y13.1607
G01 X16.6400 Y13.1700
G01 X16.6398 Y14.7793
G01 X16.6391 Y14.7886
G01 X16.6366 Y14.8070
G01 X16.6323 Y14.8250
G01 X16.6263 Y14.8426
G01 X16.6228 Y14.8512
G01 X16.6139 Y14.8687
G01 X16.6089 Y14.8771
G01 X16.5976 Y14.8931
G01 X16.5848 Y14.9079
G01 X16.5707 Y14.9214
G01 X16.5631 Y14.9276
G01 X16.5471 Y14.9389
G01 X16.5301 Y14.9486
G01 X16.5212 Y14.9528
G01 X16.5126 Y14.9563
G01 X16.4950 Y14.9623
G01 X16.4861 Y14.9646
G01 X16.4678 Y14.9681
G01 X16.4493 Y14.9698
G01 X16.4400 Y14.9700
G01 X14.0400 Y14.9700
G01 X14.0214 Y14.9691
G01 X14.0030 Y14.9666
G01 X13.9850 Y14.9623
G01 X13.9674 Y14.9563
G01 X13.9499 Y14.9486
G01 X13.9413 Y14.9439
G01 X13.9248 Y14.9335
G01 X13.9093 Y14.9214
G01 X13.9021 Y14.9148
G01 X13.8886 Y14.9007
G01 X13.8765 Y14.8852
G01 X13.8661 Y14.8687
G01 X13.8614 Y14.8601
G01 X13.8537 Y14.8426
G01 X13.8505 Y14.8339
G01 X13.8454 Y14.8161
G01 X13.8419 Y14.7978
G01 X13.8402 Y14.7793
G01 X13.8400 Y14.7700
G01 X13.8400 Y14.4201
G01 X12.7000 Y14.4201
G01 X12.6828 Y14.4198
G01 X12.6522 Y14.4176
G01 X12.6291 Y14.4145
G01 X12.6120 Y14.4114
G01 X12.5859 Y14.4054
G01 X12.5740 Y14.4021
G01 X12.5530 Y14.3954
G01 X12.5300 Y14.3868
G01 X12.5036 Y14.3750
G01 X12.4835 Y14.3646
G01 X12.4652 Y14.3540
G01 X12.4540 Y14.3469
G01 X12.4310 Y14.3309
G01 X12.4183 Y14.3210
G01 X12.4014 Y14.3068
G01 X12.3817 Y14.2883
G01 X11.0876 Y12.9942
G01 X11.0691 Y12.9745
G01 X11.0548 Y12.9576
G01 X11.0450 Y12.9449
G01 X11.0344 Y12.9300
G01 X11.0224 Y12.9115
G01 X11.0066 Y12.8837
G01 X10.9969 Y12.8639
G01 X10.9891 Y12.8459
G01 X10.9838 Y12.8321
G01 X10.9738 Y12.8018
G01 X10.9681 Y12.7805
G01 X10.9644 Y12.7639
G01 X10.9614 Y12.7468
G01 X10.9575 Y12.7151
G01 X10.9566 Y12.7029
G01 X10.9558 Y12.6808
G01 X10.9557 Y9.7454
G01 X10.6466 Y9.7451
G01 X10.6281 Y9.7434
G01 X10.6098 Y9.7400
G01 X10.6008 Y9.7376
G01 X10.5832 Y9.7317
G01 X10.5658 Y9.7239
G01 X10.5572 Y9.7193
G01 X10.5406 Y9.7088
G01 X10.5328 Y9.7030
G01 X10.5179 Y9.6902
G01 X10.5110 Y9.6833
G01 X10.4982 Y9.6685
G01 X10.4924 Y9.6606
G01 X10.4819 Y9.6441
G01 X10.4773 Y9.6354
G01 X10.4731 Y9.6266
G01 X10.4664 Y9.6093
G01 X10.4612 Y9.5914
G01 X10.4593 Y9.5823
G01 X10.4578 Y9.5732
G01 X10.4561 Y9.5546
G01 X10.4559 Y8.2954
G01 X10.4561 Y8.2861
G01 X10.4578 Y8.2676
G01 X10.4612 Y8.2493
G01 X10.4664 Y8.2314
G01 X10.4731 Y8.2141
G01 X10.4773 Y8.2053
G01 X10.4870 Y8.1883
G01 X10.4982 Y8.1723
G01 X10.5110 Y8.1574
G01 X10.5179 Y8.1505
G01 X10.5252 Y8.1439
G01 X10.5406 Y8.1319
G01 X10.5572 Y8.1214
G01 X10.5746 Y8.1126
G01 X10.5919 Y8.1058
G01 X10.6008 Y8.1031
G01 X10.6098 Y8.1007
G01 X10.6281 Y8.0973
G01 X10.6466 Y8.0956
G01 X10.6559 Y8.0954
G01 X10.9557 Y8.0954
G01 X10.9557 Y7.2054
G01 X10.6466 Y7.2051
G01 X10.6281 Y7.2034
G01 X10.6189 Y7.2019
G01 X10.6098 Y7.2000
G01 X10.5919 Y7.1949
G01 X10.5746 Y7.1881
G01 X10.5658 Y7.1839
G01 X10.5572 Y7.1793
G01 X10.5406 Y7.1688
G01 X10.5328 Y7.1630
G01 X10.5179 Y7.1502
G01 X10.5044 Y7.1360
G01 X10.4982 Y7.1285
G01 X10.4870 Y7.1125
G01 X10.4773 Y7.0954
G01 X10.4731 Y7.0866
G01 X10.4695 Y7.0780
G01 X10.4636 Y7.0604
G01 X10.4612 Y7.0514
G01 X10.4578 Y7.0332
G01 X10.4561 Y7.0146
G01 X10.4559 Y7.0054
G01 X10.4559 Y5.7554
G01 X10.4567 Y5.7368
G01 X10.4578 Y5.7276
G01 X10.4612 Y5.7093
G01 X10.4664 Y5.6914
G01 X10.4731 Y5.6741
G01 X10.4819 Y5.6567
G01 X10.4924 Y5.6401
G01 X10.5044 Y5.6247
G01 X10.5110 Y5.6174
G01 X10.5252 Y5.6039
G01 X10.5328 Y5.5977
G01 X10.5488 Y5.5865
G01 X10.5658 Y5.5768
G01 X10.5832 Y5.5690
G01 X10.6008 Y5.5631
G01 X10.6189 Y5.5588
G01 X10.6373 Y5.5562
G01 X10.6559 Y5.5554
G00 Z1.5000
G00 X8.1559 Y3.0154
G01 F80.00
G01 Z-0.2000
G01 F80.00
G01 X9.6559 Y3.0154
G01 X9.6744 Y3.0162
G01 X9.6837 Y3.0173
G01 X9.7019 Y3.0207
G01 X9.7198 Y3.0258
G01 X9.7285 Y3.0290
G01 X9.7459 Y3.0368
G01 X9.7546 Y3.0414
G01 X9.7711 Y3.0519
G01 X9.7790 Y3.0577
G01 X9.7938 Y3.0705
G01 X9.8073 Y3.0847
G01 X9.8135 Y3.0923
G01 X9.8248 Y3.1083
G01 X9.8298 Y3.1167
G01 X9.8344 Y3.1253
G01 X9.8422 Y3.1427
G01 X9.8481 Y3.1603
G01 X9.8524 Y3.1784
G01 X9.8550 Y3.1968
G01 X9.8559 Y3.2154
G01 X9.8559 Y4.4654
G01 X9.8550 Y4.4839
G01 X9.8524 Y4.5023
G01 X9.8505 Y4.5114
G01 X9.8454 Y4.5293
G01 X9.8386 Y4.5466
G01 X9.8344 Y4.5554
G01 X9.8248 Y4.5725
G01 X9.8135 Y4.5885
G01 X9.8007 Y4.6033
G01 X9.7938 Y4.6102
G01 X9.7790 Y4.6230
G01 X9.7711 Y4.6288
G01 X9.7546 Y4.6393
G01 X9.7371 Y4.6481
G01 X9.7198 Y4.6549
G01 X9.7109 Y4.6576
G01 X9.7019 Y4.6600
G01 X9.6837 Y4.6634
G01 X9.6744 Y4.6645
G01 X9.6559 Y4.6654
G01 X9.3560 Y4.6654
G01 X9.3560 Y5.5554
G01 X9.6652 Y5.5556
G01 X9.6837 Y5.5573
G01 X9.6928 Y5.5588
G01 X9.7019 Y5.5607
G01 X9.7198 Y5.5658
G01 X9.7371 Y5.5726
G01 X9.7459 Y5.5768
G01 X9.7546 Y5.5814
G01 X9.7711 Y5.5919
G01 X9.7865 Y5.6039
G01 X9.8007 Y5.6174
G01 X9.8073 Y5.6247
G01 X9.8135 Y5.6323
G01 X9.8248 Y5.6483
G01 X9.8344 Y5.6653
G01 X9.8386 Y5.6741
G01 X9.8422 Y5.6827
G01 X9.8481 Y5.7003
G01 X9.8505 Y5.7093
G01 X9.8539 Y5.7276
G01 X9.8550 Y5.7368
G01 X9.8559 Y5.7554
G01 X9.8559 Y7.0054
G01 X9.8550 Y7.0239
G01 X9.8524 Y7.0423
G01 X9.8505 Y7.0514
G01 X9.8481 Y7.0604
G01 X9.8422 Y7.0780
G01 X9.8344 Y7.0954
G01 X9.8298 Y7.1041
G01 X9.8248 Y7.1125
G01 X9.8135 Y7.1285
G01 X9.8007 Y7.1433
G01 X9.7938 Y7.1502
G01 X9.7790 Y7.1630
G01 X9.7711 Y7.1688
G01 X9.7546 Y7.1793
G01 X9.7459 Y7.1839
G01 X9.7285 Y7.1917
G01 X9.7109 Y7.1976
G01 X9.6928 Y7.2019
G01 X9.6744 Y7.2045
G01 X9.6559 Y7.2054
G01 X8.1466 Y7.2051
G01 X8.1281 Y7.2034
G01 X8.1189 Y7.2019
G01 X8.1098 Y7.2000
G01 X8.0919 Y7.1949
G01 X8.0746 Y7.1881
G01 X8.0658 Y7.1839
G01 X8.0572 Y7.1793
G01 X8.0406 Y7.1688
G01 X8.0328 Y7.1630
G01 X8.0179 Y7.1502
G01 X8.0044 Y7.1360
G01 X7.9982 Y7.1285
G01 X7.9924 Y7.1206
G01 X7.9819 Y7.1041
G01 X7.9773 Y7.0954
G01 X7.9695 Y7.0780
G01 X7.9636 Y7.0604
G01 X7.9593 Y7.0423
G01 X7.9567 Y7.0239
G01 X7.9559 Y7.0054
G01 X7.9559 Y5.7554
G01 X7.9567 Y5.7368
G01 X7.9593 Y5.7184
G01 X7.9636 Y5.7003
G01 X7.9664 Y5.6914
G01 X7.9731 Y5.6741
G01 X7.9773 Y5.6653
G01 X7.9870 Y5.6483
G01 X7.9982 Y5.6323
G01 X8.0044 Y5.6247
G01 X8.0179 Y5.6105
G01 X8.0328 Y5.5977
G01 X8.0406 Y5.5919
G01 X8.0572 Y5.5814
G01 X8.0746 Y5.5726
G01 X8.0920 Y5.5658
G01 X8.1008 Y5.5631
G01 X8.1098 Y5.5607
G01 X8.1281 Y5.5573
G01 X8.1373 Y5.5562
G01 X8.1559 Y5.5554
G01 X8.4557 Y5.5554
G01 X8.4557 Y4.6654
G01 X8.1466 Y4.6651
G01 X8.1281 Y4.6634
G01 X8.1189 Y4.6619
G01 X8.1098 Y4.6600
G01 X8.0919 Y4.6549
G01 X8.0746 Y4.6481
G01 X8.0658 Y4.6439
G01 X8.0572 Y4.6393
G01 X8.0406 Y4.6288
G01 X8.0252 Y4.6168
G01 X8.0110 Y4.6033
G01 X8.0044 Y4.5960
G01 X7.9924 Y4.5806
G01 X7.9870 Y4.5725
G01 X7.9773 Y4.5554
G01 X7.9731 Y4.5466
G01 X7.9664 Y4.5293
G01 X7.9636 Y4.5204
G01 X7.9612 Y4.5114
G01 X7.9578 Y4.4932
G01 X7.9567 Y4.4839
G01 X7.9559 Y4.4654
G01 X7.9559 Y3.2154
G01 X7.9561 Y3.2061
G01 X7.9578 Y3.1876
G01 X7.9612 Y3.1693
G01 X7.9664 Y3.1514
G01 X7.9731 Y3.1341
G01 X7.9819 Y3.1167
G01 X7.9924 Y3.1001
G01 X8.0044 Y3.0847
G01 X8.0110 Y3.0774
G01 X8.0252 Y3.0639
G01 X8.0328 Y3.0577
G01 X8.0488 Y3.0465
G01 X8.0658 Y3.0368
G01 X8.0832 Y3.0290
G01 X8.1008 Y3.0231
G01 X8.1189 Y3.0188
G01 X8.1373 Y3.0162
G01 X8.1559 Y3.0154
G00 Z1.5000
G00 X23.9150 Y2.7600
G01 F80.00
G01 Z-0.2000
G01 F80.00
G01 X24.3149 Y2.7600
G01 X24.3149 Y2.4551
G01 X24.3152 Y2.4428
G01 X24.3166 Y2.4208
G01 X24.3205 Y2.3891
G01 X24.3236 Y2.3720
G01 X24.3272 Y2.3554
G01 X24.3329 Y2.3340
G01 X24.3396 Y2.3130
G01 X24.3482 Y2.2900
G01 X24.3600 Y2.2636
G01 X24.3704 Y2.2435
G01 X24.3810 Y2.2252
G01 X24.3881 Y2.2140
G01 X24.4006 Y2.1958
G01 X24.4194 Y2.1716
G01 X24.4348 Y2.1541
G01 X24.4467 Y2.1417
G01 X25.0017 Y1.5867
G01 X25.0214 Y1.5682
G01 X25.0383 Y1.5540
G01 X25.0510 Y1.5441
G01 X25.0740 Y1.5281
G01 X25.0844 Y1.5215
G01 X25.1035 Y1.5104
G01 X25.1236 Y1.5000
G01 X25.1500 Y1.4882
G01 X25.1638 Y1.4829
G01 X25.1847 Y1.4757
G01 X25.2154 Y1.4672
G01 X25.2320 Y1.4636
G01 X25.2491 Y1.4605
G01 X25.2808 Y1.4566
G01 X25.3028 Y1.4552
G01 X25.3200 Y1.4549
G01 X31.7500 Y1.4549
G01 X31.7672 Y1.4552
G01 X31.7892 Y1.4566
G01 X31.8209 Y1.4605
G01 X31.8380 Y1.4636
G01 X31.8546 Y1.4672
G01 X31.8853 Y1.4757
G01 X31.9062 Y1.4829
G01 X31.9200 Y1.4882
G01 X31.9380 Y1.4960
G01 X31.9578 Y1.5058
G01 X31.9772 Y1.5164
G01 X31.9960 Y1.5281
G01 X32.0190 Y1.5441
G01 X32.0384 Y1.5594
G01 X32.0559 Y1.5748
G01 X32.0683 Y1.5867
G01 X32.6792 Y2.1976
G01 X32.6976 Y2.2173
G01 X32.7119 Y2.2341
G01 X32.7218 Y2.2469
G01 X32.7324 Y2.2617
G01 X32.7444 Y2.2803
G01 X32.7601 Y2.3080
G01 X32.7698 Y2.3279
G01 X32.7776 Y2.3459
G01 X32.7830 Y2.3596
G01 X32.7901 Y2.3805
G01 X32.7962 Y2.4017
G01 X32.8023 Y2.4278
G01 X32.8068 Y2.4547
G01 X32.8092 Y2.4766
G01 X32.8106 Y2.4987
G01 X32.8110 Y2.5159
G01 X32.8110 Y3.0154
G01 X33.1109 Y3.0154
G01 X33.1294 Y3.0162
G01 X33.1478 Y3.0188
G01 X33.1569 Y3.0207
G01 X33.1748 Y3.0258
G01 X33.1835 Y3.0290
G01 X33.2009 Y3.0368
G01 X33.2096 Y3.0414
G01 X33.2180 Y3.0465
G01 X33.2340 Y3.0577
G01 X33.2415 Y3.0639
G01 X33.2557 Y3.0774
G01 X33.2685 Y3.0923
G01 X33.2798 Y3.1083
G01 X33.2894 Y3.1253
G01 X33.2936 Y3.1341
G01 X33.3004 Y3.1514
G01 X33.3055 Y3.1693
G01 X33.3089 Y3.1876
G01 X33.3106 Y3.2061
G01 X33.3109 Y3.3901
G01 X34.7648 Y3.3894
G01 X34.7897 Y3.3807
G01 X34.8109 Y3.3746
G01 X34.8370 Y3.3686
G01 X34.8541 Y3.3655
G01 X34.8760 Y3.3626
G01 X34.8980 Y3.3607
G01 X34.9250 Y3.3599
G01 X34.9422 Y3.3602
G01 X34.9728 Y3.3624
G01 X34.9959 Y3.3655
G01 X35.0130 Y3.3686
G01 X35.0391 Y3.3746
G01 X35.0510 Y3.3779
G01 X35.0720 Y3.3846
G01 X35.0950 Y3.3932
G01 X35.1219 Y3.4052
G01 X35.1328 Y3.4108
G01 X35.1522 Y3.4214
G01 X35.1791 Y3.4385
G01 X35.1940 Y3.4491
G01 X35.2134 Y3.4644
G01 X35.2309 Y3.4798
G01 X35.2433 Y3.4917
G01 X39.0533 Y7.3017
G01 X39.0718 Y7.3214
G01 X39.0798 Y7.3307
G01 X39.0936 Y7.3480
G01 X39.1065 Y7.3659
G01 X39.1236 Y7.3928
G01 X39.1342 Y7.4122
G01 X39.1400 Y7.4236
G01 X39.1518 Y7.4500
G01 X39.1604 Y7.4730
G01 X39.1671 Y7.4940
G01 X39.1704 Y7.5059
G01 X39.1764 Y7.5320
G01 X39.1809 Y7.5588
G01 X39.1824 Y7.5710
G01 X39.1843 Y7.5930
G01 X39.1851 Y7.6200
G01 X39.1851 Y24.2100
G01 X39.1843 Y24.2370
G01 X39.1826 Y24.2578
G01 X39.1809 Y24.2712
G01 X39.1764 Y24.2980
G01 X39.1728 Y24.3146
G01 X39.1643 Y24.3453
G01 X39.1571 Y24.3662
G01 X39.1518 Y24.3800
G01 X39.1440 Y24.3980
G01 X39.1342 Y24.4178
G01 X39.1190 Y24.4448
G01 X39.1065 Y24.4641
G01 X39.0959 Y24.4790
G01 X39.0860 Y24.4917
G01 X39.0718 Y24.5086
G01 X39.0533 Y24.5283
G01 X37.8800 Y25.7016
G01 X37.8800 Y26.2500
G01 X37.8791 Y26.2686
G01 X37.8781 Y26.2778
G01 X37.8766 Y26.2870
G01 X37.8723 Y26.3050
G01 X37.8663 Y26.3227
G01 X37.8586 Y26.3401
G01 X37.8539 Y26.3487
G01 X37.8435 Y26.3652
G01 X37.8314 Y26.3807
G01 X37.8179 Y26.3948
G01 X37.8031 Y26.4076
G01 X37.7952 Y26.4135
G01 X37.7787 Y26.4239
G01 X37.7612 Y26.4328
G01 X37.7527 Y26.4363
G01 X37.7350 Y26.4423
G01 X37.7261 Y26.4446
G01 X37.7078 Y26.4481
G01 X37.6893 Y26.4498
G01 X37.6800 Y26.4500
G01 X35.9800 Y26.4500
G01 X35.9614 Y26.4491
G01 X35.9430 Y26.4466
G01 X35.9339 Y26.4446
G01 X35.9161 Y26.4395
G01 X35.8988 Y26.4328
G01 X35.8899 Y26.4286
G01 X35.8813 Y26.4239
G01 X35.8648 Y26.4135
G01 X35.8493 Y26.4014
G01 X35.8421 Y26.3948
G01 X35.8286 Y26.3807
G01 X35.8224 Y26.3731
G01 X35.8111 Y26.3571
G01 X35.8014 Y26.3401
G01 X35.7972 Y26.3312
G01 X35.7905 Y26.3139
G01 X35.7877 Y26.3050
G01 X35.7834 Y26.2870
G01 X35.7819 Y26.2778
G01 X35.7809 Y26.2686
G01 X35.7800 Y26.2500
G01 X35.7800 Y25.8501
G01 X35.0314 Y25.8501
G01 X34.5283 Y26.3533
G01 X34.5086 Y26.3718
G01 X34.4917 Y26.3860
G01 X34.4790 Y26.3959
G01 X34.4641 Y26.4065
G01 X34.4372 Y26.4236
G01 X34.4178 Y26.4342
G01 X34.4064 Y26.4400
G01 X34.3800 Y26.4518
G01 X34.3570 Y26.4604
G01 X34.3360 Y26.4671
G01 X34.3241 Y26.4704
G01 X34.2930 Y26.4774
G01 X34.2809 Y26.4795
G01 X34.2590 Y26.4824
G01 X34.2370 Y26.4843
G01 X34.2100 Y26.4851
G01 X29.2100 Y26.4851
G01 X29.1928 Y26.4848
G01 X29.1708 Y26.4834
G01 X29.1391 Y26.4795
G01 X29.1220 Y26.4764
G01 X29.1054 Y26.4728
G01 X29.0747 Y26.4643
G01 X29.0538 Y26.4571
G01 X29.0400 Y26.4518
G01 X29.0220 Y26.4440
G01 X29.0022 Y26.4342
G01 X28.9828 Y26.4236
G01 X28.9640 Y26.4119
G01 X28.9410 Y26.3959
G01 X28.9216 Y26.3806
G01 X28.9041 Y26.3652
G01 X28.8917 Y26.3533
G01 X28.2567 Y25.7183
G01 X28.2448 Y25.7059
G01 X28.2302 Y25.6893
G01 X28.2141 Y25.6690
G01 X28.2035 Y25.6541
G01 X28.1915 Y25.6356
G01 X28.1758 Y25.6078
G01 X28.1660 Y25.5880
G01 X28.1582 Y25.5700
G01 X28.1529 Y25.5562
G01 X28.1429 Y25.5260
G01 X28.1372 Y25.5046
G01 X28.1336 Y25.4880
G01 X28.1291 Y25.4612
G01 X28.1276 Y25.4490
G01 X28.1257 Y25.4270
G01 X28.1249 Y25.4000
G01 X28.1249 Y25.0600
G01 X27.9407 Y25.0598
G01 X27.9314 Y25.0591
G01 X27.9130 Y25.0566
G01 X27.9039 Y25.0546
G01 X27.8861 Y25.0495
G01 X27.8688 Y25.0428
G01 X27.8599 Y25.0386
G01 X27.8429 Y25.0289
G01 X27.8269 Y25.0176
G01 X27.8121 Y25.0048
G01 X27.7986 Y24.9907
G01 X27.7865 Y24.9752
G01 X27.7761 Y24.9587
G01 X27.7672 Y24.9412
G01 X27.7605 Y24.9239
G01 X27.7577 Y24.9150
G01 X27.7534 Y24.8970
G01 X27.7509 Y24.8786
G01 X27.7500 Y24.8600
G01 X27.7502 Y23.3507
G01 X27.7519 Y23.3322
G01 X27.7554 Y23.3139
G01 X27.7605 Y23.2961
G01 X27.7672 Y23.2788
G01 X27.7761 Y23.2613
G01 X27.7865 Y23.2448
G01 X27.7986 Y23.2293
G01 X27.8121 Y23.2152
G01 X27.8269 Y23.2024
G01 X27.8429 Y23.1911
G01 X27.8599 Y23.1814
G01 X27.8688 Y23.1772
G01 X27.8861 Y23.1705
G01 X27.9039 Y23.1654
G01 X27.9222 Y23.1619
G01 X27.9407 Y23.1602
G01 X29.2093 Y23.1602
G01 X29.2278 Y23.1619
G01 X29.2370 Y23.1634
G01 X29.2550 Y23.1677
G01 X29.2726 Y23.1737
G01 X29.2812 Y23.1772
G01 X29.2987 Y23.1861
G01 X29.3152 Y23.1965
G01 X29.3307 Y23.2086
G01 X29.3448 Y23.2221
G01 X29.3514 Y23.2293
G01 X29.3635 Y23.2448
G01 X29.3739 Y23.2613
G01 X29.3786 Y23.2699
G01 X29.3828 Y23.2788
G01 X29.3895 Y23.2961
G01 X29.3946 Y23.3139
G01 X29.3966 Y23.3230
G01 X29.3991 Y23.3414
G01 X29.4000 Y23.3600
G01 X29.4000 Y24.8600
G01 X29.3991 Y24.8786
G01 X29.3966 Y24.8970
G01 X29.3946 Y24.9061
G01 X29.3895 Y24.9239
G01 X29.3828 Y24.9412
G01 X29.3739 Y24.9587
G01 X29.3689 Y24.9671
G01 X29.3576 Y24.9831
G01 X29.3514 Y24.9907
G01 X29.3379 Y25.0048
G01 X29.3231 Y25.0176
G01 X29.3152 Y25.0235
G01 X29.2987 Y25.0339
G01 X29.2812 Y25.0428
G01 X29.2639 Y25.0495
G01 X29.2461 Y25.0546
G01 X29.2278 Y25.0581
G01 X29.2093 Y25.0598
G01 X29.0251 Y25.0600
G01 X29.0251 Y25.2136
G01 X29.3964 Y25.5849
G01 X34.0236 Y25.5849
G01 X34.5267 Y25.0817
G01 X34.5391 Y25.0698
G01 X34.5557 Y25.0552
G01 X34.5760 Y25.0391
G01 X34.5909 Y25.0285
G01 X34.6094 Y25.0165
G01 X34.6285 Y25.0054
G01 X34.6486 Y24.9950
G01 X34.6682 Y24.9861
G01 X34.6888 Y24.9779
G01 X34.7190 Y24.9679
G01 X34.7404 Y24.9622
G01 X34.7570 Y24.9586
G01 X34.7741 Y24.9555
G01 X34.7960 Y24.9526
G01 X34.8278 Y24.9502
G01 X34.8450 Y24.9499
G01 X35.7800 Y24.9499
G01 X35.7800 Y24.5500
G01 X35.7809 Y24.5314
G01 X35.7834 Y24.5130
G01 X35.7854 Y24.5039
G01 X35.7905 Y24.4861
G01 X35.7937 Y24.4774
G01 X35.8014 Y24.4599
G01 X35.8111 Y24.4429
G01 X35.8224 Y24.4269
G01 X35.8286 Y24.4193
G01 X35.8352 Y24.4121
G01 X35.8493 Y24.3986
G01 X35.8648 Y24.3865
G01 X35.8813 Y24.3761
G01 X35.8899 Y24.3714
G01 X35.9073 Y24.3637
G01 X35.9250 Y24.3577
G01 X35.9430 Y24.3534
G01 X35.9614 Y24.3509
G01 X35.9800 Y24.3500
G01 X37.6893 Y24.3502
G01 X37.7078 Y24.3519
G01 X37.7170 Y24.3534
G01 X37.7261 Y24.3554
G01 X37.7439 Y24.3605
G01 X37.7612 Y24.3672
G01 X37.7701 Y24.3714
G01 X37.7871 Y24.3811
G01 X37.7952 Y24.3865
G01 X37.8107 Y24.3986
G01 X37.8248 Y24.4121
G01 X37.8376 Y24.4269
G01 X37.8435 Y24.4348
G01 X37.8489 Y24.4429
G01 X37.8551 Y24.4534
G01 X38.2849 Y24.0236
G01 X38.2849 Y19.5001
G01 X37.5950 Y19.5001
G01 X37.5948 Y19.8593
G01 X37.5941 Y19.8686
G01 X37.5916 Y19.8870
G01 X37.5873 Y19.9050
G01 X37.5845 Y19.9139
G01 X37.5778 Y19.9312
G01 X37.5736 Y19.9401
G01 X37.5639 Y19.9571
G01 X37.5585 Y19.9652
G01 X37.5464 Y19.9807
G01 X37.5398 Y19.9879
G01 X37.5329 Y19.9948
G01 X37.5181 Y20.0076
G01 X37.5102 Y20.0135
G01 X37.4937 Y20.0239
G01 X37.4851 Y20.0286
G01 X37.4677 Y20.0363
G01 X37.4589 Y20.0395
G01 X37.4411 Y20.0446
G01 X37.4320 Y20.0466
G01 X37.4136 Y20.0491
G01 X37.3950 Y20.0500
G01 X34.9950 Y20.0500
G01 X34.9764 Y20.0491
G01 X34.9580 Y20.0466
G01 X34.9400 Y20.0423
G01 X34.9223 Y20.0363
G01 X34.9049 Y20.0286
G01 X34.8879 Y20.0189
G01 X34.8798 Y20.0135
G01 X34.8643 Y20.0014
G01 X34.8502 Y19.9879
G01 X34.8374 Y19.9731
G01 X34.8261 Y19.9571
G01 X34.8164 Y19.9401
G01 X34.8087 Y19.9227
G01 X34.8027 Y19.9050
G01 X34.7984 Y19.8870
G01 X34.7959 Y19.8686
G01 X34.7950 Y19.8500
G01 X34.7950 Y18.2500
G01 X34.7959 Y18.2314
G01 X34.7984 Y18.2130
G01 X34.8004 Y18.2039
G01 X34.8055 Y18.1861
G01 X34.8087 Y18.1773
G01 X34.8164 Y18.1599
G01 X34.8211 Y18.1513
G01 X34.8315 Y18.1348
G01 X34.8374 Y18.1269
G01 X34.8436 Y18.1193
G01 X34.8571 Y18.1052
G01 X34.8719 Y18.0924
G01 X34.8798 Y18.0865
G01 X34.8879 Y18.0811
G01 X34.9049 Y18.0714
G01 X34.9138 Y18.0672
G01 X34.9311 Y18.0605
G01 X34.9489 Y18.0554
G01 X34.9580 Y18.0534
G01 X34.9764 Y18.0509
G01 X34.9950 Y18.0500
G01 X37.3950 Y18.0500
G01 X37.4136 Y18.0509
G01 X37.4228 Y18.0519
G01 X37.4411 Y18.0554
G01 X37.4500 Y18.0577
G01 X37.4677 Y18.0637
G01 X37.4762 Y18.0672
G01 X37.4937 Y18.0761
G01 X37.5021 Y18.0811
G01 X37.5102 Y18.0865
G01 X37.5257 Y18.0986
G01 X37.5329 Y18.1052
G01 X37.5464 Y18.1193
G01 X37.5585 Y18.1348
G01 X37.5689 Y18.1513
G01 X37.5736 Y18.1599
G01 X37.5778 Y18.1688
G01 X37.5845 Y18.1861
G01 X37.5896 Y18.2039
G01 X37.5916 Y18.2130
G01 X37.5931 Y18.2222
G01 X37.5948 Y18.2407
G01 X37.5950 Y18.5999
G01 X38.2849 Y18.5999
G01 X38.2849 Y7.8064
G01 X34.7689 Y4.2905
G01 X33.3109 Y4.2905
G01 X33.3109 Y4.4654
G01 X33.3100 Y4.4839
G01 X33.3074 Y4.5023
G01 X33.3031 Y4.5204
G01 X33.2972 Y4.5380
G01 X33.2894 Y4.5554
G01 X33.2798 Y4.5725
G01 X33.2743 Y4.5806
G01 X33.2623 Y4.5960
G01 X33.2557 Y4.6033
G01 X33.2415 Y4.6168
G01 X33.2261 Y4.6288
G01 X33.2096 Y4.6393
G01 X33.2009 Y4.6439
G01 X33.1835 Y4.6517
G01 X33.1659 Y4.6576
G01 X33.1569 Y4.6600
G01 X33.1387 Y4.6634
G01 X33.1294 Y4.6645
G01 X33.1109 Y4.6654
G01 X31.6016 Y4.6651
G01 X31.5831 Y4.6634
G01 X31.5739 Y4.6619
G01 X31.5558 Y4.6576
G01 X31.5382 Y4.6517
G01 X31.5208 Y4.6439
G01 X31.5122 Y4.6393
G01 X31.4956 Y4.6288
G01 X31.4878 Y4.6230
G01 X31.4729 Y4.6102
G01 X31.4660 Y4.6033
G01 X31.4532 Y4.5885
G01 X31.4420 Y4.5725
G01 X31.4323 Y4.5554
G01 X31.4245 Y4.5380
G01 X31.4186 Y4.5204
G01 X31.4143 Y4.5023
G01 X31.4128 Y4.4932
G01 X31.4111 Y4.4746
G01 X31.4109 Y3.2154
G01 X31.4111 Y3.2061
G01 X31.4128 Y3.1876
G01 X31.4162 Y3.1693
G01 X31.4186 Y3.1603
G01 X31.4245 Y3.1427
G01 X31.4281 Y3.1341
G01 X31.4369 Y3.1167
G01 X31.4420 Y3.1083
G01 X31.4532 Y3.0923
G01 X31.4660 Y3.0774
G01 X31.4729 Y3.0705
G01 X31.4878 Y3.0577
G01 X31.4956 Y3.0519
G01 X31.5122 Y3.0414
G01 X31.5296 Y3.0326
G01 X31.5382 Y3.0290
G01 X31.5558 Y3.0231
G01 X31.5648 Y3.0207
G01 X31.5831 Y3.0173
G01 X31.6016 Y3.0156
G01 X31.6109 Y3.0154
G01 X31.9107 Y3.0154
G01 X31.9107 Y2.7023
G01 X31.5636 Y2.3551
G01 X25.5064 Y2.3551
G01 X25.2151 Y2.6464
G01 X25.2151 Y2.7600
G01 X25.6150 Y2.7600
G01 X25.6336 Y2.7609
G01 X25.6428 Y2.7619
G01 X25.6520 Y2.7634
G01 X25.6700 Y2.7677
G01 X25.6876 Y2.7737
G01 X25.6962 Y2.7772
G01 X25.7051 Y2.7814
G01 X25.7221 Y2.7911
G01 X25.7381 Y2.8024
G01 X25.7457 Y2.8086
G01 X25.7598 Y2.8221
G01 X25.7664 Y2.8293
G01 X25.7785 Y2.8448
G01 X25.7889 Y2.8613
G01 X25.7936 Y2.8699
G01 X25.7978 Y2.8788
G01 X25.8045 Y2.8961
G01 X25.8073 Y2.9050
G01 X25.8116 Y2.9230
G01 X25.8141 Y2.9414
G01 X25.8150 Y2.9600
G01 X25.8150 Y4.6600
G01 X25.8141 Y4.6786
G01 X25.8116 Y4.6970
G01 X25.8073 Y4.7150
G01 X25.8013 Y4.7327
G01 X25.7936 Y4.7501
G01 X25.7889 Y4.7587
G01 X25.7785 Y4.7752
G01 X25.7664 Y4.7907
G01 X25.7529 Y4.8048
G01 X25.7381 Y4.8176
G01 X25.7221 Y4.8289
G01 X25.7051 Y4.8386
G01 X25.6962 Y4.8428
G01 X25.6789 Y4.8495
G01 X25.6611 Y4.8546
G01 X25.6428 Y4.8581
G01 X25.6243 Y4.8598
G01 X23.9057 Y4.8598
G01 X23.8872 Y4.8581
G01 X23.8689 Y4.8546
G01 X23.8600 Y4.8523
G01 X23.8424 Y4.8463
G01 X23.8249 Y4.8386
G01 X23.8079 Y4.8289
G01 X23.7919 Y4.8176
G01 X23.7843 Y4.8114
G01 X23.7702 Y4.7979
G01 X23.7574 Y4.7831
G01 X23.7515 Y4.7752
G01 X23.7411 Y4.7587
G01 X23.7322 Y4.7412
G01 X23.7255 Y4.7239
G01 X23.7204 Y4.7061
G01 X23.7169 Y4.6878
G01 X23.7159 Y4.6786
G01 X23.7150 Y4.6600
G01 X23.7150 Y2.9600
G01 X23.7159 Y2.9414
G01 X23.7184 Y2.9230
G01 X23.7227 Y2.9050
G01 X23.7287 Y2.8874
G01 X23.7364 Y2.8699
G01 X23.7461 Y2.8529
G01 X23.7574 Y2.8369
G01 X23.7702 Y2.8221
G01 X23.7771 Y2.8152
G01 X23.7919 Y2.8024
G01 X23.8079 Y2.7911
G01 X23.8249 Y2.7814
G01 X23.8423 Y2.7737
G01 X23.8600 Y2.7677
G01 X23.8780 Y2.7634
G01 X23.8964 Y2.7609
G01 X23.9150 Y2.7600
G00 Z1.5000
G00 X23.7162 Y6.3966
G01 F80.00
G01 Z-0.2000
G01 F80.00
G01 X23.7150 Y6.3500
G01 X23.7161 Y6.3034
G01 X23.7196 Y6.2520
G01 X23.7257 Y6.2008
G01 X23.7352 Y6.1450
G01 X23.7453 Y6.0996
G01 X23.7617 Y6.0405
G01 X23.7781 Y5.9917
G01 X23.7940 Y5.9504
G01 X23.8138 Y5.9055
G01 X23.8367 Y5.8594
G01 X23.8619 Y5.8144
G01 X23.8893 Y5.7708
G01 X23.9223 Y5.7237
G01 X23.9503 Y5.6877
G01 X23.9903 Y5.6413
G01 X24.0225 Y5.6075
G01 X24.0635 Y5.5687
G01 X24.1027 Y5.5353
G01 X24.1387 Y5.5073
G01 X24.1776 Y5.4797
G01 X24.2210 Y5.4520
G01 X24.2657 Y5.4263
G01 X24.3121 Y5.4027
G01 X24.3654 Y5.3790
G01 X24.4067 Y5.3631
G01 X24.4649 Y5.3438
G01 X24.5146 Y5.3303
G01 X24.5650 Y5.3193
G01 X24.6061 Y5.3121
G01 X24.6572 Y5.3056
G01 X24.7184 Y5.3011
G01 X24.7650 Y5.3000
G01 X24.8214 Y5.3016
G01 X24.8716 Y5.3055
G01 X24.9142 Y5.3107
G01 X24.9700 Y5.3202
G01 X25.0154 Y5.3303
G01 X25.0745 Y5.3467
G01 X25.1233 Y5.3631
G01 X25.1646 Y5.3790
G01 X25.2095 Y5.3988
G01 X25.2556 Y5.4217
G01 X25.3006 Y5.4469
G01 X25.3442 Y5.4743
G01 X25.3944 Y5.5096
G01 X25.4339 Y5.5407
G01 X25.4665 Y5.5687
G01 X25.5075 Y5.6075
G01 X25.5397 Y5.6413
G01 X25.5735 Y5.6801
G01 X25.6054 Y5.7206
G01 X25.6407 Y5.7708
G01 X25.6630 Y5.8060
G01 X25.6887 Y5.8507
G01 X25.7123 Y5.8971
G01 X25.7226 Y5.9199
G01 X26.4800 Y5.9199
G01 X26.4802 Y5.6107
G01 X26.4819 Y5.5922
G01 X26.4834 Y5.5830
G01 X26.4877 Y5.5650
G01 X26.4905 Y5.5561
G01 X26.4972 Y5.5388
G01 X26.5014 Y5.5299
G01 X26.5061 Y5.5213
G01 X26.5165 Y5.5048
G01 X26.5286 Y5.4893
G01 X26.5352 Y5.4821
G01 X26.5493 Y5.4686
G01 X26.5648 Y5.4565
G01 X26.5729 Y5.4511
G01 X26.5899 Y5.4414
G01 X26.5988 Y5.4372
G01 X26.6161 Y5.4305
G01 X26.6250 Y5.4277
G01 X26.6430 Y5.4234
G01 X26.6522 Y5.4219
G01 X26.6707 Y5.4202
G01 X26.6800 Y5.4200
G01 X27.9300 Y5.4200
G01 X27.9486 Y5.4209
G01 X27.9670 Y5.4234
G01 X27.9850 Y5.4277
G01 X28.0027 Y5.4337
G01 X28.0112 Y5.4372
G01 X28.0287 Y5.4461
G01 X28.0452 Y5.4565
G01 X28.0607 Y5.4686
G01 X28.0679 Y5.4752
G01 X28.0814 Y5.4893
G01 X28.0876 Y5.4969
G01 X28.0935 Y5.5048
G01 X28.1039 Y5.5213
G01 X28.1086 Y5.5299
G01 X28.1163 Y5.5473
G01 X28.1223 Y5.5650
G01 X28.1266 Y5.5830
G01 X28.1291 Y5.6014
G01 X28.1300 Y5.6200
G01 X28.1300 Y7.1200
G01 X28.1291 Y7.1386
G01 X28.1266 Y7.1570
G01 X28.1223 Y7.1750
G01 X28.1163 Y7.1927
G01 X28.1128 Y7.2012
G01 X28.1039 Y7.2187
G01 X28.0935 Y7.2352
G01 X28.0814 Y7.2507
G01 X28.0748 Y7.2579
G01 X28.0679 Y7.2648
G01 X28.0531 Y7.2776
G01 X28.0371 Y7.2889
G01 X28.0287 Y7.2939
G01 X28.0201 Y7.2986
G01 X28.0027 Y7.3063
G01 X27.9850 Y7.3123
G01 X27.9670 Y7.3166
G01 X27.9486 Y7.3191
G01 X27.9300 Y7.3200
G01 X26.6800 Y7.3200
G01 X26.6614 Y7.3191
G01 X26.6522 Y7.3181
G01 X26.6339 Y7.3146
G01 X26.6161 Y7.3095
G01 X26.6074 Y7.3063
G01 X26.5899 Y7.2986
G01 X26.5813 Y7.2939
G01 X26.5648 Y7.2835
G01 X26.5493 Y7.2714
G01 X26.5421 Y7.2648
G01 X26.5286 Y7.2507
G01 X26.5224 Y7.2431
G01 X26.5111 Y7.2271
G01 X26.5014 Y7.2101
G01 X26.4972 Y7.2012
G01 X26.4937 Y7.1926
G01 X26.4877 Y7.1750
G01 X26.4834 Y7.1570
G01 X26.4819 Y7.1478
G01 X26.4809 Y7.1386
G01 X26.4800 Y7.1200
G01 X26.4800 Y6.8201
G01 X25.7036 Y6.8201
G01 X25.6887 Y6.8493
G01 X25.6636 Y6.8932
G01 X25.6407 Y6.9292
G01 X25.6112 Y6.9715
G01 X25.5735 Y7.0199
G01 X25.5397 Y7.0587
G01 X25.5075 Y7.0925
G01 X25.4737 Y7.1247
G01 X25.4349 Y7.1585
G01 X25.3865 Y7.1962
G01 X25.3442 Y7.2257
G01 X25.3006 Y7.2531
G01 X25.2556 Y7.2783
G01 X25.2179 Y7.2973
G01 X25.1646 Y7.3210
G01 X25.1233 Y7.3369
G01 X25.0651 Y7.3562
G01 X25.0154 Y7.3697
G01 X24.9700 Y7.3798
G01 X24.9239 Y7.3879
G01 X24.8728 Y7.3944
G01 X24.8116 Y7.3989
G01 X24.7650 Y7.4000
G01 X24.7086 Y7.3984
G01 X24.6584 Y7.3945
G01 X24.6158 Y7.3893
G01 X24.5554 Y7.3788
G01 X24.5051 Y7.3673
G01 X24.4555 Y7.3533
G01 X24.4159 Y7.3402
G01 X24.3677 Y7.3219
G01 X24.3117 Y7.2970
G01 X24.2657 Y7.2737
G01 X24.2218 Y7.2486
G01 X24.1858 Y7.2257
G01 X24.1435 Y7.1962
G01 X24.0951 Y7.1585
G01 X24.0563 Y7.1247
G01 X24.0225 Y7.0925
G01 X23.9903 Y7.0587
G01 X23.9565 Y7.0199
G01 X23.9223 Y6.9763
G01 X23.8947 Y6.9374
G01 X23.8619 Y6.8856
G01 X23.8367 Y6.8406
G01 X23.8177 Y6.8029
G01 X23.7940 Y6.7496
G01 X23.7781 Y6.7083
G01 X23.7588 Y6.6501
G01 X23.7453 Y6.6004
G01 X23.7352 Y6.5550
G01 X23.7271 Y6.5089
G01 X23.7206 Y6.4578
G01 X23.7166 Y6.4064
G01 X23.7162 Y6.3966
G00 Z1.5000
G00 X23.0449 Y10.1551
G01 F80.00
G01 Z-0.2000
G01 F80.00
G01 X23.0457 Y10.1330
G01 X23.0474 Y10.1122
G01 X23.0491 Y10.0988
G01 X23.0526 Y10.0770
G01 X23.0596 Y10.0459
G01 X23.0629 Y10.0340
G01 X23.0696 Y10.0130
G01 X23.0782 Y9.9900
G01 X23.0860 Y9.9720
G01 X23.1004 Y9.9435
G01 X23.1110 Y9.9252
G01 X23.1235 Y9.9059
G01 X23.1341 Y9.8910
G01 X23.1440 Y9.8783
G01 X23.1582 Y9.8614
G01 X23.1767 Y9.8417
G01 X23.7760 Y9.2424
G01 X23.7617 Y9.1995
G01 X23.7477 Y9.1499
G01 X23.7352 Y9.0951
G01 X23.7257 Y9.0392
G01 X23.7206 Y8.9978
G01 X23.7166 Y8.9464
G01 X23.7151 Y8.8851
G01 X23.7161 Y8.8434
G01 X23.7196 Y8.7920
G01 X23.7271 Y8.7311
G01 X23.7352 Y8.6849
G01 X23.7453 Y8.6396
G01 X23.7617 Y8.5805
G01 X23.7781 Y8.5317
G01 X23.7940 Y8.4904
G01 X23.8177 Y8.4371
G01 X23.8367 Y8.3994
G01 X23.8619 Y8.3544
G01 X23.8947 Y8.3026
G01 X23.9223 Y8.2637
G01 X23.9503 Y8.2277
G01 X23.9903 Y8.1813
G01 X24.0225 Y8.1475
G01 X24.0563 Y8.1153
G01 X24.0951 Y8.0815
G01 X24.1356 Y8.0496
G01 X24.1858 Y8.0143
G01 X24.2294 Y7.9869
G01 X24.2744 Y7.9617
G01 X24.3205 Y7.9388
G01 X24.3654 Y7.9190
G01 X24.4067 Y7.9031
G01 X24.4555 Y7.8867
G01 X24.5146 Y7.8703
G01 X24.5600 Y7.8602
G01 X24.6061 Y7.8521
G01 X24.6572 Y7.8456
G01 X24.7086 Y7.8416
G01 X24.7699 Y7.8401
G01 X24.8214 Y7.8416
G01 X24.8716 Y7.8455
G01 X24.9239 Y7.8521
G01 X24.9700 Y7.8602
G01 X25.0154 Y7.8703
G01 X25.0651 Y7.8838
G01 X25.1233 Y7.9031
G01 X25.1646 Y7.9190
G01 X25.2179 Y7.9427
G01 X25.2556 Y7.9617
G01 X25.3006 Y7.9869
G01 X25.3524 Y8.0197
G01 X25.3913 Y8.0473
G01 X25.4339 Y8.0807
G01 X25.4737 Y8.1153
G01 X25.5075 Y8.1475
G01 X25.5397 Y8.1813
G01 X25.5735 Y8.2201
G01 X25.6077 Y8.2637
G01 X25.6353 Y8.3026
G01 X25.6630 Y8.3460
G01 X25.6887 Y8.3907
G01 X25.7123 Y8.4371
G01 X25.7360 Y8.4904
G01 X25.7519 Y8.5317
G01 X25.7683 Y8.5805
G01 X25.7823 Y8.6301
G01 X25.7938 Y8.6804
G01 X25.8029 Y8.7311
G01 X25.8094 Y8.7822
G01 X25.8139 Y8.8434
G01 X25.8150 Y8.8900
G01 X25.8134 Y8.9464
G01 X25.8095 Y8.9966
G01 X25.8029 Y9.0489
G01 X25.7948 Y9.0951
G01 X25.7823 Y9.1499
G01 X25.7683 Y9.1995
G01 X25.7519 Y9.2483
G01 X25.7360 Y9.2896
G01 X25.7123 Y9.3429
G01 X25.6887 Y9.3893
G01 X25.6636 Y9.4332
G01 X25.6353 Y9.4774
G01 X25.6077 Y9.5163
G01 X25.5743 Y9.5589
G01 X25.5463 Y9.5915
G01 X25.5075 Y9.6325
G01 X25.4737 Y9.6647
G01 X25.4273 Y9.7047
G01 X25.3913 Y9.7327
G01 X25.3524 Y9.7603
G01 X25.3090 Y9.7880
G01 X25.2643 Y9.8137
G01 X25.2095 Y9.8412
G01 X25.1646 Y9.8610
G01 X25.1141 Y9.8802
G01 X25.0745 Y9.8933
G01 X25.0249 Y9.9073
G01 X24.9700 Y9.9198
G01 X24.9239 Y9.9279
G01 X24.8630 Y9.9354
G01 X24.8116 Y9.9389
G01 X24.7650 Y9.9400
G01 X24.7184 Y9.9389
G01 X24.6670 Y9.9354
G01 X24.6061 Y9.9279
G01 X24.5600 Y9.9198
G01 X24.5051 Y9.9073
G01 X24.4555 Y9.8933
G01 X24.4126 Y9.8790
G01 X23.9451 Y10.3464
G01 X23.9451 Y13.5199
G01 X24.6350 Y13.5199
G01 X24.6352 Y13.1607
G01 X24.6369 Y13.1422
G01 X24.6384 Y13.1330
G01 X24.6404 Y13.1239
G01 X24.6455 Y13.1061
G01 X24.6522 Y13.0888
G01 X24.6564 Y13.0799
G01 X24.6611 Y13.0713
G01 X24.6715 Y13.0548
G01 X24.6836 Y13.0393
G01 X24.6902 Y13.0321
G01 X24.7043 Y13.0186
G01 X24.7119 Y13.0124
G01 X24.7198 Y13.0065
G01 X24.7363 Y12.9961
G01 X24.7449 Y12.9914
G01 X24.7624 Y12.9837
G01 X24.7800 Y12.9777
G01 X24.7889 Y12.9754
G01 X24.8072 Y12.9719
G01 X24.8164 Y12.9709
G01 X24.8350 Y12.9700
G01 X27.2443 Y12.9702
G01 X27.2536 Y12.9709
G01 X27.2720 Y12.9734
G01 X27.2900 Y12.9777
G01 X27.3077 Y12.9837
G01 X27.3251 Y12.9914
G01 X27.3421 Y13.0011
G01 X27.3502 Y13.0065
G01 X27.3657 Y13.0186
G01 X27.3798 Y13.0321
G01 X27.3864 Y13.0393
G01 X27.3926 Y13.0469
G01 X27.4039 Y13.0629
G01 X27.4136 Y13.0799
G01 X27.4178 Y13.0888
G01 X27.4245 Y13.1061
G01 X27.4296 Y13.1239
G01 X27.4316 Y13.1330
G01 X27.4341 Y13.1514
G01 X27.4350 Y13.1700
G01 X27.4348 Y14.7793
G01 X27.4341 Y14.7886
G01 X27.4316 Y14.8070
G01 X27.4296 Y14.8161
G01 X27.4245 Y14.8339
G01 X27.4178 Y14.8512
G01 X27.4136 Y14.8601
G01 X27.4089 Y14.8687
G01 X27.3985 Y14.8852
G01 X27.3926 Y14.8931
G01 X27.3798 Y14.9079
G01 X27.3729 Y14.9148
G01 X27.3581 Y14.9276
G01 X27.3502 Y14.9335
G01 X27.3337 Y14.9439
G01 X27.3251 Y14.9486
G01 X27.3076 Y14.9563
G01 X27.2900 Y14.9623
G01 X27.2720 Y14.9666
G01 X27.2536 Y14.9691
G01 X27.2350 Y14.9700
G01 X24.8350 Y14.9700
G01 X24.8164 Y14.9691
G01 X24.8072 Y14.9681
G01 X24.7889 Y14.9646
G01 X24.7800 Y14.9623
G01 X24.7623 Y14.9563
G01 X24.7538 Y14.9528
G01 X24.7449 Y14.9486
G01 X24.7279 Y14.9389
G01 X24.7119 Y14.9276
G01 X24.7043 Y14.9214
G01 X24.6971 Y14.9148
G01 X24.6836 Y14.9007
G01 X24.6715 Y14.8852
G01 X24.6661 Y14.8771
G01 X24.6564 Y14.8601
G01 X24.6522 Y14.8512
G01 X24.6455 Y14.8339
G01 X24.6404 Y14.8161
G01 X24.6384 Y14.8070
G01 X24.6359 Y14.7886
G01 X24.6352 Y14.7793
G01 X24.6350 Y14.4201
G01 X23.9451 Y14.4201
G01 X23.9451 Y23.3086
G01 X24.2964 Y23.6599
G01 X25.2100 Y23.6599
G01 X25.2100 Y23.3600
G01 X25.2109 Y23.3414
G01 X25.2119 Y23.3322
G01 X25.2154 Y23.3139
G01 X25.2177 Y23.3050
G01 X25.2237 Y23.2874
G01 X25.2272 Y23.2788
G01 X25.2361 Y23.2613
G01 X25.2411 Y23.2529
G01 X25.2465 Y23.2448
G01 X25.2586 Y23.2293
G01 X25.2721 Y23.2152
G01 X25.2793 Y23.2086
G01 X25.2948 Y23.1965
G01 X25.3113 Y23.1861
G01 X25.3288 Y23.1772
G01 X25.3461 Y23.1705
G01 X25.3550 Y23.1677
G01 X25.3730 Y23.1634
G01 X25.3822 Y23.1619
G01 X25.3914 Y23.1609
G01 X25.4100 Y23.1600
G01 X26.6600 Y23.1600
G01 X26.6786 Y23.1609
G01 X26.6878 Y23.1619
G01 X26.6970 Y23.1634
G01 X26.7150 Y23.1677
G01 X26.7326 Y23.1737
G01 X26.7412 Y23.1772
G01 X26.7587 Y23.1861
G01 X26.7671 Y23.1911
G01 X26.7752 Y23.1965
G01 X26.7907 Y23.2086
G01 X26.8048 Y23.2221
G01 X26.8114 Y23.2293
G01 X26.8235 Y23.2448
G01 X26.8339 Y23.2613
G01 X26.8428 Y23.2788
G01 X26.8495 Y23.2961
G01 X26.8523 Y23.3050
G01 X26.8566 Y23.3230
G01 X26.8591 Y23.3414
G01 X26.8598 Y23.3507
G01 X26.8598 Y24.8693
G01 X26.8581 Y24.8878
G01 X26.8566 Y24.8970
G01 X26.8523 Y24.9150
G01 X26.8463 Y24.9326
G01 X26.8386 Y24.9501
G01 X26.8289 Y24.9671
G01 X26.8235 Y24.9752
G01 X26.8114 Y24.9907
G01 X26.7979 Y25.0048
G01 X26.7907 Y25.0114
G01 X26.7752 Y25.0235
G01 X26.7671 Y25.0289
G01 X26.7501 Y25.0386
G01 X26.7412 Y25.0428
G01 X26.7239 Y25.0495
G01 X26.7061 Y25.0546
G01 X26.6970 Y25.0566
G01 X26.6786 Y25.0591
G01 X26.6600 Y25.0600
G01 X25.4100 Y25.0600
G01 X25.3914 Y25.0591
G01 X25.3730 Y25.0566
G01 X25.3639 Y25.0546
G01 X25.3461 Y25.0495
G01 X25.3288 Y25.0428
G01 X25.3199 Y25.0386
G01 X25.3029 Y25.0289
G01 X25.2948 Y25.0235
G01 X25.2793 Y25.0114
G01 X25.2721 Y25.0048
G01 X25.2586 Y24.9907
G01 X25.2465 Y24.9752
G01 X25.2361 Y24.9587
G01 X25.2314 Y24.9501
G01 X25.2272 Y24.9412
G01 X25.2205 Y24.9239
G01 X25.2154 Y24.9061
G01 X25.2134 Y24.8970
G01 X25.2119 Y24.8878
G01 X25.2102 Y24.8693
G01 X25.2100 Y24.5601
G01 X24.1100 Y24.5601
G01 X24.0928 Y24.5598
G01 X24.0708 Y24.5584
G01 X24.0488 Y24.5559
G01 X24.0174 Y24.5505
G01 X23.9959 Y24.5454
G01 X23.9747 Y24.5393
G01 X23.9538 Y24.5321
G01 X23.9400 Y24.5268
G01 X23.9220 Y24.5190
G01 X23.9022 Y24.5092
G01 X23.8828 Y24.4986
G01 X23.8640 Y24.4869
G01 X23.8458 Y24.4744
G01 X23.8283 Y24.4610
G01 X23.8041 Y24.4402
G01 X23.7917 Y24.4283
G01 X23.1733 Y23.8098
G01 X23.1648 Y23.8009
G01 X23.1502 Y23.7843
G01 X23.1341 Y23.7640
G01 X23.1181 Y23.7410
G01 X23.1115 Y23.7306
G01 X23.1004 Y23.7115
G01 X23.0860 Y23.6830
G01 X23.0782 Y23.6650
G01 X23.0729 Y23.6512
G01 X23.0629 Y23.6210
G01 X23.0572 Y23.5996
G01 X23.0536 Y23.5830
G01 X23.0505 Y23.5659
G01 X23.0476 Y23.5440
G01 X23.0457 Y23.5220
G01 X23.0449 Y23.4950
G01 X23.0449 Y10.1551
G00 Z1.5000
G00 X24.8350 Y10.4300
G01 F80.00
G01 Z-0.2000
G01 F80.00
G01 X27.2350 Y10.4300
G01 X27.2536 Y10.4309
G01 X27.2628 Y10.4319
G01 X27.2811 Y10.4354
G01 X27.2989 Y10.4405
G01 X27.3162 Y10.4472
G01 X27.3337 Y10.4561
G01 X27.3502 Y10.4665
G01 X27.3581 Y10.4724
G01 X27.3729 Y10.4852
G01 X27.3864 Y10.4993
G01 X27.3985 Y10.5148
G01 X27.4039 Y10.5229
G01 X27.4136 Y10.5399
G01 X27.4213 Y10.5573
G01 X27.4245 Y10.5661
G01 X27.4296 Y10.5839
G01 X27.4316 Y10.5930
G01 X27.4341 Y10.6114
G01 X27.4350 Y10.6300
G01 X27.4348 Y12.2393
G01 X27.4331 Y12.2578
G01 X27.4316 Y12.2670
G01 X27.4273 Y12.2850
G01 X27.4213 Y12.3027
G01 X27.4136 Y12.3201
G01 X27.4089 Y12.3287
G01 X27.4039 Y12.3371
G01 X27.3926 Y12.3531
G01 X27.3798 Y12.3679
G01 X27.3729 Y12.3748
G01 X27.3581 Y12.3876
G01 X27.3421 Y12.3989
G01 X27.3251 Y12.4086
G01 X27.3076 Y12.4163
G01 X27.2900 Y12.4223
G01 X27.2811 Y12.4246
G01 X27.2628 Y12.4281
G01 X27.2443 Y12.4298
G01 X27.2350 Y12.4300
G01 X24.8350 Y12.4300
G01 X24.8164 Y12.4291
G01 X24.8072 Y12.4281
G01 X24.7889 Y12.4246
G01 X24.7711 Y12.4195
G01 X24.7538 Y12.4128
G01 X24.7363 Y12.4039
G01 X24.7198 Y12.3935
G01 X24.7119 Y12.3876
G01 X24.6971 Y12.3748
G01 X24.6836 Y12.3607
G01 X24.6715 Y12.3452
G01 X24.6661 Y12.3371
G01 X24.6564 Y12.3201
G01 X24.6487 Y12.3027
G01 X24.6427 Y12.2850
G01 X24.6384 Y12.2670
G01 X24.6359 Y12.2486
G01 X24.6352 Y12.2393
G01 X24.6352 Y10.6207
G01 X24.6369 Y10.6022
G01 X24.6404 Y10.5839
G01 X24.6455 Y10.5661
G01 X24.6522 Y10.5488
G01 X24.6611 Y10.5313
G01 X24.6715 Y10.5148
G01 X24.6836 Y10.4993
G01 X24.6971 Y10.4852
G01 X24.7119 Y10.4724
G01 X24.7279 Y10.4611
G01 X24.7449 Y10.4514
G01 X24.7624 Y10.4437
G01 X24.7800 Y10.4377
G01 X24.7980 Y10.4334
G01 X24.8164 Y10.4309
G01 X24.8350 Y10.4300
G00 Z1.5000
G00 X24.6350 Y17.3100
G01 F80.00
G01 Z-0.2000
G01 F80.00
G01 X24.6352 Y15.7007
G01 X24.6369 Y15.6822
G01 X24.6384 Y15.6730
G01 X24.6404 Y15.6639
G01 X24.6455 Y15.6461
G01 X24.6522 Y15.6288
G01 X24.6564 Y15.6199
G01 X24.6661 Y15.6029
G01 X24.6715 Y15.5948
G01 X24.6836 Y15.5793
G01 X24.6971 Y15.5652
G01 X24.7119 Y15.5524
G01 X24.7198 Y15.5465
G01 X24.7279 Y15.5411
G01 X24.7449 Y15.5314
G01 X24.7624 Y15.5237
G01 X24.7711 Y15.5205
G01 X24.7889 Y15.5154
G01 X24.7980 Y15.5134
G01 X24.8164 Y15.5109
G01 X24.8350 Y15.5100
G01 X27.2350 Y15.5100
G01 X27.2536 Y15.5109
G01 X27.2628 Y15.5119
G01 X27.2811 Y15.5154
G01 X27.2900 Y15.5177
G01 X27.3077 Y15.5237
G01 X27.3162 Y15.5272
G01 X27.3251 Y15.5314
G01 X27.3421 Y15.5411
G01 X27.3502 Y15.5465
G01 X27.3657 Y15.5586
G01 X27.3798 Y15.5721
G01 X27.3926 Y15.5869
G01 X27.3985 Y15.5948
G01 X27.4039 Y15.6029
G01 X27.4136 Y15.6199
G01 X27.4178 Y15.6288
G01 X27.4245 Y15.6461
G01 X27.4273 Y15.6550
G01 X27.4316 Y15.6730
G01 X27.4341 Y15.6914
G01 X27.4348 Y15.7007
G01 X27.4350 Y16.0599
G01 X28.3886 Y16.0599
G01 X29.4107 Y15.0377
G01 X29.4107 Y9.7454
G01 X29.1109 Y9.7454
G01 X29.0923 Y9.7445
G01 X29.0831 Y9.7434
G01 X29.0648 Y9.7400
G01 X29.0558 Y9.7376
G01 X29.0382 Y9.7317
G01 X29.0208 Y9.7239
G01 X29.0122 Y9.7193
G01 X28.9956 Y9.7088
G01 X28.9878 Y9.7030
G01 X28.9729 Y9.6902
G01 X28.9660 Y9.6833
G01 X28.9532 Y9.6685
G01 X28.9420 Y9.6525
G01 X28.9323 Y9.6354
G01 X28.9281 Y9.6266
G01 X28.9214 Y9.6093
G01 X28.9162 Y9.5914
G01 X28.9128 Y9.5732
G01 X28.9111 Y9.5546
G01 X28.9109 Y9.3705
G01 X28.1300 Y9.3705
G01 X28.1298 Y9.6293
G01 X28.1281 Y9.6478
G01 X28.1266 Y9.6570
G01 X28.1223 Y9.6750
G01 X28.1195 Y9.6839
G01 X28.1128 Y9.7012
G01 X28.1086 Y9.7101
G01 X28.0989 Y9.7271
G01 X28.0876 Y9.7431
G01 X28.0748 Y9.7579
G01 X28.0679 Y9.7648
G01 X28.0531 Y9.7776
G01 X28.0371 Y9.7889
G01 X28.0287 Y9.7939
G01 X28.0112 Y9.8028
G01 X28.0027 Y9.8063
G01 X27.9850 Y9.8123
G01 X27.9761 Y9.8146
G01 X27.9578 Y9.8181
G01 X27.9393 Y9.8198
G01 X27.9300 Y9.8200
G01 X26.6800 Y9.8200
G01 X26.6707 Y9.8198
G01 X26.6522 Y9.8181
G01 X26.6339 Y9.8146
G01 X26.6250 Y9.8123
G01 X26.6074 Y9.8063
G01 X26.5988 Y9.8028
G01 X26.5813 Y9.7939
G01 X26.5648 Y9.7835
G01 X26.5569 Y9.7776
G01 X26.5421 Y9.7648
G01 X26.5352 Y9.7579
G01 X26.5224 Y9.7431
G01 X26.5111 Y9.7271
G01 X26.5014 Y9.7101
G01 X26.4972 Y9.7012
G01 X26.4905 Y9.6839
G01 X26.4854 Y9.6661
G01 X26.4834 Y9.6570
G01 X26.4809 Y9.6386
G01 X26.4802 Y9.6293
G01 X26.4800 Y8.1200
G01 X26.4802 Y8.1107
G01 X26.4819 Y8.0922
G01 X26.4834 Y8.0830
G01 X26.4877 Y8.0650
G01 X26.4937 Y8.0474
G01 X26.4972 Y8.0388
G01 X26.5061 Y8.0213
G01 X26.5111 Y8.0129
G01 X26.5224 Y7.9969
G01 X26.5352 Y7.9821
G01 X26.5421 Y7.9752
G01 X26.5569 Y7.9624
G01 X26.5648 Y7.9565
G01 X26.5813 Y7.9461
G01 X26.5988 Y7.9372
G01 X26.6074 Y7.9337
G01 X26.6250 Y7.9277
G01 X26.6339 Y7.9254
G01 X26.6522 Y7.9219
G01 X26.6707 Y7.9202
G01 X27.9300 Y7.9200
G01 X27.9486 Y7.9209
G01 X27.9578 Y7.9219
G01 X27.9670 Y7.9234
G01 X27.9850 Y7.9277
G01 X28.0027 Y7.9337
G01 X28.0112 Y7.9372
G01 X28.0287 Y7.9461
G01 X28.0452 Y7.9565
G01 X28.0531 Y7.9624
G01 X28.0679 Y7.9752
G01 X28.0814 Y7.9893
G01 X28.0935 Y8.0048
G01 X28.0989 Y8.0129
G01 X28.1086 Y8.0299
G01 X28.1128 Y8.0388
G01 X28.1163 Y8.0474
G01 X28.1223 Y8.0650
G01 X28.1246 Y8.0739
G01 X28.1281 Y8.0922
G01 X28.1291 Y8.1014
G01 X28.1300 Y8.1200
G01 X28.1300 Y8.4702
G01 X28.9109 Y8.4702
G01 X28.9111 Y8.2861
G01 X28.9128 Y8.2676
G01 X28.9162 Y8.2493
G01 X28.9214 Y8.2314
G01 X28.9281 Y8.2141
G01 X28.9323 Y8.2053
G01 X28.9420 Y8.1883
G01 X28.9532 Y8.1723
G01 X28.9594 Y8.1647
G01 X28.9729 Y8.1505
G01 X28.9878 Y8.1377
G01 X29.0038 Y8.1265
G01 X29.0122 Y8.1214
G01 X29.0296 Y8.1126
G01 X29.0382 Y8.1090
G01 X29.0558 Y8.1031
G01 X29.0648 Y8.1007
G01 X29.0831 Y8.0973
G01 X29.1016 Y8.0956
G01 X29.1109 Y8.0954
G01 X30.6109 Y8.0954
G01 X30.6202 Y8.0956
G01 X30.6387 Y8.0973
G01 X30.6569 Y8.1007
G01 X30.6659 Y8.1031
G01 X30.6835 Y8.1090
G01 X30.6921 Y8.1126
G01 X30.7009 Y8.1168
G01 X30.7180 Y8.1265
G01 X30.7261 Y8.1319
G01 X30.7415 Y8.1439
G01 X30.7557 Y8.1574
G01 X30.7623 Y8.1647
G01 X30.7743 Y8.1801
G01 X30.7848 Y8.1967
G01 X30.7936 Y8.2141
G01 X30.7972 Y8.2227
G01 X30.8031 Y8.2403
G01 X30.8074 Y8.2584
G01 X30.8089 Y8.2676
G01 X30.8106 Y8.2861
G01 X30.8109 Y9.5454
G01 X30.8100 Y9.5639
G01 X30.8074 Y9.5823
G01 X30.8055 Y9.5914
G01 X30.8004 Y9.6093
G01 X30.7972 Y9.6180
G01 X30.7894 Y9.6354
G01 X30.7848 Y9.6441
G01 X30.7743 Y9.6606
G01 X30.7685 Y9.6685
G01 X30.7557 Y9.6833
G01 X30.7488 Y9.6902
G01 X30.7340 Y9.7030
G01 X30.7180 Y9.7143
G01 X30.7009 Y9.7239
G01 X30.6921 Y9.7281
G01 X30.6835 Y9.7317
G01 X30.6659 Y9.7376
G01 X30.6569 Y9.7400
G01 X30.6387 Y9.7434
G01 X30.6202 Y9.7451
G01 X30.6109 Y9.7454
G01 X30.3110 Y9.7454
G01 X30.3109 Y15.2290
G01 X30.3106 Y15.2413
G01 X30.3092 Y15.2634
G01 X30.3053 Y15.2950
G01 X30.3023 Y15.3122
G01 X30.2986 Y15.3287
G01 X30.2930 Y15.3501
G01 X30.2830 Y15.3804
G01 X30.2776 Y15.3941
G01 X30.2698 Y15.4121
G01 X30.2555 Y15.4406
G01 X30.2449 Y15.4589
G01 X30.2378 Y15.4701
G01 X30.2253 Y15.4883
G01 X30.2119 Y15.5059
G01 X30.1976 Y15.5227
G01 X30.1792 Y15.5424
G01 X28.8933 Y16.8283
G01 X28.8736 Y16.8468
G01 X28.8567 Y16.8610
G01 X28.8440 Y16.8709
G01 X28.8291 Y16.8815
G01 X28.8106 Y16.8935
G01 X28.7828 Y16.9092
G01 X28.7630 Y16.9190
G01 X28.7450 Y16.9268
G01 X28.7312 Y16.9321
G01 X28.7103 Y16.9393
G01 X28.6891 Y16.9454
G01 X28.6630 Y16.9514
G01 X28.6459 Y16.9545
G01 X28.6142 Y16.9584
G01 X28.5922 Y16.9598
G01 X28.5750 Y16.9601
G01 X27.4350 Y16.9601
G01 X27.4350 Y17.3100
G01 X27.4341 Y17.3286
G01 X27.4331 Y17.3378
G01 X27.4296 Y17.3561
G01 X27.4245 Y17.3739
G01 X27.4213 Y17.3826
G01 X27.4136 Y17.4001
G01 X27.4089 Y17.4087
G01 X27.3985 Y17.4252
G01 X27.3864 Y17.4407
G01 X27.3798 Y17.4479
G01 X27.3657 Y17.4614
G01 X27.3502 Y17.4735
G01 X27.3421 Y17.4789
G01 X27.3251 Y17.4886
G01 X27.3162 Y17.4928
G01 X27.2989 Y17.4995
G01 X27.2811 Y17.5046
G01 X27.2720 Y17.5066
G01 X27.2536 Y17.5091
G01 X27.2350 Y17.5100
G01 X24.8350 Y17.5100
G01 X24.8164 Y17.5091
G01 X24.7980 Y17.5066
G01 X24.7800 Y17.5023
G01 X24.7624 Y17.4963
G01 X24.7449 Y17.4886
G01 X24.7279 Y17.4789
G01 X24.7198 Y17.4735
G01 X24.7043 Y17.4614
G01 X24.6902 Y17.4479
G01 X24.6774 Y17.4331
G01 X24.6661 Y17.4171
G01 X24.6564 Y17.4001
G01 X24.6487 Y17.3826
G01 X24.6427 Y17.3650
G01 X24.6384 Y17.3470
G01 X24.6359 Y17.3286
G01 X24.6350 Y17.3100
G00 Z1.5000
G00 X24.6350 Y19.8500
G01 F80.00
G01 Z-0.2000
G01 F80.00
G01 X24.6352 Y18.2407
G01 X24.6359 Y18.2314
G01 X24.6384 Y18.2130
G01 X24.6427 Y18.1950
G01 X24.6487 Y18.1774
G01 X24.6522 Y18.1688
G01 X24.6611 Y18.1513
G01 X24.6715 Y18.1348
G01 X24.6836 Y18.1193
G01 X24.6902 Y18.1121
G01 X24.7043 Y18.0986
G01 X24.7198 Y18.0865
G01 X24.7279 Y18.0811
G01 X24.7449 Y18.0714
G01 X24.7538 Y18.0672
G01 X24.7624 Y18.0637
G01 X24.7800 Y18.0577
G01 X24.7980 Y18.0534
G01 X24.8072 Y18.0519
G01 X24.8164 Y18.0509
G01 X24.8350 Y18.0500
G01 X27.2350 Y18.0500
G01 X27.2536 Y18.0509
G01 X27.2628 Y18.0519
G01 X27.2720 Y18.0534
G01 X27.2900 Y18.0577
G01 X27.3076 Y18.0637
G01 X27.3162 Y18.0672
G01 X27.3337 Y18.0761
G01 X27.3502 Y18.0865
G01 X27.3657 Y18.0986
G01 X27.3729 Y18.1052
G01 X27.3864 Y18.1193
G01 X27.3985 Y18.1348
G01 X27.4039 Y18.1429
G01 X27.4136 Y18.1599
G01 X27.4178 Y18.1688
G01 X27.4245 Y18.1861
G01 X27.4273 Y18.1950
G01 X27.4316 Y18.2130
G01 X27.4331 Y18.2222
G01 X27.4341 Y18.2314
G01 X27.4350 Y18.2500
G01 X27.4348 Y19.8593
G01 X27.4331 Y19.8778
G01 X27.4296 Y19.8961
G01 X27.4273 Y19.9050
G01 X27.4213 Y19.9227
G01 X27.4178 Y19.9312
G01 X27.4089 Y19.9487
G01 X27.3985 Y19.9652
G01 X27.3864 Y19.9807
G01 X27.3798 Y19.9879
G01 X27.3657 Y20.0014
G01 X27.3502 Y20.0135
G01 X27.3421 Y20.0189
G01 X27.3251 Y20.0286
G01 X27.3162 Y20.0328
G01 X27.2989 Y20.0395
G01 X27.2900 Y20.0423
G01 X27.2720 Y20.0466
G01 X27.2628 Y20.0481
G01 X27.2536 Y20.0491
G01 X27.2350 Y20.0500
G01 X24.8257 Y20.0498
G01 X24.8072 Y20.0481
G01 X24.7889 Y20.0446
G01 X24.7711 Y20.0395
G01 X24.7538 Y20.0328
G01 X24.7363 Y20.0239
G01 X24.7198 Y20.0135
G01 X24.7043 Y20.0014
G01 X24.6902 Y19.9879
G01 X24.6774 Y19.9731
G01 X24.6661 Y19.9571
G01 X24.6564 Y19.9401
G01 X24.6487 Y19.9226
G01 X24.6427 Y19.9050
G01 X24.6384 Y19.8870
G01 X24.6359 Y19.8686
G01 X24.6350 Y19.8500
G00 Z1.5000
G00 X25.4100 Y20.6600
G01 F80.00
G01 Z-0.2000
G01 F80.00
G01 X26.6600 Y20.6600
G01 X26.6786 Y20.6609
G01 X26.6878 Y20.6619
G01 X26.7061 Y20.6654
G01 X26.7239 Y20.6705
G01 X26.7412 Y20.6772
G01 X26.7501 Y20.6814
G01 X26.7671 Y20.6911
G01 X26.7752 Y20.6965
G01 X26.7907 Y20.7086
G01 X26.8048 Y20.7221
G01 X26.8114 Y20.7293
G01 X26.8235 Y20.7448
G01 X26.8339 Y20.7613
G01 X26.8428 Y20.7788
G01 X26.8463 Y20.7873
G01 X26.8523 Y20.8050
G01 X26.8546 Y20.8139
G01 X26.8581 Y20.8322
G01 X26.8591 Y20.8414
G01 X26.8600 Y20.8600
G01 X26.8600 Y21.1599
G01 X27.7500 Y21.1599
G01 X27.7502 Y20.8507
G01 X27.7519 Y20.8322
G01 X27.7534 Y20.8230
G01 X27.7554 Y20.8139
G01 X27.7605 Y20.7961
G01 X27.7672 Y20.7788
G01 X27.7714 Y20.7699
G01 X27.7761 Y20.7613
G01 X27.7865 Y20.7448
G01 X27.7986 Y20.7293
G01 X27.8121 Y20.7152
G01 X27.8193 Y20.7086
G01 X27.8348 Y20.6965
G01 X27.8429 Y20.6911
G01 X27.8599 Y20.6814
G01 X27.8688 Y20.6772
G01 X27.8861 Y20.6705
G01 X27.9039 Y20.6654
G01 X27.9130 Y20.6634
G01 X27.9314 Y20.6609
G01 X27.9500 Y20.6600
G01 X29.2000 Y20.6600
G01 X29.2186 Y20.6609
G01 X29.2278 Y20.6619
G01 X29.2461 Y20.6654
G01 X29.2639 Y20.6705
G01 X29.2726 Y20.6737
G01 X29.2901 Y20.6814
G01 X29.2987 Y20.6861
G01 X29.3152 Y20.6965
G01 X29.3231 Y20.7024
G01 X29.3307 Y20.7086
G01 X29.3448 Y20.7221
G01 X29.3576 Y20.7369
G01 X29.3635 Y20.7448
G01 X29.3739 Y20.7613
G01 X29.3786 Y20.7699
G01 X29.3863 Y20.7873
G01 X29.3923 Y20.8050
G01 X29.3966 Y20.8230
G01 X29.3991 Y20.8414
G01 X29.3998 Y20.8507
G01 X29.4000 Y21.1599
G01 X30.2900 Y21.1599
G01 X30.2900 Y20.8600
G01 X30.2909 Y20.8414
G01 X30.2934 Y20.8230
G01 X30.2954 Y20.8140
G01 X30.2977 Y20.8050
G01 X30.3037 Y20.7874
G01 X30.3114 Y20.7699
G01 X30.3161 Y20.7613
G01 X30.3211 Y20.7529
G01 X30.3324 Y20.7369
G01 X30.3452 Y20.7221
G01 X30.3593 Y20.7086
G01 X30.3748 Y20.6965
G01 X30.3829 Y20.6911
G01 X30.3999 Y20.6814
G01 X30.4088 Y20.6772
G01 X30.4261 Y20.6705
G01 X30.4440 Y20.6654
G01 X30.4622 Y20.6619
G01 X30.4807 Y20.6602
G01 X30.6649 Y20.6600
G01 X30.6649 Y19.0500
G01 X30.6652 Y19.0328
G01 X30.6674 Y19.0022
G01 X30.6705 Y18.9791
