(G-CODE GENERATED BY FLATCAM v8.97 - www.flatcam.org - Version Date: 2019/09/27)

(Name: hexPre-PTH.drl_cnc)
(Type: G-code from Excellon)
(Units: MM)

(Created on Thursday, 17 October 2019 at 21:24)

(Feedrate: 50.0 mm/min)
(Feedrate rapids 800.0009 mm/min)

(Z_Cut: -3.0 mm)
(Z_Move: 3.0 mm)
(Z Toolchange: 40.0 mm)
(X,Y Toolchange: 0.0000, 0.0000 mm)
(Z Start: None mm)
(Z End: 12.7 mm)
(Steps per circle: 128)
(Postprocessor Excellon: default)

(X range:    2.0396 ...   14.4704  mm)
(Y range:    3.3096 ...   25.9004  mm)

(Spindle Speed: None RPM)

G21
G90
G94

G01 F50.00
G00 Z3.0000

M03
G00 X2.5400 Y8.8900
G01 Z-3.0000
G01 Z0
G00 Z3.0000
G00 X2.5400 Y6.3500
G01 Z-3.0000
G01 Z0
G00 Z3.0000
G00 X2.5400 Y3.8100
G01 Z-3.0000
G01 Z0
G00 Z3.0000
G00 X13.9700 Y22.8600
G01 Z-3.0000
G01 Z0
G00 Z3.0000
G00 X13.9700 Y25.4000
G01 Z-3.0000
G01 Z0
G00 Z3.0000
M05
G00 Z12.70
G00 X0.0 Y0.0

M02