(G-CODE GENERATED BY FLATCAM v8.97 - www.flatcam.org - Version Date: 2019/09/27)

(Name: hexPre-F_Cu.gbr_iso_cnc)
(Type: G-code from Geometry)
(Units: MM)

(Created on Thursday, 17 October 2019 at 20:42)

(TOOL DIAMETER: 0.4 mm)
(Feedrate: 79.9998 mm/min)
(Feedrate_Z: 79.9998 mm/min)
(Feedrate rapids 79.9998 mm/min)

(Z_Cut: -0.25 mm)
(Z_Move: 1.999 mm)
(Z Toolchange: 12.7 mm)
(X,Y Toolchange: 0.0000, 0.0000 mm)
(Z Start: None mm)
(Z End: 12.7 mm)
(Steps per circle: 128)
(Postprocessor Geometry: default)

(X range:    0.8199 ...   16.9601  mm)
(Y range:    1.4549 ...   26.4851  mm)

(Spindle Speed: None RPM)

G21
G90
G94

G01 F80.00
G00 Z1.9990

M03
G00 X1.6802 Y2.7602
G01 F80.00
G01 Z-0.2500
G01 F80.00
G01 X2.0899 Y2.7600
G01 X2.0899 Y2.4575
G01 X2.0904 Y2.4379
G01 X2.0916 Y2.4208
G01 X2.0947 Y2.3940
G01 X2.0995 Y2.3674
G01 X2.1034 Y2.3506
G01 X2.1079 Y2.3340
G01 X2.1162 Y2.3084
G01 X2.1241 Y2.2877
G01 X2.1331 Y2.2675
G01 X2.1454 Y2.2435
G01 X2.1539 Y2.2286
G01 X2.1631 Y2.2140
G01 X2.1756 Y2.1958
G01 X2.1952 Y2.1707
G01 X2.2065 Y2.1577
G01 X2.2217 Y2.1417
G01 X2.7767 Y1.5867
G01 X2.7964 Y1.5682
G01 X2.8094 Y1.5570
G01 X2.8230 Y1.5464
G01 X2.8449 Y1.5307
G01 X2.8636 Y1.5189
G01 X2.8785 Y1.5104
G01 X2.9025 Y1.4981
G01 X2.9273 Y1.4873
G01 X2.9434 Y1.4812
G01 X2.9643 Y1.4743
G01 X2.9904 Y1.4672
G01 X3.0072 Y1.4635
G01 X3.0241 Y1.4605
G01 X3.0558 Y1.4566
G01 X3.0729 Y1.4554
G01 X3.0950 Y1.4549
G01 X9.5250 Y1.4549
G01 X9.5471 Y1.4554
G01 X9.5642 Y1.4566
G01 X9.5910 Y1.4597
G01 X9.6176 Y1.4645
G01 X9.6344 Y1.4684
G01 X9.6557 Y1.4743
G01 X9.6766 Y1.4812
G01 X9.7018 Y1.4911
G01 X9.7219 Y1.5002
G01 X9.7372 Y1.5080
G01 X9.7522 Y1.5164
G01 X9.7751 Y1.5307
G01 X9.7931 Y1.5435
G01 X9.8106 Y1.5570
G01 X9.8309 Y1.5748
G01 X9.8433 Y1.5867
G01 X10.4559 Y2.1993
G01 X10.4726 Y2.2173
G01 X10.4838 Y2.2303
G01 X10.4944 Y2.2438
G01 X10.5101 Y2.2658
G01 X10.5219 Y2.2845
G01 X10.5328 Y2.3037
G01 X10.5428 Y2.3234
G01 X10.5517 Y2.3436
G01 X10.5613 Y2.3689
G01 X10.5680 Y2.3899
G01 X10.5725 Y2.4065
G01 X10.5763 Y2.4232
G01 X10.5811 Y2.4498
G01 X10.5838 Y2.4717
G01 X10.5854 Y2.4938
G01 X10.5860 Y2.5159
G01 X10.5860 Y3.0154
G01 X10.8859 Y3.0154
G01 X10.9055 Y3.0163
G01 X10.9249 Y3.0192
G01 X10.9345 Y3.0214
G01 X10.9532 Y3.0271
G01 X10.9714 Y3.0346
G01 X10.9801 Y3.0390
G01 X10.9887 Y3.0438
G01 X11.0050 Y3.0547
G01 X11.0202 Y3.0672
G01 X11.0341 Y3.0810
G01 X11.0465 Y3.0962
G01 X11.0522 Y3.1042
G01 X11.0622 Y3.1211
G01 X11.0667 Y3.1298
G01 X11.0742 Y3.1480
G01 X11.0799 Y3.1668
G01 X11.0837 Y3.1860
G01 X11.0856 Y3.2055
G01 X11.0859 Y3.3901
G01 X12.5398 Y3.3894
G01 X12.5647 Y3.3807
G01 X12.5859 Y3.3746
G01 X12.6122 Y3.3685
G01 X12.6291 Y3.3655
G01 X12.6559 Y3.3620
G01 X12.6779 Y3.3604
G01 X12.7000 Y3.3599
G01 X12.7172 Y3.3602
G01 X12.7490 Y3.3626
G01 X12.7660 Y3.3647
G01 X12.7878 Y3.3685
G01 X12.8141 Y3.3746
G01 X12.8307 Y3.3793
G01 X12.8470 Y3.3846
G01 X12.8723 Y3.3941
G01 X12.8969 Y3.4052
G01 X12.9122 Y3.4130
G01 X12.9272 Y3.4214
G01 X12.9541 Y3.4385
G01 X12.9681 Y3.4485
G01 X12.9856 Y3.4620
G01 X13.0023 Y3.4765
G01 X13.0183 Y3.4917
G01 X16.8283 Y7.3017
G01 X16.8468 Y7.3214
G01 X16.8580 Y7.3344
G01 X16.8715 Y7.3519
G01 X16.8869 Y7.3740
G01 X16.8961 Y7.3886
G01 X16.9046 Y7.4035
G01 X16.9169 Y7.4275
G01 X16.9277 Y7.4523
G01 X16.9338 Y7.4684
G01 X16.9393 Y7.4847
G01 X16.9466 Y7.5106
G01 X16.9515 Y7.5322
G01 X16.9559 Y7.5588
G01 X16.9580 Y7.5759
G01 X16.9593 Y7.5930
G01 X16.9601 Y7.6200
G01 X16.9601 Y24.2100
G01 X16.9596 Y24.2321
G01 X16.9580 Y24.2541
G01 X16.9545 Y24.2809
G01 X16.9515 Y24.2978
G01 X16.9466 Y24.3194
G01 X16.9407 Y24.3407
G01 X16.9354 Y24.3570
G01 X16.9239 Y24.3868
G01 X16.9169 Y24.4025
G01 X16.9070 Y24.4222
G01 X16.8961 Y24.4414
G01 X16.8869 Y24.4560
G01 X16.8686 Y24.4820
G01 X16.8580 Y24.4956
G01 X16.8435 Y24.5123
G01 X16.8283 Y24.5283
G01 X15.6383 Y25.7183
G01 X15.6223 Y25.7335
G01 X15.6056 Y25.7480
G01 X15.5842 Y25.7644
G01 X15.5701 Y25.7743
G01 X15.5556 Y25.7835
G01 X15.5322 Y25.7970
G01 X15.5125 Y25.8069
G01 X15.4877 Y25.8177
G01 X15.4716 Y25.8238
G01 X15.4553 Y25.8293
G01 X15.4294 Y25.8366
G01 X15.4030 Y25.8424
G01 X15.3860 Y25.8453
G01 X15.3641 Y25.8480
G01 X15.3421 Y25.8496
G01 X15.3249 Y25.8501
G01 X15.0200 Y25.8501
G01 X15.0200 Y26.2500
G01 X15.0190 Y26.2696
G01 X15.0162 Y26.2890
G01 X15.0114 Y26.3081
G01 X15.0048 Y26.3265
G01 X14.9964 Y26.3443
G01 X14.9915 Y26.3528
G01 X14.9806 Y26.3691
G01 X14.9682 Y26.3843
G01 X14.9614 Y26.3914
G01 X14.9469 Y26.4046
G01 X14.9311 Y26.4163
G01 X14.9143 Y26.4264
G01 X14.9055 Y26.4308
G01 X14.8874 Y26.4383
G01 X14.8686 Y26.4440
G01 X14.8590 Y26.4462
G01 X14.8396 Y26.4490
G01 X14.8200 Y26.4500
G01 X13.1200 Y26.4500
G01 X13.1004 Y26.4490
G01 X13.0810 Y26.4462
G01 X13.0714 Y26.4440
G01 X13.0526 Y26.4383
G01 X13.0435 Y26.4348
G01 X13.0345 Y26.4308
G01 X13.0172 Y26.4215
G01 X13.0089 Y26.4163
G01 X12.9931 Y26.4046
G01 X12.9786 Y26.3914
G01 X12.9718 Y26.3843
G01 X12.9594 Y26.3691
G01 X12.9485 Y26.3528
G01 X12.9436 Y26.3443
G01 X12.9352 Y26.3265
G01 X12.9286 Y26.3081
G01 X12.9260 Y26.2986
G01 X12.9222 Y26.2793
G01 X12.9210 Y26.2696
G01 X12.9200 Y26.2500
G01 X12.9200 Y25.8501
G01 X12.8064 Y25.8501
G01 X12.3033 Y26.3533
G01 X12.2873 Y26.3685
G01 X12.2706 Y26.3830
G01 X12.2531 Y26.3965
G01 X12.2391 Y26.4065
G01 X12.2164 Y26.4211
G01 X12.1972 Y26.4320
G01 X12.1819 Y26.4398
G01 X12.1573 Y26.4509
G01 X12.1366 Y26.4588
G01 X12.1203 Y26.4643
G01 X12.0944 Y26.4716
G01 X12.0680 Y26.4774
G01 X12.0510 Y26.4803
G01 X12.0340 Y26.4824
G01 X12.0071 Y26.4846
G01 X11.9850 Y26.4851
G01 X7.6200 Y26.4851
G01 X7.5979 Y26.4846
G01 X7.5759 Y26.4830
G01 X7.5540 Y26.4803
G01 X7.5370 Y26.4774
G01 X7.5106 Y26.4716
G01 X7.4940 Y26.4671
G01 X7.4638 Y26.4571
G01 X7.4477 Y26.4509
G01 X7.4320 Y26.4440
G01 X7.4078 Y26.4320
G01 X7.3844 Y26.4185
G01 X7.3699 Y26.4093
G01 X7.3558 Y26.3994
G01 X7.3344 Y26.3830
G01 X7.3141 Y26.3652
G01 X7.3017 Y26.3533
G01 X7.2898 Y26.3409
G01 X7.2752 Y26.3243
G01 X7.2585 Y26.3031
G01 X7.2431 Y26.2810
G01 X7.2339 Y26.2664
G01 X7.2254 Y26.2515
G01 X7.2131 Y26.2275
G01 X7.2041 Y26.2073
G01 X7.1946 Y26.1820
G01 X7.1893 Y26.1657
G01 X7.1846 Y26.1491
G01 X7.1785 Y26.1228
G01 X7.1747 Y26.1010
G01 X7.1720 Y26.0791
G01 X7.1704 Y26.0571
G01 X7.1699 Y26.0375
G01 X7.1699 Y25.0600
G01 X6.9852 Y25.0598
G01 X6.9657 Y25.0578
G01 X6.9560 Y25.0562
G01 X6.9369 Y25.0514
G01 X6.9185 Y25.0448
G01 X6.9007 Y25.0364
G01 X6.8839 Y25.0263
G01 X6.8759 Y25.0206
G01 X6.8607 Y25.0082
G01 X6.8468 Y24.9943
G01 X6.8404 Y24.9869
G01 X6.8344 Y24.9791
G01 X6.8235 Y24.9628
G01 X6.8142 Y24.9455
G01 X6.8067 Y24.9274
G01 X6.8010 Y24.9086
G01 X6.7988 Y24.8990
G01 X6.7960 Y24.8796
G01 X6.7950 Y24.8600
G01 X6.7952 Y23.3502
G01 X6.7972 Y23.3307
G01 X6.8010 Y23.3114
G01 X6.8067 Y23.2926
G01 X6.8142 Y23.2745
G01 X6.8235 Y23.2572
G01 X6.8344 Y23.2409
G01 X6.8468 Y23.2257
G01 X6.8536 Y23.2186
G01 X6.8681 Y23.2054
G01 X6.8839 Y23.1937
G01 X6.9007 Y23.1836
G01 X6.9185 Y23.1752
G01 X6.9369 Y23.1686
G01 X6.9560 Y23.1638
G01 X6.9754 Y23.1610
G01 X6.9852 Y23.1602
G01 X8.2548 Y23.1602
G01 X8.2646 Y23.1610
G01 X8.2840 Y23.1638
G01 X8.3031 Y23.1686
G01 X8.3124 Y23.1717
G01 X8.3305 Y23.1792
G01 X8.3478 Y23.1885
G01 X8.3641 Y23.1994
G01 X8.3719 Y23.2054
G01 X8.3864 Y23.2186
G01 X8.3932 Y23.2257
G01 X8.4056 Y23.2409
G01 X8.4165 Y23.2572
G01 X8.4214 Y23.2657
G01 X8.4298 Y23.2835
G01 X8.4364 Y23.3019
G01 X8.4412 Y23.3210
G01 X8.4428 Y23.3307
G01 X8.4440 Y23.3404
G01 X8.4450 Y23.3600
G01 X8.4450 Y24.8600
G01 X8.4440 Y24.8796
G01 X8.4428 Y24.8893
G01 X8.4412 Y24.8990
G01 X8.4364 Y24.9181
G01 X8.4298 Y24.9365
G01 X8.4214 Y24.9543
G01 X8.4165 Y24.9628
G01 X8.4056 Y24.9791
G01 X8.3932 Y24.9943
G01 X8.3864 Y25.0014
G01 X8.3719 Y25.0146
G01 X8.3561 Y25.0263
G01 X8.3478 Y25.0315
G01 X8.3305 Y25.0408
G01 X8.3124 Y25.0483
G01 X8.2936 Y25.0540
G01 X8.2743 Y25.0578
G01 X8.2548 Y25.0598
G01 X8.0701 Y25.0600
G01 X8.0701 Y25.5849
G01 X11.7986 Y25.5849
G01 X12.3052 Y25.0783
G01 X12.3177 Y25.0665
G01 X12.3307 Y25.0552
G01 X12.3519 Y25.0385
G01 X12.3740 Y25.0231
G01 X12.3886 Y25.0139
G01 X12.4035 Y25.0054
G01 X12.4275 Y24.9931
G01 X12.4477 Y24.9841
G01 X12.4684 Y24.9762
G01 X12.4893 Y24.9693
G01 X12.5106 Y24.9634
G01 X12.5322 Y24.9585
G01 X12.5540 Y24.9547
G01 X12.5759 Y24.9520
G01 X12.5979 Y24.9504
G01 X12.6175 Y24.9499
G01 X12.9200 Y24.9499
G01 X12.9200 Y24.5500
G01 X12.9210 Y24.5304
G01 X12.9222 Y24.5207
G01 X12.9238 Y24.5110
G01 X12.9286 Y24.4919
G01 X12.9352 Y24.4735
G01 X12.9392 Y24.4645
G01 X12.9485 Y24.4472
G01 X12.9537 Y24.4389
G01 X12.9654 Y24.4231
G01 X12.9718 Y24.4157
G01 X12.9786 Y24.4086
G01 X12.9931 Y24.3954
G01 X13.0089 Y24.3837
G01 X13.0172 Y24.3785
G01 X13.0345 Y24.3692
G01 X13.0435 Y24.3652
G01 X13.0526 Y24.3617
G01 X13.0714 Y24.3560
G01 X13.0810 Y24.3538
G01 X13.1004 Y24.3510
G01 X13.1200 Y24.3500
G01 X14.8200 Y24.3500
G01 X14.8298 Y24.3502
G01 X14.8493 Y24.3522
G01 X14.8590 Y24.3538
G01 X14.8781 Y24.3586
G01 X14.8874 Y24.3617
G01 X14.9055 Y24.3692
G01 X14.9228 Y24.3785
G01 X14.9391 Y24.3894
G01 X14.9469 Y24.3954
G01 X14.9614 Y24.4086
G01 X14.9682 Y24.4157
G01 X14.9806 Y24.4309
G01 X14.9915 Y24.4472
G01 X14.9964 Y24.4557
G01 X15.0048 Y24.4735
G01 X15.0083 Y24.4826
G01 X15.0140 Y24.5014
G01 X15.0178 Y24.5207
G01 X15.0190 Y24.5304
G01 X15.0200 Y24.5500
G01 X15.0200 Y24.9499
G01 X15.1336 Y24.9499
G01 X16.0599 Y24.0236
G01 X16.0599 Y19.2967
G01 X15.9883 Y19.3683
G01 X15.9759 Y19.3802
G01 X15.9556 Y19.3980
G01 X15.9342 Y19.4144
G01 X15.9201 Y19.4243
G01 X15.9014 Y19.4361
G01 X15.8822 Y19.4470
G01 X15.8669 Y19.4548
G01 X15.8377 Y19.4677
G01 X15.8216 Y19.4738
G01 X15.8007 Y19.4807
G01 X15.7794 Y19.4866
G01 X15.7530 Y19.4924
G01 X15.7360 Y19.4953
G01 X15.7190 Y19.4974
G01 X15.6921 Y19.4996
G01 X15.6700 Y19.5001
G01 X15.3700 Y19.5001
G01 X15.3700 Y19.8500
G01 X15.3690 Y19.8696
G01 X15.3678 Y19.8793
G01 X15.3662 Y19.8890
G01 X15.3614 Y19.9081
G01 X15.3548 Y19.9265
G01 X15.3508 Y19.9355
G01 X15.3415 Y19.9528
G01 X15.3363 Y19.9611
G01 X15.3306 Y19.9691
G01 X15.3182 Y19.9843
G01 X15.3114 Y19.9914
G01 X15.2969 Y20.0046
G01 X15.2811 Y20.0163
G01 X15.2728 Y20.0215
G01 X15.2555 Y20.0308
G01 X15.2374 Y20.0383
G01 X15.2281 Y20.0414
G01 X15.2090 Y20.0462
G01 X15.1993 Y20.0478
G01 X15.1798 Y20.0498
G01 X15.1700 Y20.0500
G01 X12.7700 Y20.0500
G01 X12.7504 Y20.0490
G01 X12.7310 Y20.0462
G01 X12.7119 Y20.0414
G01 X12.7026 Y20.0383
G01 X12.6845 Y20.0308
G01 X12.6672 Y20.0215
G01 X12.6509 Y20.0106
G01 X12.6357 Y19.9982
G01 X12.6218 Y19.9843
G01 X12.6094 Y19.9691
G01 X12.5985 Y19.9528
G01 X12.5936 Y19.9443
G01 X12.5852 Y19.9265
G01 X12.5786 Y19.9081
G01 X12.5738 Y19.8890
G01 X12.5710 Y19.8696
G01 X12.5700 Y19.8500
G01 X12.5702 Y18.2402
G01 X12.5722 Y18.2207
G01 X12.5738 Y18.2110
G01 X12.5786 Y18.1919
G01 X12.5852 Y18.1735
G01 X12.5936 Y18.1557
G01 X12.5985 Y18.1472
G01 X12.6094 Y18.1309
G01 X12.6218 Y18.1157
G01 X12.6286 Y18.1086
G01 X12.6431 Y18.0954
G01 X12.6509 Y18.0894
G01 X12.6589 Y18.0837
G01 X12.6757 Y18.0736
G01 X12.6845 Y18.0692
G01 X12.7026 Y18.0617
G01 X12.7214 Y18.0560
G01 X12.7310 Y18.0538
G01 X12.7504 Y18.0510
G01 X12.7700 Y18.0500
G01 X15.1700 Y18.0500
G01 X15.1896 Y18.0510
G01 X15.2090 Y18.0538
G01 X15.2281 Y18.0586
G01 X15.2374 Y18.0617
G01 X15.2555 Y18.0692
G01 X15.2728 Y18.0785
G01 X15.2811 Y18.0837
G01 X15.2969 Y18.0954
G01 X15.3043 Y18.1018
G01 X15.3182 Y18.1157
G01 X15.3246 Y18.1231
G01 X15.3306 Y18.1309
G01 X15.3415 Y18.1472
G01 X15.3464 Y18.1557
G01 X15.3548 Y18.1735
G01 X15.3614 Y18.1919
G01 X15.3662 Y18.2110
G01 X15.3678 Y18.2207
G01 X15.3690 Y18.2304
G01 X15.3700 Y18.2500
G01 X15.3700 Y18.5999
G01 X15.4836 Y18.5999
G01 X16.0599 Y18.0236
G01 X16.0599 Y7.8064
G01 X12.5439 Y4.2905
G01 X11.0859 Y4.2905
G01 X11.0856 Y4.4752
G01 X11.0837 Y4.4947
G01 X11.0799 Y4.5140
G01 X11.0742 Y4.5327
G01 X11.0667 Y4.5509
G01 X11.0622 Y4.5596
G01 X11.0522 Y4.5765
G01 X11.0405 Y4.5922
G01 X11.0273 Y4.6068
G01 X11.0202 Y4.6135
G01 X11.0050 Y4.6260
G01 X10.9887 Y4.6369
G01 X10.9801 Y4.6417
G01 X10.9714 Y4.6462
G01 X10.9532 Y4.6537
G01 X10.9345 Y4.6594
G01 X10.9152 Y4.6632
G01 X10.9055 Y4.6644
G01 X10.8859 Y4.6654
G01 X9.3761 Y4.6651
G01 X9.3565 Y4.6632
G01 X9.3468 Y4.6615
G01 X9.3373 Y4.6594
G01 X9.3185 Y4.6537
G01 X9.3004 Y4.6462
G01 X9.2830 Y4.6369
G01 X9.2667 Y4.6260
G01 X9.2590 Y4.6200
G01 X9.2444 Y4.6068
G01 X9.2377 Y4.5997
G01 X9.2252 Y4.5845
G01 X9.2143 Y4.5682
G01 X9.2051 Y4.5509
G01 X9.1976 Y4.5327
G01 X9.1919 Y4.5140
G01 X9.1880 Y4.4947
G01 X9.1861 Y4.4752
G01 X9.1859 Y3.2154
G01 X9.1868 Y3.1958
G01 X9.1880 Y3.1860
G01 X9.1919 Y3.1668
G01 X9.1976 Y3.1480
G01 X9.2051 Y3.1298
G01 X9.2095 Y3.1211
G01 X9.2196 Y3.1042
G01 X9.2252 Y3.0962
G01 X9.2377 Y3.0810
G01 X9.2444 Y3.0739
G01 X9.2590 Y3.0608
G01 X9.2667 Y3.0547
G01 X9.2830 Y3.0438
G01 X9.3004 Y3.0346
G01 X9.3185 Y3.0271
G01 X9.3278 Y3.0240
G01 X9.3468 Y3.0192
G01 X9.3565 Y3.0175
G01 X9.3663 Y3.0163
G01 X9.3859 Y3.0154
G01 X9.6857 Y3.0154
G01 X9.6857 Y2.7023
G01 X9.3386 Y2.3551
G01 X3.2814 Y2.3551
G01 X2.9901 Y2.6464
G01 X2.9901 Y2.7600
G01 X3.3900 Y2.7600
G01 X3.4096 Y2.7610
G01 X3.4193 Y2.7622
G01 X3.4386 Y2.7660
G01 X3.4481 Y2.7686
G01 X3.4665 Y2.7752
G01 X3.4843 Y2.7836
G01 X3.4928 Y2.7885
G01 X3.5091 Y2.7994
G01 X3.5243 Y2.8118
G01 X3.5314 Y2.8186
G01 X3.5382 Y2.8257
G01 X3.5506 Y2.8409
G01 X3.5615 Y2.8572
G01 X3.5664 Y2.8657
G01 X3.5748 Y2.8835
G01 X3.5783 Y2.8926
G01 X3.5840 Y2.9114
G01 X3.5862 Y2.9210
G01 X3.5890 Y2.9404
G01 X3.5900 Y2.9600
G01 X3.5900 Y4.6600
G01 X3.5890 Y4.6796
G01 X3.5862 Y4.6990
G01 X3.5814 Y4.7181
G01 X3.5748 Y4.7365
G01 X3.5664 Y4.7543
G01 X3.5615 Y4.7628
G01 X3.5506 Y4.7791
G01 X3.5382 Y4.7943
G01 X3.5243 Y4.8082
G01 X3.5091 Y4.8206
G01 X3.4928 Y4.8315
G01 X3.4843 Y4.8364
G01 X3.4665 Y4.8448
G01 X3.4481 Y4.8514
G01 X3.4290 Y4.8562
G01 X3.4096 Y4.8590
G01 X3.3998 Y4.8598
G01 X1.6802 Y4.8598
G01 X1.6607 Y4.8578
G01 X1.6414 Y4.8540
G01 X1.6226 Y4.8483
G01 X1.6045 Y4.8408
G01 X1.5872 Y4.8315
G01 X1.5709 Y4.8206
G01 X1.5631 Y4.8146
G01 X1.5486 Y4.8014
G01 X1.5354 Y4.7869
G01 X1.5294 Y4.7791
G01 X1.5185 Y4.7628
G01 X1.5092 Y4.7455
G01 X1.5017 Y4.7274
G01 X1.4960 Y4.7086
G01 X1.4938 Y4.6990
G01 X1.4910 Y4.6796
G01 X1.4902 Y4.6698
G01 X1.4902 Y2.9502
G01 X1.4922 Y2.9307
G01 X1.4960 Y2.9114
G01 X1.5017 Y2.8926
G01 X1.5052 Y2.8835
G01 X1.5136 Y2.8657
G01 X1.5237 Y2.8489
G01 X1.5354 Y2.8331
G01 X1.5486 Y2.8186
G01 X1.5557 Y2.8118
G01 X1.5709 Y2.7994
G01 X1.5872 Y2.7885
G01 X1.6045 Y2.7792
G01 X1.6226 Y2.7717
G01 X1.6414 Y2.7660
G01 X1.6607 Y2.7622
G01 X1.6802 Y2.7602
G00 Z1.9990
G00 X3.4786 Y6.8201
G01 F80.00
G01 Z-0.2500
G01 F80.00
G01 X3.4660 Y6.8450
G01 X3.4380 Y6.8940
G01 X3.4130 Y6.9333
G01 X3.3804 Y6.9794
G01 X3.3517 Y7.0161
G01 X3.3180 Y7.0551
G01 X3.2825 Y7.0925
G01 X3.2415 Y7.1313
G01 X3.2061 Y7.1617
G01 X3.1655 Y7.1934
G01 X3.1233 Y7.2230
G01 X3.0798 Y7.2506
G01 X3.0350 Y7.2760
G01 X2.9889 Y7.2992
G01 X2.9418 Y7.3201
G01 X2.8891 Y7.3402
G01 X2.8448 Y7.3548
G01 X2.7951 Y7.3685
G01 X2.7448 Y7.3798
G01 X2.6941 Y7.3886
G01 X2.6429 Y7.3949
G01 X2.5915 Y7.3987
G01 X2.5400 Y7.4000
G01 X2.4885 Y7.3987
G01 X2.4371 Y7.3949
G01 X2.3859 Y7.3886
G01 X2.3352 Y7.3798
G01 X2.2849 Y7.3685
G01 X2.2352 Y7.3548
G01 X2.1863 Y7.3386
G01 X2.1382 Y7.3201
G01 X2.0867 Y7.2970
G01 X2.0450 Y7.2760
G01 X2.0002 Y7.2506
G01 X1.9567 Y7.2230
G01 X1.9145 Y7.1934
G01 X1.8739 Y7.1617
G01 X1.8349 Y7.1280
G01 X1.7975 Y7.0925
G01 X1.7620 Y7.0551
G01 X1.7283 Y7.0161
G01 X1.6966 Y6.9755
G01 X1.6670 Y6.9333
G01 X1.6394 Y6.8898
G01 X1.6140 Y6.8450
G01 X1.5908 Y6.7989
G01 X1.5699 Y6.7518
G01 X1.5514 Y6.7037
G01 X1.5352 Y6.6548
G01 X1.5215 Y6.6051
G01 X1.5102 Y6.5548
G01 X1.5014 Y6.5041
G01 X1.4951 Y6.4529
G01 X1.4913 Y6.4015
G01 X1.4900 Y6.3500
G01 X1.4913 Y6.2985
G01 X1.4951 Y6.2471
G01 X1.5014 Y6.1959
G01 X1.5102 Y6.1452
G01 X1.5215 Y6.0949
G01 X1.5352 Y6.0452
G01 X1.5514 Y5.9963
G01 X1.5699 Y5.9482
G01 X1.5930 Y5.8967
G01 X1.6140 Y5.8550
G01 X1.6369 Y5.8144
G01 X1.6670 Y5.7667
G01 X1.6996 Y5.7206
G01 X1.7283 Y5.6839
G01 X1.7587 Y5.6485
G01 X1.7975 Y5.6075
G01 X1.8385 Y5.5687
G01 X1.8777 Y5.5353
G01 X1.9145 Y5.5066
G01 X1.9526 Y5.4797
G01 X2.0002 Y5.4494
G01 X2.0494 Y5.4217
G01 X2.0911 Y5.4008
G01 X2.1337 Y5.3819
G01 X2.1863 Y5.3614
G01 X2.2399 Y5.3438
G01 X2.2849 Y5.3315
G01 X2.3304 Y5.3212
G01 X2.3859 Y5.3114
G01 X2.4371 Y5.3051
G01 X2.4885 Y5.3013
G01 X2.5351 Y5.3001
G01 X2.5915 Y5.3013
G01 X2.6429 Y5.3051
G01 X2.6892 Y5.3107
G01 X2.7496 Y5.3212
G01 X2.7951 Y5.3315
G01 X2.8448 Y5.3452
G01 X2.8937 Y5.3614
G01 X2.9373 Y5.3781
G01 X2.9933 Y5.4030
G01 X3.0350 Y5.4240
G01 X3.0756 Y5.4469
G01 X3.1274 Y5.4797
G01 X3.1655 Y5.5066
G01 X3.2061 Y5.5383
G01 X3.2487 Y5.5753
G01 X3.2825 Y5.6075
G01 X3.3180 Y5.6449
G01 X3.3547 Y5.6877
G01 X3.3834 Y5.7245
G01 X3.4130 Y5.7667
G01 X3.4406 Y5.8102
G01 X3.4637 Y5.8507
G01 X3.4870 Y5.8967
G01 X3.4976 Y5.9199
G01 X4.2550 Y5.9199
G01 X4.2552 Y5.6102
G01 X4.2572 Y5.5907
G01 X4.2588 Y5.5810
G01 X4.2636 Y5.5619
G01 X4.2667 Y5.5526
G01 X4.2702 Y5.5435
G01 X4.2786 Y5.5257
G01 X4.2835 Y5.5172
G01 X4.2944 Y5.5009
G01 X4.3068 Y5.4857
G01 X4.3136 Y5.4786
G01 X4.3281 Y5.4654
G01 X4.3439 Y5.4537
G01 X4.3522 Y5.4485
G01 X4.3607 Y5.4436
G01 X4.3785 Y5.4352
G01 X4.3969 Y5.4286
G01 X4.4160 Y5.4238
G01 X4.4257 Y5.4222
G01 X4.4452 Y5.4202
G01 X4.4550 Y5.4200
G01 X5.7148 Y5.4202
G01 X5.7343 Y5.4222
G01 X5.7440 Y5.4238
G01 X5.7631 Y5.4286
G01 X5.7815 Y5.4352
G01 X5.7993 Y5.4436
G01 X5.8078 Y5.4485
G01 X5.8161 Y5.4537
G01 X5.8319 Y5.4654
G01 X5.8464 Y5.4786
G01 X5.8596 Y5.4931
G01 X5.8656 Y5.5009
G01 X5.8765 Y5.5172
G01 X5.8814 Y5.5257
G01 X5.8898 Y5.5435
G01 X5.8933 Y5.5526
G01 X5.8990 Y5.5714
G01 X5.9012 Y5.5810
G01 X5.9040 Y5.6004
G01 X5.9050 Y5.6200
G01 X5.9048 Y7.1298
G01 X5.9028 Y7.1493
G01 X5.9012 Y7.1590
G01 X5.8964 Y7.1781
G01 X5.8898 Y7.1965
G01 X5.8814 Y7.2143
G01 X5.8765 Y7.2228
G01 X5.8713 Y7.2311
G01 X5.8596 Y7.2469
G01 X5.8464 Y7.2614
G01 X5.8319 Y7.2746
G01 X5.8241 Y7.2806
G01 X5.8078 Y7.2915
G01 X5.7993 Y7.2964
G01 X5.7815 Y7.3048
G01 X5.7724 Y7.3083
G01 X5.7536 Y7.3140
G01 X5.7440 Y7.3162
G01 X5.7246 Y7.3190
G01 X5.7050 Y7.3200
G01 X4.4550 Y7.3200
G01 X4.4354 Y7.3190
G01 X4.4160 Y7.3162
G01 X4.3969 Y7.3114
G01 X4.3876 Y7.3083
G01 X4.3785 Y7.3048
G01 X4.3607 Y7.2964
G01 X4.3522 Y7.2915
G01 X4.3359 Y7.2806
G01 X4.3207 Y7.2682
G01 X4.3136 Y7.2614
G01 X4.3004 Y7.2469
G01 X4.2887 Y7.2311
G01 X4.2835 Y7.2228
G01 X4.2786 Y7.2143
G01 X4.2702 Y7.1965
G01 X4.2636 Y7.1781
G01 X4.2588 Y7.1590
G01 X4.2572 Y7.1493
G01 X4.2552 Y7.1298
G01 X4.2550 Y7.1200
G01 X4.2550 Y6.8201
G01 X3.4786 Y6.8201
G00 Z1.9990
G00 X2.6002 Y10.4302
G01 F80.00
G01 Z-0.2500
G01 F80.00
G01 X5.0100 Y10.4300
G01 X5.0198 Y10.4302
G01 X5.0393 Y10.4322
G01 X5.0490 Y10.4338
G01 X5.0681 Y10.4386
G01 X5.0865 Y10.4452
G01 X5.1043 Y10.4536
G01 X5.1211 Y10.4637
G01 X5.1291 Y10.4694
G01 X5.1443 Y10.4818
G01 X5.1514 Y10.4886
G01 X5.1646 Y10.5031
G01 X5.1763 Y10.5189
G01 X5.1815 Y10.5272
G01 X5.1908 Y10.5445
G01 X5.1983 Y10.5626
G01 X5.2040 Y10.5814
G01 X5.2062 Y10.5910
G01 X5.2090 Y10.6104
G01 X5.2100 Y10.6300
G01 X5.2100 Y12.2300
G01 X5.2098 Y12.2398
G01 X5.2078 Y12.2593
G01 X5.2040 Y12.2786
G01 X5.2014 Y12.2881
G01 X5.1983 Y12.2974
G01 X5.1908 Y12.3155
G01 X5.1815 Y12.3328
G01 X5.1706 Y12.3491
G01 X5.1582 Y12.3643
G01 X5.1514 Y12.3714
G01 X5.1369 Y12.3846
G01 X5.1211 Y12.3963
G01 X5.1043 Y12.4064
G01 X5.0955 Y12.4108
G01 X5.0774 Y12.4183
G01 X5.0586 Y12.4240
G01 X5.0490 Y12.4262
G01 X5.0296 Y12.4290
G01 X5.0100 Y12.4300
G01 X2.6100 Y12.4300
G01 X2.6002 Y12.4298
G01 X2.5807 Y12.4278
G01 X2.5614 Y12.4240
G01 X2.5519 Y12.4214
G01 X2.5335 Y12.4148
G01 X2.5157 Y12.4064
G01 X2.4989 Y12.3963
G01 X2.4909 Y12.3906
G01 X2.4757 Y12.3782
G01 X2.4618 Y12.3643
G01 X2.4494 Y12.3491
G01 X2.4385 Y12.3328
G01 X2.4336 Y12.3243
G01 X2.4292 Y12.3155
G01 X2.4217 Y12.2974
G01 X2.4160 Y12.2786
G01 X2.4122 Y12.2593
G01 X2.4102 Y12.2398
G01 X2.4102 Y10.6202
G01 X2.4122 Y10.6007
G01 X2.4160 Y10.5814
G01 X2.4217 Y10.5626
G01 X2.4292 Y10.5445
G01 X2.4385 Y10.5272
G01 X2.4494 Y10.5109
G01 X2.4618 Y10.4957
G01 X2.4686 Y10.4886
G01 X2.4757 Y10.4818
G01 X2.4909 Y10.4694
G01 X2.5072 Y10.4585
G01 X2.5245 Y10.4492
G01 X2.5426 Y10.4417
G01 X2.5614 Y10.4360
G01 X2.5807 Y10.4322
G01 X2.6002 Y10.4302
G00 Z1.9990
G00 X2.6002 Y15.5102
G01 F80.00
G01 Z-0.2500
G01 F80.00
G01 X5.0100 Y15.5100
G01 X5.0198 Y15.5102
G01 X5.0393 Y15.5122
G01 X5.0490 Y15.5138
G01 X5.0681 Y15.5186
G01 X5.0774 Y15.5217
G01 X5.0955 Y15.5292
G01 X5.1043 Y15.5336
G01 X5.1211 Y15.5437
G01 X5.1369 Y15.5554
G01 X5.1443 Y15.5618
G01 X5.1582 Y15.5757
G01 X5.1706 Y15.5909
G01 X5.1763 Y15.5989
G01 X5.1815 Y15.6072
G01 X5.1908 Y15.6245
G01 X5.1983 Y15.6426
G01 X5.2014 Y15.6519
G01 X5.2040 Y15.6614
G01 X5.2078 Y15.6807
G01 X5.2098 Y15.7002
G01 X5.2100 Y15.7100
G01 X5.2100 Y16.0599
G01 X6.1636 Y16.0599
G01 X7.1857 Y15.0377
G01 X7.1857 Y9.7454
G01 X6.8859 Y9.7454
G01 X6.8663 Y9.7444
G01 X6.8468 Y9.7415
G01 X6.8373 Y9.7394
G01 X6.8185 Y9.7337
G01 X6.8093 Y9.7301
G01 X6.7916 Y9.7217
G01 X6.7748 Y9.7117
G01 X6.7667 Y9.7060
G01 X6.7516 Y9.6935
G01 X6.7444 Y9.6868
G01 X6.7313 Y9.6722
G01 X6.7196 Y9.6565
G01 X6.7143 Y9.6482
G01 X6.7051 Y9.6309
G01 X6.6976 Y9.6127
G01 X6.6919 Y9.5940
G01 X6.6880 Y9.5747
G01 X6.6861 Y9.5552
G01 X6.6859 Y9.3705
G01 X5.9050 Y9.3705
G01 X5.9048 Y9.6298
G01 X5.9028 Y9.6493
G01 X5.9012 Y9.6590
G01 X5.8990 Y9.6686
G01 X5.8933 Y9.6874
G01 X5.8858 Y9.7055
G01 X5.8765 Y9.7228
G01 X5.8713 Y9.7311
G01 X5.8656 Y9.7391
G01 X5.8532 Y9.7543
G01 X5.8393 Y9.7682
G01 X5.8319 Y9.7746
G01 X5.8161 Y9.7863
G01 X5.7993 Y9.7964
G01 X5.7815 Y9.8048
G01 X5.7724 Y9.8083
G01 X5.7536 Y9.8140
G01 X5.7440 Y9.8162
G01 X5.7246 Y9.8190
G01 X5.7050 Y9.8200
G01 X4.4550 Y9.8200
G01 X4.4354 Y9.8190
G01 X4.4160 Y9.8162
G01 X4.4064 Y9.8140
G01 X4.3876 Y9.8083
G01 X4.3785 Y9.8048
G01 X4.3607 Y9.7964
G01 X4.3522 Y9.7915
G01 X4.3439 Y9.7863
G01 X4.3281 Y9.7746
G01 X4.3136 Y9.7614
G01 X4.3004 Y9.7469
G01 X4.2944 Y9.7391
G01 X4.2835 Y9.7228
G01 X4.2742 Y9.7055
G01 X4.2667 Y9.6874
G01 X4.2636 Y9.6781
G01 X4.2610 Y9.6686
G01 X4.2572 Y9.6493
G01 X4.2552 Y9.6298
G01 X4.2552 Y8.1102
G01 X4.2572 Y8.0907
G01 X4.2588 Y8.0810
G01 X4.2610 Y8.0714
G01 X4.2667 Y8.0526
G01 X4.2742 Y8.0345
G01 X4.2835 Y8.0172
G01 X4.2944 Y8.0009
G01 X4.3004 Y7.9931
G01 X4.3136 Y7.9786
G01 X4.3281 Y7.9654
G01 X4.3439 Y7.9537
G01 X4.3522 Y7.9485
G01 X4.3695 Y7.9392
G01 X4.3876 Y7.9317
G01 X4.4064 Y7.9260
G01 X4.4257 Y7.9222
G01 X4.4452 Y7.9202
G01 X5.7050 Y7.9200
G01 X5.7148 Y7.9202
G01 X5.7343 Y7.9222
G01 X5.7536 Y7.9260
G01 X5.7631 Y7.9286
G01 X5.7815 Y7.9352
G01 X5.7905 Y7.9392
G01 X5.7993 Y7.9436
G01 X5.8161 Y7.9537
G01 X5.8319 Y7.9654
G01 X5.8464 Y7.9786
G01 X5.8532 Y7.9857
G01 X5.8656 Y8.0009
G01 X5.8765 Y8.0172
G01 X5.8814 Y8.0257
G01 X5.8858 Y8.0345
G01 X5.8933 Y8.0526
G01 X5.8990 Y8.0714
G01 X5.9028 Y8.0907
G01 X5.9040 Y8.1004
G01 X5.9050 Y8.1200
G01 X5.9050 Y8.4702
G01 X6.6859 Y8.4702
G01 X6.6861 Y8.2855
G01 X6.6880 Y8.2660
G01 X6.6919 Y8.2468
G01 X6.6976 Y8.2280
G01 X6.7051 Y8.2098
G01 X6.7143 Y8.1925
G01 X6.7196 Y8.1842
G01 X6.7313 Y8.1685
G01 X6.7444 Y8.1539
G01 X6.7516 Y8.1472
G01 X6.7667 Y8.1347
G01 X6.7748 Y8.1291
G01 X6.7916 Y8.1190
G01 X6.8093 Y8.1106
G01 X6.8185 Y8.1071
G01 X6.8373 Y8.1014
G01 X6.8565 Y8.0975
G01 X6.8761 Y8.0956
G01 X6.8859 Y8.0954
G01 X8.3957 Y8.0956
G01 X8.4055 Y8.0963
G01 X8.4249 Y8.0992
G01 X8.4439 Y8.1040
G01 X8.4532 Y8.1071
G01 X8.4624 Y8.1106
G01 X8.4801 Y8.1190
G01 X8.4970 Y8.1291
G01 X8.5127 Y8.1408
G01 X8.5273 Y8.1539
G01 X8.5405 Y8.1685
G01 X8.5465 Y8.1762
G01 X8.5574 Y8.1925
G01 X8.5667 Y8.2098
G01 X8.5742 Y8.2280
G01 X8.5799 Y8.2468
G01 X8.5837 Y8.2660
G01 X8.5856 Y8.2855
G01 X8.5859 Y9.5454
G01 X8.5849 Y9.5650
G01 X8.5820 Y9.5844
G01 X8.5799 Y9.5940
G01 X8.5773 Y9.6034
G01 X8.5706 Y9.6219
G01 X8.5667 Y9.6309
G01 X8.5574 Y9.6482
G01 X8.5465 Y9.6645
G01 X8.5405 Y9.6722
G01 X8.5273 Y9.6868
G01 X8.5127 Y9.7000
G01 X8.5050 Y9.7060
G01 X8.4887 Y9.7169
G01 X8.4714 Y9.7262
G01 X8.4532 Y9.7337
G01 X8.4439 Y9.7367
G01 X8.4249 Y9.7415
G01 X8.4152 Y9.7432
G01 X8.3957 Y9.7451
G01 X8.3859 Y9.7454
G01 X8.0860 Y9.7454
G01 X8.0860 Y15.2266
G01 X8.0854 Y15.2462
G01 X8.0838 Y15.2683
G01 X8.0811 Y15.2902
G01 X8.0782 Y15.3071
G01 X8.0712 Y15.3383
G01 X8.0666 Y15.3548
G01 X8.0597 Y15.3758
G01 X8.0517 Y15.3964
G01 X8.0448 Y15.4121
G01 X8.0305 Y15.4406
G01 X8.0220 Y15.4555
G01 X8.0101 Y15.4742
G01 X7.9974 Y15.4923
G01 X7.9838 Y15.5097
G01 X7.9694 Y15.5264
G01 X7.9542 Y15.5424
G01 X6.6683 Y16.8283
G01 X6.6523 Y16.8435
G01 X6.6356 Y16.8580
G01 X6.6181 Y16.8715
G01 X6.6001 Y16.8843
G01 X6.5772 Y16.8986
G01 X6.5622 Y16.9070
G01 X6.5469 Y16.9148
G01 X6.5223 Y16.9259
G01 X6.4970 Y16.9354
G01 X6.4807 Y16.9407
G01 X6.4641 Y16.9454
G01 X6.4378 Y16.9515
G01 X6.4112 Y16.9559
G01 X6.3941 Y16.9580
G01 X6.3721 Y16.9596
G01 X6.3500 Y16.9601
G01 X5.2100 Y16.9601
G01 X5.2098 Y17.3198
G01 X5.2090 Y17.3296
G01 X5.2062 Y17.3490
G01 X5.2040 Y17.3586
G01 X5.1983 Y17.3774
G01 X5.1908 Y17.3955
G01 X5.1815 Y17.4128
G01 X5.1706 Y17.4291
G01 X5.1646 Y17.4369
G01 X5.1582 Y17.4443
G01 X5.1443 Y17.4582
G01 X5.1369 Y17.4646
G01 X5.1211 Y17.4763
G01 X5.1043 Y17.4864
G01 X5.0955 Y17.4908
G01 X5.0774 Y17.4983
G01 X5.0681 Y17.5014
G01 X5.0490 Y17.5062
G01 X5.0393 Y17.5078
G01 X5.0198 Y17.5098
G01 X5.0100 Y17.5100
G01 X2.6100 Y17.5100
G01 X2.6002 Y17.5098
G01 X2.5807 Y17.5078
G01 X2.5614 Y17.5040
G01 X2.5426 Y17.4983
G01 X2.5245 Y17.4908
G01 X2.5157 Y17.4864
G01 X2.4989 Y17.4763
G01 X2.4831 Y17.4646
G01 X2.4757 Y17.4582
G01 X2.4618 Y17.4443
G01 X2.4494 Y17.4291
G01 X2.4385 Y17.4128
G01 X2.4292 Y17.3955
G01 X2.4217 Y17.3774
G01 X2.4160 Y17.3586
G01 X2.4122 Y17.3393
G01 X2.4102 Y17.3198
G01 X2.4102 Y15.7002
G01 X2.4122 Y15.6807
G01 X2.4160 Y15.6614
G01 X2.4217 Y15.6426
G01 X2.4292 Y15.6245
G01 X2.4385 Y15.6072
G01 X2.4494 Y15.5909
G01 X2.4618 Y15.5757
G01 X2.4686 Y15.5686
G01 X2.4757 Y15.5618
G01 X2.4909 Y15.5494
G01 X2.5072 Y15.5385
G01 X2.5245 Y15.5292
G01 X2.5426 Y15.5217
G01 X2.5614 Y15.5160
G01 X2.5807 Y15.5122
G01 X2.6002 Y15.5102
G00 Z1.9990
G00 X2.6002 Y18.0502
G01 F80.00
G01 Z-0.2500
G01 F80.00
G01 X5.0100 Y18.0500
G01 X5.0198 Y18.0502
G01 X5.0393 Y18.0522
G01 X5.0490 Y18.0538
G01 X5.0681 Y18.0586
G01 X5.0865 Y18.0652
G01 X5.1043 Y18.0736
G01 X5.1211 Y18.0837
G01 X5.1291 Y18.0894
G01 X5.1443 Y18.1018
G01 X5.1582 Y18.1157
G01 X5.1706 Y18.1309
G01 X5.1815 Y18.1472
G01 X5.1864 Y18.1557
G01 X5.1908 Y18.1645
G01 X5.1983 Y18.1826
G01 X5.2040 Y18.2014
G01 X5.2078 Y18.2207
G01 X5.2090 Y18.2304
G01 X5.2100 Y18.2500
G01 X5.2100 Y19.8500
G01 X5.2090 Y19.8696
G01 X5.2062 Y19.8890
G01 X5.2040 Y19.8986
G01 X5.1983 Y19.9174
G01 X5.1908 Y19.9355
G01 X5.1864 Y19.9443
G01 X5.1815 Y19.9528
G01 X5.1706 Y19.9691
G01 X5.1582 Y19.9843
G01 X5.1443 Y19.9982
G01 X5.1369 Y20.0046
G01 X5.1211 Y20.0163
G01 X5.1043 Y20.0264
G01 X5.0955 Y20.0308
G01 X5.0774 Y20.0383
G01 X5.0681 Y20.0414
G01 X5.0490 Y20.0462
G01 X5.0296 Y20.0490
G01 X5.0100 Y20.0500
G01 X2.6100 Y20.0500
G01 X2.6002 Y20.0498
G01 X2.5807 Y20.0478
G01 X2.5710 Y20.0462
G01 X2.5519 Y20.0414
G01 X2.5426 Y20.0383
G01 X2.5245 Y20.0308
G01 X2.5072 Y20.0215
G01 X2.4909 Y20.0106
G01 X2.4757 Y19.9982
G01 X2.4618 Y19.9843
G01 X2.4494 Y19.9691
G01 X2.4385 Y19.9528
G01 X2.4336 Y19.9443
G01 X2.4292 Y19.9355
G01 X2.4217 Y19.9174
G01 X2.4160 Y19.8986
G01 X2.4122 Y19.8793
G01 X2.4102 Y19.8598
G01 X2.4102 Y18.2402
G01 X2.4122 Y18.2207
G01 X2.4160 Y18.2014
G01 X2.4217 Y18.1826
G01 X2.4292 Y18.1645
G01 X2.4385 Y18.1472
G01 X2.4494 Y18.1309
G01 X2.4618 Y18.1157
G01 X2.4686 Y18.1086
G01 X2.4757 Y18.1018
G01 X2.4909 Y18.0894
G01 X2.5072 Y18.0785
G01 X2.5245 Y18.0692
G01 X2.5426 Y18.0617
G01 X2.5614 Y18.0560
G01 X2.5807 Y18.0522
G01 X2.6002 Y18.0502
G00 Z1.9990
G00 X4.4452 Y20.6602
G01 F80.00
G01 Z-0.2500
G01 F80.00
G01 X5.7050 Y20.6600
G01 X5.7148 Y20.6602
G01 X5.7343 Y20.6622
G01 X5.7536 Y20.6660
G01 X5.7724 Y20.6717
G01 X5.7905 Y20.6792
G01 X5.7993 Y20.6836
G01 X5.8161 Y20.6937
G01 X5.8319 Y20.7054
G01 X5.8393 Y20.7118
G01 X5.8532 Y20.7257
G01 X5.8656 Y20.7409
G01 X5.8765 Y20.7572
G01 X5.8814 Y20.7657
G01 X5.8858 Y20.7745
G01 X5.8933 Y20.7926
G01 X5.8990 Y20.8114
G01 X5.9028 Y20.8307
G01 X5.9040 Y20.8404
G01 X5.9050 Y20.8600
G01 X5.9050 Y21.1599
G01 X6.7950 Y21.1599
G01 X6.7950 Y20.8600
G01 X6.7960 Y20.8404
G01 X6.7972 Y20.8307
G01 X6.8010 Y20.8114
G01 X6.8036 Y20.8019
G01 X6.8067 Y20.7926
G01 X6.8142 Y20.7745
G01 X6.8235 Y20.7572
G01 X6.8344 Y20.7409
G01 X6.8404 Y20.7331
G01 X6.8468 Y20.7257
G01 X6.8607 Y20.7118
G01 X6.8681 Y20.7054
G01 X6.8839 Y20.6937
G01 X6.9007 Y20.6836
G01 X6.9095 Y20.6792
G01 X6.9276 Y20.6717
G01 X6.9369 Y20.6686
G01 X6.9560 Y20.6638
G01 X6.9754 Y20.6610
G01 X6.9950 Y20.6600
G01 X8.2450 Y20.6600
G01 X8.2646 Y20.6610
G01 X8.2840 Y20.6638
G01 X8.3031 Y20.6686
G01 X8.3124 Y20.6717
G01 X8.3305 Y20.6792
G01 X8.3393 Y20.6836
G01 X8.3478 Y20.6885
G01 X8.3641 Y20.6994
G01 X8.3719 Y20.7054
G01 X8.3864 Y20.7186
G01 X8.3932 Y20.7257
G01 X8.4056 Y20.7409
G01 X8.4165 Y20.7572
G01 X8.4214 Y20.7657
G01 X8.4298 Y20.7835
G01 X8.4333 Y20.7926
G01 X8.4364 Y20.8019
G01 X8.4412 Y20.8210
G01 X8.4440 Y20.8404
G01 X8.4448 Y20.8502
G01 X8.4450 Y21.1599
G01 X9.3350 Y21.1599
G01 X9.3350 Y20.8600
G01 X9.3360 Y20.8404
G01 X9.3388 Y20.8210
G01 X9.3436 Y20.8019
G01 X9.3467 Y20.7926
G01 X9.3502 Y20.7835
G01 X9.3586 Y20.7657
G01 X9.3635 Y20.7572
G01 X9.3744 Y20.7409
G01 X9.3868 Y20.7257
G01 X9.3936 Y20.7186
G01 X9.4081 Y20.7054
G01 X9.4239 Y20.6937
G01 X9.4322 Y20.6885
G01 X9.4495 Y20.6792
G01 X9.4676 Y20.6717
G01 X9.4864 Y20.6660
G01 X9.5057 Y20.6622
G01 X9.5252 Y20.6602
G01 X9.7099 Y20.6600
G01 X9.7099 Y17.7775
G01 X9.7104 Y17.7579
G01 X9.7120 Y17.7359
G01 X9.7147 Y17.7140
G01 X9.7176 Y17.6970
G01 X9.7246 Y17.6659
G01 X9.7293 Y17.6493
G01 X9.7362 Y17.6284
G01 X9.7441 Y17.6077
G01 X9.7531 Y17.5875
G01 X9.7630 Y17.5678
G01 X9.7765 Y17.5444
G01 X9.7885 Y17.5259
G01 X9.7985 Y17.5119
G01 X9.8090 Y17.4983
G01 X9.8265 Y17.4777
G01 X9.8383 Y17.4652
G01 X11.1117 Y16.1917
G01 X11.1277 Y16.1765
G01 X11.1444 Y16.1620
G01 X11.1580 Y16.1514
G01 X11.1840 Y16.1331
G01 X11.1986 Y16.1239
G01 X11.2178 Y16.1130
G01 X11.2375 Y16.1031
G01 X11.2532 Y16.0961
G01 X11.2830 Y16.0846
G01 X11.2993 Y16.0793
G01 X11.3206 Y16.0734
G01 X11.3422 Y16.0685
G01 X11.3591 Y16.0655
G01 X11.3908 Y16.0616
G01 X11.4079 Y16.0604
G01 X11.4300 Y16.0599
G01 X12.5700 Y16.0599
G01 X12.5700 Y15.7100
G01 X12.5702 Y15.7002
G01 X12.5722 Y15.6807
G01 X12.5738 Y15.6710
G01 X12.5786 Y15.6519
G01 X12.5817 Y15.6426
G01 X12.5892 Y15.6245
G01 X12.5985 Y15.6072
G01 X12.6037 Y15.5989
G01 X12.6094 Y15.5909
G01 X12.6218 Y15.5757
G01 X12.6286 Y15.5686
G01 X12.6431 Y15.5554
G01 X12.6509 Y15.5494
G01 X12.6672 Y15.5385
G01 X12.6845 Y15.5292
G01 X12.7026 Y15.5217
G01 X12.7119 Y15.5186
G01 X12.7310 Y15.5138
G01 X12.7407 Y15.5122
G01 X12.7602 Y15.5102
G01 X12.7700 Y15.5100
G01 X15.1798 Y15.5102
G01 X15.1896 Y15.5110
G01 X15.2090 Y15.5138
G01 X15.2281 Y15.5186
G01 X15.2374 Y15.5217
G01 X15.2555 Y15.5292
G01 X15.2643 Y15.5336
G01 X15.2811 Y15.5437
G01 X15.2891 Y15.5494
G01 X15.3043 Y15.5618
G01 X15.3114 Y15.5686
G01 X15.3246 Y15.5831
G01 X15.3306 Y15.5909
G01 X15.3415 Y15.6072
G01 X15.3508 Y15.6245
G01 X15.3583 Y15.6426
G01 X15.3614 Y15.6519
G01 X15.3662 Y15.6710
G01 X15.3690 Y15.6904
G01 X15.3700 Y15.7100
G01 X15.3698 Y17.3198
G01 X15.3678 Y17.3393
G01 X15.3662 Y17.3490
G01 X15.3614 Y17.3681
G01 X15.3583 Y17.3774
G01 X15.3548 Y17.3865
G01 X15.3464 Y17.4043
G01 X15.3363 Y17.4211
G01 X15.3306 Y17.4291
G01 X15.3182 Y17.4443
G01 X15.3114 Y17.4514
G01 X15.2969 Y17.4646
G01 X15.2891 Y17.4706
G01 X15.2728 Y17.4815
G01 X15.2555 Y17.4908
G01 X15.2374 Y17.4983
G01 X15.2281 Y17.5014
G01 X15.2090 Y17.5062
G01 X15.1896 Y17.5090
G01 X15.1700 Y17.5100
G01 X12.7700 Y17.5100
G01 X12.7602 Y17.5098
G01 X12.7407 Y17.5078
G01 X12.7310 Y17.5062
G01 X12.7119 Y17.5014
G01 X12.7026 Y17.4983
G01 X12.6845 Y17.4908
G01 X12.6672 Y17.4815
G01 X12.6509 Y17.4706
G01 X12.6431 Y17.4646
G01 X12.6286 Y17.4514
G01 X12.6218 Y17.4443
G01 X12.6094 Y17.4291
G01 X12.6037 Y17.4211
G01 X12.5985 Y17.4128
G01 X12.5892 Y17.3955
G01 X12.5852 Y17.3865
G01 X12.5786 Y17.3681
G01 X12.5738 Y17.3490
G01 X12.5722 Y17.3393
G01 X12.5710 Y17.3296
G01 X12.5700 Y17.3100
G01 X12.5700 Y16.9601
G01 X11.6164 Y16.9601
G01 X10.6101 Y17.9664
G01 X10.6101 Y20.6600
G01 X10.7850 Y20.6600
G01 X10.8046 Y20.6610
G01 X10.8240 Y20.6638
G01 X10.8431 Y20.6686
G01 X10.8615 Y20.6752
G01 X10.8793 Y20.6836
G01 X10.8878 Y20.6885
G01 X10.9041 Y20.6994
G01 X10.9119 Y20.7054
G01 X10.9264 Y20.7186
G01 X10.9332 Y20.7257
G01 X10.9456 Y20.7409
G01 X10.9565 Y20.7572
G01 X10.9614 Y20.7657
G01 X10.9698 Y20.7835
G01 X10.9764 Y20.8019
G01 X10.9812 Y20.8210
G01 X10.9828 Y20.8307
G01 X10.9848 Y20.8502
G01 X10.9848 Y22.3698
G01 X10.9828 Y22.3893
G01 X10.9812 Y22.3990
G01 X10.9764 Y22.4181
G01 X10.9733 Y22.4274
G01 X10.9698 Y22.4365
G01 X10.9614 Y22.4543
G01 X10.9513 Y22.4711
G01 X10.9456 Y22.4791
G01 X10.9332 Y22.4943
G01 X10.9264 Y22.5014
G01 X10.9119 Y22.5146
G01 X10.8961 Y22.5263
G01 X10.8878 Y22.5315
G01 X10.8705 Y22.5408
G01 X10.8524 Y22.5483
G01 X10.8431 Y22.5514
G01 X10.8240 Y22.5562
G01 X10.8046 Y22.5590
G01 X10.7850 Y22.5600
G01 X9.5350 Y22.5600
G01 X9.5154 Y22.5590
G01 X9.4960 Y22.5562
G01 X9.4769 Y22.5514
G01 X9.4676 Y22.5483
G01 X9.4495 Y22.5408
G01 X9.4322 Y22.5315
G01 X9.4239 Y22.5263
G01 X9.4081 Y22.5146
G01 X9.4007 Y22.5082
G01 X9.3868 Y22.4943
G01 X9.3804 Y22.4869
G01 X9.3744 Y22.4791
G01 X9.3635 Y22.4628
G01 X9.3586 Y22.4543
G01 X9.3502 Y22.4365
G01 X9.3436 Y22.4181
G01 X9.3388 Y22.3990
G01 X9.3372 Y22.3893
G01 X9.3360 Y22.3796
G01 X9.3350 Y22.3600
G01 X9.3350 Y22.0601
G01 X8.4450 Y22.0601
G01 X8.4450 Y22.3600
G01 X8.4440 Y22.3796
G01 X8.4428 Y22.3893
G01 X8.4390 Y22.4086
G01 X8.4333 Y22.4274
G01 X8.4298 Y22.4365
G01 X8.4214 Y22.4543
G01 X8.4165 Y22.4628
G01 X8.4056 Y22.4791
G01 X8.3932 Y22.4943
G01 X8.3864 Y22.5014
G01 X8.3719 Y22.5146
G01 X8.3561 Y22.5263
G01 X8.3478 Y22.5315
G01 X8.3305 Y22.5408
G01 X8.3124 Y22.5483
G01 X8.2936 Y22.5540
G01 X8.2743 Y22.5578
G01 X8.2548 Y22.5598
G01 X8.2450 Y22.5600
G01 X6.9950 Y22.5600
G01 X6.9754 Y22.5590
G01 X6.9560 Y22.5562
G01 X6.9464 Y22.5540
G01 X6.9276 Y22.5483
G01 X6.9185 Y22.5448
G01 X6.9007 Y22.5364
G01 X6.8922 Y22.5315
G01 X6.8839 Y22.5263
G01 X6.8681 Y22.5146
G01 X6.8607 Y22.5082
G01 X6.8468 Y22.4943
G01 X6.8344 Y22.4791
G01 X6.8235 Y22.4628
G01 X6.8186 Y22.4543
G01 X6.8142 Y22.4455
G01 X6.8067 Y22.4274
G01 X6.8010 Y22.4086
G01 X6.7988 Y22.3990
G01 X6.7960 Y22.3796
G01 X6.7952 Y22.3698
G01 X6.7950 Y22.0601
G01 X5.9050 Y22.0601
G01 X5.9050 Y22.3600
G01 X5.9040 Y22.3796
G01 X5.9028 Y22.3893
G01 X5.8990 Y22.4086
G01 X5.8964 Y22.4181
G01 X5.8933 Y22.4274
G01 X5.8858 Y22.4455
G01 X5.8765 Y22.4628
G01 X5.8656 Y22.4791
G01 X5.8596 Y22.4869
G01 X5.8464 Y22.5014
G01 X5.8319 Y22.5146
G01 X5.8161 Y22.5263
G01 X5.8078 Y22.5315
G01 X5.7905 Y22.5408
G01 X5.7724 Y22.5483
G01 X5.7631 Y22.5514
G01 X5.7440 Y22.5562
G01 X5.7343 Y22.5578
G01 X5.7148 Y22.5598
G01 X5.7050 Y22.5600
G01 X4.4550 Y22.5600
G01 X4.4452 Y22.5598
G01 X4.4257 Y22.5578
G01 X4.4160 Y22.5562
G01 X4.3969 Y22.5514
G01 X4.3876 Y22.5483
G01 X4.3695 Y22.5408
G01 X4.3607 Y22.5364
G01 X4.3439 Y22.5263
G01 X4.3281 Y22.5146
G01 X4.3207 Y22.5082
G01 X4.3068 Y22.4943
G01 X4.3004 Y22.4869
G01 X4.2944 Y22.4791
G01 X4.2835 Y22.4628
G01 X4.2742 Y22.4455
G01 X4.2702 Y22.4365
G01 X4.2667 Y22.4274
G01 X4.2610 Y22.4086
G01 X4.2588 Y22.3990
G01 X4.2560 Y22.3796
G01 X4.2550 Y22.3600
G01 X4.2552 Y20.8502
G01 X4.2572 Y20.8307
G01 X4.2610 Y20.8114
G01 X4.2667 Y20.7926
G01 X4.2742 Y20.7745
G01 X4.2835 Y20.7572
G01 X4.2944 Y20.7409
G01 X4.3068 Y20.7257
G01 X4.3136 Y20.7186
G01 X4.3207 Y20.7118
G01 X4.3359 Y20.6994
G01 X4.3522 Y20.6885
G01 X4.3695 Y20.6792
G01 X4.3876 Y20.6717
G01 X4.4064 Y20.6660
G01 X4.4257 Y20.6622
G01 X4.4452 Y20.6602
G00 Z1.9990
G00 X0.8199 Y24.1300
G01 F80.00
G01 Z-0.2500
G01 F80.00
G01 X0.8199 Y10.1600
G01 X0.8204 Y10.1379
G01 X0.8226 Y10.1110
G01 X0.8247 Y10.0940
G01 X0.8276 Y10.0770
G01 X0.8334 Y10.0506
G01 X0.8393 Y10.0293
G01 X0.8446 Y10.0130
G01 X0.8541 Y9.9877
G01 X0.8631 Y9.9675
G01 X0.8708 Y9.9522
G01 X0.8839 Y9.9286
G01 X0.8957 Y9.9099
G01 X0.9056 Y9.8958
G01 X0.9220 Y9.8744
G01 X0.9365 Y9.8577
G01 X0.9517 Y9.8417
G01 X1.5509 Y9.2425
G01 X1.5338 Y9.1901
G01 X1.5215 Y9.1451
G01 X1.5112 Y9.0996
G01 X1.5014 Y9.0441
G01 X1.4946 Y8.9880
G01 X1.4913 Y8.9415
G01 X1.4901 Y8.8949
G01 X1.4913 Y8.8385
G01 X1.4956 Y8.7822
G01 X1.5014 Y8.7359
G01 X1.5093 Y8.6900
G01 X1.5215 Y8.6349
G01 X1.5367 Y8.5805
G01 X1.5514 Y8.5363
G01 X1.5681 Y8.4927
G01 X1.5908 Y8.4411
G01 X1.6163 Y8.3907
G01 X1.6394 Y8.3502
G01 X1.6643 Y8.3108
G01 X1.6966 Y8.2645
G01 X1.7283 Y8.2239
G01 X1.7653 Y8.1813
G01 X1.7975 Y8.1475
G01 X1.8313 Y8.1153
G01 X1.8739 Y8.0783
G01 X1.9145 Y8.0466
G01 X1.9567 Y8.0170
G01 X2.0044 Y7.9869
G01 X2.0450 Y7.9640
G01 X2.0867 Y7.9430
G01 X2.1382 Y7.9199
G01 X2.1863 Y7.9014
G01 X2.2399 Y7.8838
G01 X2.2849 Y7.8715
G01 X2.3304 Y7.8612
G01 X2.3859 Y7.8514
G01 X2.4420 Y7.8446
G01 X2.4885 Y7.8413
G01 X2.5351 Y7.8401
G01 X2.5915 Y7.8413
G01 X2.6478 Y7.8456
G01 X2.6941 Y7.8514
G01 X2.7496 Y7.8612
G01 X2.7999 Y7.8727
G01 X2.8448 Y7.8852
G01 X2.8891 Y7.8998
G01 X2.9418 Y7.9199
G01 X2.9889 Y7.9408
G01 X3.0350 Y7.9640
G01 X3.0756 Y7.9869
G01 X3.1233 Y8.0170
G01 X3.1655 Y8.0466
G01 X3.2061 Y8.0783
G01 X3.2451 Y8.1120
G01 X3.2825 Y8.1475
G01 X3.3180 Y8.1849
G01 X3.3517 Y8.2239
G01 X3.3804 Y8.2606
G01 X3.4130 Y8.3067
G01 X3.4406 Y8.3502
G01 X3.4660 Y8.3950
G01 X3.4892 Y8.4411
G01 X3.5101 Y8.4882
G01 X3.5286 Y8.5363
G01 X3.5448 Y8.5852
G01 X3.5585 Y8.6349
G01 X3.5698 Y8.6852
G01 X3.5786 Y8.7359
G01 X3.5849 Y8.7871
G01 X3.5887 Y8.8385
G01 X3.5900 Y8.8925
G01 X3.5887 Y8.9415
G01 X3.5849 Y8.9929
G01 X3.5786 Y9.0441
G01 X3.5698 Y9.0948
G01 X3.5585 Y9.1451
G01 X3.5448 Y9.1948
G01 X3.5286 Y9.2437
G01 X3.5101 Y9.2918
G01 X3.4892 Y9.3389
G01 X3.4660 Y9.3850
G01 X3.4380 Y9.4340
G01 X3.4130 Y9.4733
G01 X3.3804 Y9.5194
G01 X3.3485 Y9.5599
G01 X3.3180 Y9.5951
G01 X3.2859 Y9.6289
G01 X3.2451 Y9.6680
G01 X3.2061 Y9.7017
G01 X3.1655 Y9.7334
G01 X3.1274 Y9.7603
G01 X3.0798 Y9.7906
G01 X3.0306 Y9.8183
G01 X2.9889 Y9.8392
G01 X2.9463 Y9.8581
G01 X2.8983 Y9.8769
G01 X2.8448 Y9.8948
G01 X2.7951 Y9.9085
G01 X2.7448 Y9.9198
G01 X2.6892 Y9.9293
G01 X2.6380 Y9.9354
G01 X2.5915 Y9.9387
G01 X2.5449 Y9.9399
G01 X2.4885 Y9.9387
G01 X2.4371 Y9.9349
G01 X2.3859 Y9.9286
G01 X2.3304 Y9.9188
G01 X2.2849 Y9.9085
G01 X2.2399 Y9.8962
G01 X2.1875 Y9.8791
G01 X1.7201 Y10.3464
G01 X1.7201 Y14.1533
G01 X2.2217 Y13.6517
G01 X2.2377 Y13.6365
G01 X2.2544 Y13.6220
G01 X2.2758 Y13.6056
G01 X2.2899 Y13.5957
G01 X2.3044 Y13.5865
G01 X2.3235 Y13.5754
G01 X2.3475 Y13.5631
G01 X2.3677 Y13.5541
G01 X2.3884 Y13.5462
G01 X2.4100 Y13.5391
G01 X2.4100 Y13.1700
G01 X2.4110 Y13.1504
G01 X2.4122 Y13.1407
G01 X2.4160 Y13.1214
G01 X2.4217 Y13.1026
G01 X2.4292 Y13.0845
G01 X2.4336 Y13.0757
G01 X2.4385 Y13.0672
G01 X2.4494 Y13.0509
G01 X2.4618 Y13.0357
G01 X2.4757 Y13.0218
G01 X2.4909 Y13.0094
G01 X2.4989 Y13.0037
G01 X2.5157 Y12.9936
G01 X2.5245 Y12.9892
G01 X2.5426 Y12.9817
G01 X2.5614 Y12.9760
G01 X2.5807 Y12.9722
G01 X2.6002 Y12.9702
G01 X2.6100 Y12.9700
G01 X5.0100 Y12.9700
G01 X5.0296 Y12.9710
G01 X5.0490 Y12.9738
G01 X5.0586 Y12.9760
G01 X5.0774 Y12.9817
G01 X5.0865 Y12.9852
G01 X5.1043 Y12.9936
G01 X5.1211 Y13.0037
G01 X5.1369 Y13.0154
G01 X5.1514 Y13.0286
G01 X5.1582 Y13.0357
G01 X5.1706 Y13.0509
G01 X5.1763 Y13.0589
G01 X5.1815 Y13.0672
G01 X5.1908 Y13.0845
G01 X5.1983 Y13.1026
G01 X5.2040 Y13.1214
G01 X5.2078 Y13.1407
G01 X5.2090 Y13.1504
G01 X5.2100 Y13.1700
G01 X5.2098 Y14.7798
G01 X5.2078 Y14.7993
G01 X5.2040 Y14.8186
G01 X5.1983 Y14.8374
G01 X5.1908 Y14.8555
G01 X5.1815 Y14.8728
G01 X5.1706 Y14.8891
G01 X5.1582 Y14.9043
G01 X5.1514 Y14.9114
G01 X5.1369 Y14.9246
G01 X5.1211 Y14.9363
G01 X5.1043 Y14.9464
G01 X5.0865 Y14.9548
G01 X5.0681 Y14.9614
G01 X5.0490 Y14.9662
G01 X5.0296 Y14.9690
G01 X5.0198 Y14.9698
G01 X2.6100 Y14.9700
G01 X2.5904 Y14.9690
G01 X2.5710 Y14.9662
G01 X2.5614 Y14.9640
G01 X2.5426 Y14.9583
G01 X2.5245 Y14.9508
G01 X2.5072 Y14.9415
G01 X2.4909 Y14.9306
G01 X2.4757 Y14.9182
G01 X2.4618 Y14.9043
G01 X2.4554 Y14.8969
G01 X2.4437 Y14.8811
G01 X2.4336 Y14.8643
G01 X2.4252 Y14.8465
G01 X2.4186 Y14.8281
G01 X2.4138 Y14.8090
G01 X2.4110 Y14.7896
G01 X2.4100 Y14.7700
G01 X2.4100 Y14.7366
G01 X1.7201 Y15.4264
G01 X1.7201 Y23.9436
G01 X2.7264 Y24.9499
G01 X4.2764 Y24.9499
G01 X4.2702 Y24.9365
G01 X4.2667 Y24.9274
G01 X4.2610 Y24.9086
G01 X4.2572 Y24.8893
G01 X4.2560 Y24.8796
G01 X4.2550 Y24.8600
G01 X4.2550 Y23.3600
G01 X4.2560 Y23.3404
G01 X4.2588 Y23.3210
G01 X4.2610 Y23.3114
G01 X4.2667 Y23.2926
G01 X4.2742 Y23.2745
G01 X4.2835 Y23.2572
G01 X4.2944 Y23.2409
G01 X4.3004 Y23.2331
G01 X4.3136 Y23.2186
G01 X4.3281 Y23.2054
G01 X4.3439 Y23.1937
G01 X4.3607 Y23.1836
G01 X4.3695 Y23.1792
G01 X4.3876 Y23.1717
G01 X4.4064 Y23.1660
G01 X4.4257 Y23.1622
G01 X4.4452 Y23.1602
G01 X5.7050 Y23.1600
G01 X5.7246 Y23.1610
G01 X5.7440 Y23.1638
G01 X5.7536 Y23.1660
G01 X5.7724 Y23.1717
G01 X5.7815 Y23.1752
G01 X5.7993 Y23.1836
G01 X5.8078 Y23.1885
G01 X5.8161 Y23.1937
G01 X5.8319 Y23.2054
G01 X5.8393 Y23.2118
G01 X5.8532 Y23.2257
G01 X5.8656 Y23.2409
G01 X5.8713 Y23.2489
G01 X5.8765 Y23.2572
G01 X5.8858 Y23.2745
G01 X5.8933 Y23.2926
G01 X5.8990 Y23.3114
G01 X5.9012 Y23.3210
G01 X5.9040 Y23.3404
G01 X5.9050 Y23.3600
G01 X5.9050 Y24.8600
G01 X5.9040 Y24.8796
G01 X5.9028 Y24.8893
G01 X5.8990 Y24.9086
G01 X5.8933 Y24.9274
G01 X5.8898 Y24.9365
G01 X5.8858 Y24.9455
G01 X5.8765 Y24.9628
G01 X5.8656 Y24.9791
G01 X5.8532 Y24.9943
G01 X5.8393 Y25.0082
G01 X5.8319 Y25.0146
G01 X5.8161 Y25.0263
G01 X5.7993 Y25.0364
G01 X5.7905 Y25.0408
G01 X5.7724 Y25.0483
G01 X5.7536 Y25.0540
G01 X5.7343 Y25.0578
G01 X5.7148 Y25.0598
G01 X5.5301 Y25.0600
G01 X5.5301 Y25.4000
G01 X5.5293 Y25.4270
G01 X5.5280 Y25.4441
G01 X5.5253 Y25.4660
G01 X5.5215 Y25.4878
G01 X5.5178 Y25.5046
G01 X5.5093 Y25.5353
G01 X5.5038 Y25.5516
G01 X5.4959 Y25.5723
G01 X5.4869 Y25.5925
G01 X5.4746 Y25.6165
G01 X5.4635 Y25.6356
G01 X5.4543 Y25.6501
G01 X5.4444 Y25.6642
G01 X5.4280 Y25.6856
G01 X5.4135 Y25.7023
G01 X5.3983 Y25.7183
G01 X5.3823 Y25.7335
G01 X5.3656 Y25.7480
G01 X5.3442 Y25.7644
G01 X5.3301 Y25.7743
G01 X5.3172 Y25.7825
G01 X5.2965 Y25.7946
G01 X5.2725 Y25.8069
G01 X5.2523 Y25.8159
G01 X5.2316 Y25.8238
G01 X5.2060 Y25.8321
G01 X5.1894 Y25.8366
G01 X5.1726 Y25.8405
G01 X5.1460 Y25.8453
G01 X5.1241 Y25.8480
G01 X5.1070 Y25.8493
G01 X5.0800 Y25.8501
G01 X2.5400 Y25.8501
G01 X2.5130 Y25.8493
G01 X2.4959 Y25.8480
G01 X2.4740 Y25.8453
G01 X2.4474 Y25.8405
G01 X2.4306 Y25.8366
G01 X2.4093 Y25.8307
G01 X2.3838 Y25.8221
G01 X2.3677 Y25.8159
G01 X2.3475 Y25.8069
G01 X2.3278 Y25.7970
G01 X2.3128 Y25.7886
G01 X2.2899 Y25.7743
G01 X2.2719 Y25.7615
G01 X2.2583 Y25.7510
G01 X2.2377 Y25.7335
G01 X2.2217 Y25.7183
G01 X0.9500 Y24.4465
G01 X0.9365 Y24.4323
G01 X0.9220 Y24.4156
G01 X0.9085 Y24.3981
G01 X0.8957 Y24.3801
G01 X0.8839 Y24.3614
G01 X0.8730 Y24.3422
G01 X0.8631 Y24.3225
G01 X0.8541 Y24.3023
G01 X0.8462 Y24.2816
G01 X0.8393 Y24.2607
G01 X0.8334 Y24.2394
G01 X0.8285 Y24.2178
G01 X0.8247 Y24.1960
G01 X0.8220 Y24.1741
G01 X0.8204 Y24.1521
G01 X0.8199 Y24.1300
G00 Z1.9990
G00 X9.5252 Y23.1602
G01 F80.00
G01 Z-0.2500
G01 F80.00
G01 X10.7850 Y23.1600
G01 X10.7948 Y23.1602
G01 X10.8143 Y23.1622
G01 X10.8240 Y23.1638
G01 X10.8431 Y23.1686
G01 X10.8524 Y23.1717
G01 X10.8705 Y23.1792
G01 X10.8878 Y23.1885
G01 X10.9041 Y23.1994
G01 X10.9119 Y23.2054
G01 X10.9264 Y23.2186
G01 X10.9332 Y23.2257
G01 X10.9456 Y23.2409
G01 X10.9565 Y23.2572
G01 X10.9614 Y23.2657
G01 X10.9698 Y23.2835
G01 X10.9764 Y23.3019
G01 X10.9812 Y23.3210
G01 X10.9828 Y23.3307
G01 X10.9840 Y23.3404
G01 X10.9850 Y23.3600
G01 X10.9850 Y23.6599
G01 X11.2236 Y23.6599
G01 X12.3417 Y22.5417
G01 X12.3577 Y22.5265
G01 X12.3744 Y22.5120
G01 X12.3919 Y22.4985
G01 X12.4059 Y22.4885
G01 X12.4286 Y22.4739
G01 X12.4522 Y22.4608
G01 X12.4675 Y22.4531
G01 X12.4832 Y22.4461
G01 X12.5038 Y22.4379
G01 X12.5293 Y22.4293
G01 X12.5506 Y22.4234
G01 X12.5722 Y22.4185
G01 X12.5988 Y22.4141
G01 X12.6159 Y22.4120
G01 X12.6330 Y22.4107
G01 X12.6575 Y22.4099
G01 X13.0214 Y22.4099
G01 X13.0440 Y22.3650
G01 X13.0669 Y22.3244
G01 X13.0970 Y22.2767
G01 X13.1296 Y22.2306
G01 X13.1583 Y22.1939
G01 X13.1887 Y22.1585
G01 X13.2275 Y22.1175
G01 X13.2685 Y22.0787
G01 X13.3039 Y22.0483
G01 X13.3406 Y22.0196
G01 X13.3867 Y21.9870
G01 X13.4344 Y21.9569
G01 X13.4750 Y21.9340
G01 X13.5167 Y21.9130
G01 X13.5682 Y21.8899
G01 X13.6209 Y21.8698
G01 X13.6652 Y21.8552
G01 X13.7101 Y21.8427
G01 X13.7652 Y21.8302
G01 X13.8208 Y21.8207
G01 X13.8671 Y21.8151
G01 X13.9136 Y21.8116
G01 X13.9700 Y21.8100
G01 X14.0215 Y21.8113
G01 X14.0729 Y21.8151
G01 X14.1241 Y21.8214
G01 X14.1748 Y21.8302
G01 X14.2251 Y21.8415
G01 X14.2748 Y21.8552
G01 X14.3237 Y21.8714
G01 X14.3718 Y21.8899
G01 X14.4189 Y21.9108
G01 X14.4650 Y21.9340
G01 X14.5098 Y21.9594
G01 X14.5533 Y21.9870
G01 X14.5955 Y22.0166
G01 X14.6361 Y22.0483
G01 X14.6751 Y22.0820
G01 X14.7125 Y22.1175
G01 X14.7480 Y22.1549
G01 X14.7817 Y22.1939
G01 X14.8134 Y22.2345
G01 X14.8430 Y22.2767
G01 X14.8706 Y22.3202
G01 X14.8960 Y22.3650
G01 X14.9192 Y22.4111
G01 X14.9401 Y22.4582
G01 X14.9586 Y22.5063
G01 X14.9748 Y22.5552
G01 X14.9885 Y22.6049
G01 X14.9998 Y22.6552
G01 X15.0086 Y22.7059
G01 X15.0149 Y22.7571
G01 X15.0184 Y22.8036
G01 X15.0200 Y22.8625
G01 X15.0184 Y22.9164
G01 X15.0149 Y22.9629
G01 X15.0093 Y23.0092
G01 X14.9988 Y23.0696
G01 X14.9885 Y23.1151
G01 X14.9762 Y23.1601
G01 X14.9586 Y23.2137
G01 X14.9401 Y23.2618
G01 X14.9212 Y23.3045
G01 X14.8937 Y23.3593
G01 X14.8706 Y23.3998
G01 X14.8457 Y23.4392
G01 X14.8134 Y23.4855
G01 X14.7785 Y23.5299
G01 X14.7480 Y23.5651
G01 X14.7125 Y23.6025
G01 X14.6715 Y23.6413
G01 X14.6361 Y23.6717
G01 X14.5955 Y23.7034
G01 X14.5492 Y23.7357
G01 X14.5098 Y23.7606
G01 X14.4650 Y23.7860
G01 X14.4189 Y23.8092
G01 X14.3718 Y23.8301
G01 X14.3237 Y23.8486
G01 X14.2748 Y23.8648
G01 X14.2251 Y23.8785
G01 X14.1748 Y23.8898
G01 X14.1241 Y23.8986
G01 X14.0729 Y23.9049
G01 X14.0215 Y23.9087
G01 X13.9700 Y23.9100
G01 X13.9185 Y23.9087
G01 X13.8671 Y23.9049
G01 X13.8159 Y23.8986
G01 X13.7652 Y23.8898
G01 X13.7149 Y23.8785
G01 X13.6652 Y23.8648
G01 X13.6163 Y23.8486
G01 X13.5682 Y23.8301
G01 X13.5211 Y23.8092
G01 X13.4750 Y23.7860
G01 X13.4302 Y23.7606
G01 X13.3867 Y23.7330
G01 X13.3445 Y23.7034
G01 X13.3001 Y23.6685
G01 X13.2649 Y23.6380
G01 X13.2311 Y23.6059
G01 X13.1953 Y23.5687
G01 X13.1583 Y23.5261
G01 X13.1296 Y23.4894
G01 X13.0970 Y23.4433
G01 X13.0694 Y23.3998
G01 X13.0440 Y23.3550
G01 X13.0214 Y23.3101
G01 X12.8464 Y23.3101
G01 X11.7283 Y24.4283
G01 X11.7123 Y24.4435
G01 X11.6956 Y24.4580
G01 X11.6781 Y24.4715
G01 X11.6601 Y24.4843
G01 X11.6372 Y24.4986
G01 X11.6222 Y24.5070
G01 X11.6069 Y24.5148
G01 X11.5823 Y24.5259
G01 X11.5616 Y24.5338
G01 X11.5407 Y24.5407
G01 X11.5146 Y24.5478
G01 X11.4978 Y24.5515
G01 X11.4809 Y24.5545
G01 X11.4590 Y24.5574
G01 X11.4321 Y24.5596
G01 X11.4100 Y24.5601
G01 X10.9850 Y24.5601
G01 X10.9848 Y24.8698
G01 X10.9828 Y24.8893
G01 X10.9812 Y24.8990
G01 X10.9764 Y24.9181
G01 X10.9733 Y24.9274
G01 X10.9698 Y24.9365
G01 X10.9614 Y24.9543
G01 X10.9565 Y24.9628
G01 X10.9456 Y24.9791
G01 X10.9332 Y24.9943
G01 X10.9264 Y25.0014
G01 X10.9119 Y25.0146
G01 X10.9041 Y25.0206
G01 X10.8961 Y25.0263
G01 X10.8793 Y25.0364
G01 X10.8705 Y25.0408
G01 X10.8524 Y25.0483
G01 X10.8431 Y25.0514
G01 X10.8240 Y25.0562
G01 X10.8046 Y25.0590
G01 X10.7948 Y25.0598
G01 X9.5252 Y25.0598
G01 X9.5154 Y25.0590
G01 X9.4960 Y25.0562
G01 X9.4769 Y25.0514
G01 X9.4676 Y25.0483
G01 X9.4495 Y25.0408
G01 X9.4322 Y25.0315
G01 X9.4239 Y25.0263
G01 X9.4081 Y25.0146
G01 X9.3936 Y25.0014
G01 X9.3804 Y24.9869
G01 X9.3687 Y24.9711
G01 X9.3635 Y24.9628
G01 X9.3542 Y24.9455
G01 X9.3502 Y24.9365
G01 X9.3436 Y24.9181
G01 X9.3388 Y24.8990
G01 X9.3372 Y24.8893
G01 X9.3360 Y24.8796
G01 X9.3350 Y24.8600
G01 X9.3350 Y23.3600
G01 X9.3360 Y23.3404
G01 X9.3388 Y23.3210
G01 X9.3436 Y23.3019
G01 X9.3502 Y23.2835
G01 X9.3542 Y23.2745
G01 X9.3635 Y23.2572
G01 X9.3744 Y23.2409
G01 X9.3868 Y23.2257
G01 X9.3936 Y23.2186
G01 X9.4081 Y23.2054
G01 X9.4239 Y23.1937
G01 X9.4322 Y23.1885
G01 X9.4495 Y23.1792
G01 X9.4676 Y23.1717
G01 X9.4864 Y23.1660
G01 X9.5057 Y23.1622
G01 X9.5252 Y23.1602
G00 Z1.9990
G00 X12.7602 Y10.4302
G01 F80.00
G01 Z-0.2500
G01 F80.00
G01 X15.1700 Y10.4300
G01 X15.1798 Y10.4302
G01 X15.1993 Y10.4322
G01 X15.2090 Y10.4338
G01 X15.2281 Y10.4386
G01 X15.2465 Y10.4452
G01 X15.2643 Y10.4536
G01 X15.2728 Y10.4585
G01 X15.2891 Y10.4694
G01 X15.2969 Y10.4754
G01 X15.3114 Y10.4886
G01 X15.3246 Y10.5031
G01 X15.3306 Y10.5109
G01 X15.3415 Y10.5272
G01 X15.3508 Y10.5445
G01 X15.3583 Y10.5626
G01 X15.3614 Y10.5719
G01 X15.3662 Y10.5910
G01 X15.3690 Y10.6104
G01 X15.3700 Y10.6300
G01 X15.3700 Y12.2300
G01 X15.3698 Y12.2398
G01 X15.3678 Y12.2593
G01 X15.3662 Y12.2690
G01 X15.3614 Y12.2881
G01 X15.3548 Y12.3065
G01 X15.3464 Y12.3243
G01 X15.3415 Y12.3328
G01 X15.3306 Y12.3491
G01 X15.3246 Y12.3569
G01 X15.3114 Y12.3714
G01 X15.2969 Y12.3846
G01 X15.2891 Y12.3906
G01 X15.2728 Y12.4015
G01 X15.2555 Y12.4108
G01 X15.2374 Y12.4183
G01 X15.2281 Y12.4214
G01 X15.2090 Y12.4262
G01 X15.1896 Y12.4290
G01 X15.1700 Y12.4300
G01 X12.7700 Y12.4300
G01 X12.7602 Y12.4298
G01 X12.7407 Y12.4278
G01 X12.7310 Y12.4262
G01 X12.7119 Y12.4214
G01 X12.6935 Y12.4148
G01 X12.6757 Y12.4064
G01 X12.6672 Y12.4015
G01 X12.6509 Y12.3906
G01 X12.6431 Y12.3846
G01 X12.6286 Y12.3714
G01 X12.6154 Y12.3569
G01 X12.6037 Y12.3411
G01 X12.5936 Y12.3243
G01 X12.5892 Y12.3155
G01 X12.5817 Y12.2974
G01 X12.5760 Y12.2786
G01 X12.5722 Y12.2593
G01 X12.5702 Y12.2398
G01 X12.5702 Y10.6202
G01 X12.5722 Y10.6007
G01 X12.5760 Y10.5814
G01 X12.5817 Y10.5626
G01 X12.5892 Y10.5445
G01 X12.5985 Y10.5272
G01 X12.6037 Y10.5189
G01 X12.6154 Y10.5031
G01 X12.6286 Y10.4886
G01 X12.6431 Y10.4754
G01 X12.6589 Y10.4637
G01 X12.6672 Y10.4585
G01 X12.6845 Y10.4492
G01 X12.7026 Y10.4417
G01 X12.7214 Y10.4360
G01 X12.7407 Y10.4322
G01 X12.7602 Y10.4302
G00 Z1.9990
G00 X9.3761 Y5.5556
G01 F80.00
G01 Z-0.2500
G01 F80.00
G01 X10.8859 Y5.5554
G01 X10.9055 Y5.5563
G01 X10.9152 Y5.5575
G01 X10.9345 Y5.5614
G01 X10.9532 Y5.5671
G01 X10.9714 Y5.5746
G01 X10.9887 Y5.5838
G01 X10.9970 Y5.5891
G01 X11.0050 Y5.5947
G01 X11.0202 Y5.6072
G01 X11.0273 Y5.6139
G01 X11.0405 Y5.6285
G01 X11.0522 Y5.6442
G01 X11.0622 Y5.6611
G01 X11.0706 Y5.6788
G01 X11.0742 Y5.6880
G01 X11.0799 Y5.7068
G01 X11.0820 Y5.7163
G01 X11.0849 Y5.7358
G01 X11.0859 Y5.7554
G01 X11.0859 Y7.0054
G01 X11.0856 Y7.0152
G01 X11.0837 Y7.0347
G01 X11.0799 Y7.0540
G01 X11.0742 Y7.0727
G01 X11.0706 Y7.0819
G01 X11.0622 Y7.0996
G01 X11.0522 Y7.1165
G01 X11.0405 Y7.1322
G01 X11.0341 Y7.1397
G01 X11.0202 Y7.1535
G01 X11.0050 Y7.1660
G01 X10.9887 Y7.1769
G01 X10.9801 Y7.1817
G01 X10.9714 Y7.1862
G01 X10.9532 Y7.1937
G01 X10.9345 Y7.1994
G01 X10.9152 Y7.2032
G01 X10.9055 Y7.2044
G01 X10.8859 Y7.2054
G01 X10.5860 Y7.2054
G01 X10.5860 Y8.0954
G01 X10.8957 Y8.0956
G01 X10.9055 Y8.0963
G01 X10.9249 Y8.0992
G01 X10.9439 Y8.1040
G01 X10.9624 Y8.1106
G01 X10.9801 Y8.1190
G01 X10.9887 Y8.1238
G01 X11.0050 Y8.1347
G01 X11.0127 Y8.1408
G01 X11.0273 Y8.1539
G01 X11.0341 Y8.1610
G01 X11.0465 Y8.1762
G01 X11.0522 Y8.1842
G01 X11.0574 Y8.1925
G01 X11.0667 Y8.2098
G01 X11.0742 Y8.2280
G01 X11.0773 Y8.2373
G01 X11.0820 Y8.2563
G01 X11.0837 Y8.2660
G01 X11.0856 Y8.2855
G01 X11.0859 Y8.2954
G01 X11.0859 Y9.5454
G01 X11.0856 Y9.5552
G01 X11.0837 Y9.5747
G01 X11.0799 Y9.5940
G01 X11.0742 Y9.6127
G01 X11.0667 Y9.6309
G01 X11.0574 Y9.6482
G01 X11.0522 Y9.6565
G01 X11.0465 Y9.6645
G01 X11.0341 Y9.6797
G01 X11.0202 Y9.6935
G01 X11.0050 Y9.7060
G01 X10.9887 Y9.7169
G01 X10.9801 Y9.7217
G01 X10.9624 Y9.7301
G01 X10.9532 Y9.7337
G01 X10.9345 Y9.7394
G01 X10.9249 Y9.7415
G01 X10.9055 Y9.7444
G01 X10.8859 Y9.7454
G01 X10.5860 Y9.7454
G01 X10.5860 Y12.4894
G01 X11.6164 Y13.5199
G01 X12.5700 Y13.5199
G01 X12.5700 Y13.1700
G01 X12.5702 Y13.1602
G01 X12.5722 Y13.1407
G01 X12.5738 Y13.1310
G01 X12.5786 Y13.1119
G01 X12.5817 Y13.1026
G01 X12.5892 Y13.0845
G01 X12.5985 Y13.0672
G01 X12.6037 Y13.0589
G01 X12.6094 Y13.0509
G01 X12.6218 Y13.0357
G01 X12.6286 Y13.0286
G01 X12.6431 Y13.0154
G01 X12.6509 Y13.0094
G01 X12.6672 Y12.9985
G01 X12.6845 Y12.9892
G01 X12.7026 Y12.9817
G01 X12.7119 Y12.9786
G01 X12.7310 Y12.9738
G01 X12.7407 Y12.9722
G01 X12.7602 Y12.9702
G01 X12.7700 Y12.9700
G01 X15.1700 Y12.9700
G01 X15.1896 Y12.9710
G01 X15.2090 Y12.9738
G01 X15.2186 Y12.9760
G01 X15.2374 Y12.9817
G01 X15.2555 Y12.9892
G01 X15.2643 Y12.9936
G01 X15.2728 Y12.9985
G01 X15.2891 Y13.0094
G01 X15.2969 Y13.0154
G01 X15.3114 Y13.0286
G01 X15.3246 Y13.0431
G01 X15.3306 Y13.0509
G01 X15.3415 Y13.0672
G01 X15.3508 Y13.0845
G01 X15.3548 Y13.0935
G01 X15.3614 Y13.1119
G01 X15.3640 Y13.1214
G01 X15.3662 Y13.1310
G01 X15.3690 Y13.1504
G01 X15.3700 Y13.1700
G01 X15.3698 Y14.7798
G01 X15.3690 Y14.7896
G01 X15.3662 Y14.8090
G01 X15.3614 Y14.8281
G01 X15.3583 Y14.8374
G01 X15.3508 Y14.8555
G01 X15.3415 Y14.8728
G01 X15.3306 Y14.8891
G01 X15.3246 Y14.8969
G01 X15.3114 Y14.9114
G01 X15.2969 Y14.9246
G01 X15.2891 Y14.9306
G01 X15.2728 Y14.9415
G01 X15.2555 Y14.9508
G01 X15.2465 Y14.9548
G01 X15.2281 Y14.9614
G01 X15.2186 Y14.9640
G01 X15.2090 Y14.9662
G01 X15.1896 Y14.9690
G01 X15.1700 Y14.9700
G01 X12.7700 Y14.9700
G01 X12.7602 Y14.9698
G01 X12.7407 Y14.9678
G01 X12.7214 Y14.9640
G01 X12.7026 Y14.9583
G01 X12.6845 Y14.9508
G01 X12.6672 Y14.9415
G01 X12.6589 Y14.9363
G01 X12.6509 Y14.9306
G01 X12.6357 Y14.9182
G01 X12.6218 Y14.9043
G01 X12.6094 Y14.8891
G01 X12.6037 Y14.8811
G01 X12.5936 Y14.8643
G01 X12.5892 Y14.8555
G01 X12.5817 Y14.8374
G01 X12.5760 Y14.8186
G01 X12.5738 Y14.8090
G01 X12.5710 Y14.7896
G01 X12.5700 Y14.7700
G01 X12.5700 Y14.4201
G01 X11.4300 Y14.4201
G01 X11.4079 Y14.4196
G01 X11.3859 Y14.4180
G01 X11.3640 Y14.4153
G01 X11.3422 Y14.4115
G01 X11.3159 Y14.4054
G01 X11.2947 Y14.3993
G01 X11.2784 Y14.3938
G01 X11.2623 Y14.3877
G01 X11.2375 Y14.3769
G01 X11.2178 Y14.3670
G01 X11.1944 Y14.3535
G01 X11.1799 Y14.3443
G01 X11.1619 Y14.3315
G01 X11.1407 Y14.3148
G01 X11.1277 Y14.3035
G01 X11.1117 Y14.2883
G01 X9.8159 Y12.9924
G01 X9.8023 Y12.9781
G01 X9.7848 Y12.9576
G01 X9.7743 Y12.9440
G01 X9.7644 Y12.9300
G01 X9.7524 Y12.9115
G01 X9.7366 Y12.8837
G01 X9.7290 Y12.8683
G01 X9.7219 Y12.8526
G01 X9.7121 Y12.8275
G01 X9.7038 Y12.8018
G01 X9.6992 Y12.7852
G01 X9.6954 Y12.7685
G01 X9.6906 Y12.7419
G01 X9.6875 Y12.7151
G01 X9.6863 Y12.6980
G01 X9.6858 Y12.6808
G01 X9.6857 Y9.7454
G01 X9.3761 Y9.7451
G01 X9.3663 Y9.7444
G01 X9.3468 Y9.7415
G01 X9.3278 Y9.7367
G01 X9.3185 Y9.7337
G01 X9.3004 Y9.7262
G01 X9.2916 Y9.7217
G01 X9.2830 Y9.7169
G01 X9.2667 Y9.7060
G01 X9.2590 Y9.7000
G01 X9.2444 Y9.6868
G01 X9.2313 Y9.6722
G01 X9.2252 Y9.6645
G01 X9.2143 Y9.6482
G01 X9.2095 Y9.6396
G01 X9.2051 Y9.6309
G01 X9.1976 Y9.6127
G01 X9.1945 Y9.6034
G01 X9.1897 Y9.5844
G01 X9.1868 Y9.5650
G01 X9.1861 Y9.5552
G01 X9.1859 Y8.2954
G01 X9.1861 Y8.2855
G01 X9.1880 Y8.2660
G01 X9.1919 Y8.2468
G01 X9.1976 Y8.2280
G01 X9.2051 Y8.2098
G01 X9.2143 Y8.1925
G01 X9.2196 Y8.1842
G01 X9.2252 Y8.1762
G01 X9.2377 Y8.1610
G01 X9.2516 Y8.1472
G01 X9.2667 Y8.1347
G01 X9.2748 Y8.1291
G01 X9.2916 Y8.1190
G01 X9.3004 Y8.1146
G01 X9.3185 Y8.1071
G01 X9.3373 Y8.1014
G01 X9.3468 Y8.0992
G01 X9.3663 Y8.0963
G01 X9.3859 Y8.0954
G01 X9.6857 Y8.0954
G01 X9.6857 Y7.2054
G01 X9.3761 Y7.2051
G01 X9.3565 Y7.2032
G01 X9.3468 Y7.2015
G01 X9.3373 Y7.1994
G01 X9.3185 Y7.1937
G01 X9.3004 Y7.1862
G01 X9.2916 Y7.1817
G01 X9.2830 Y7.1769
G01 X9.2667 Y7.1660
G01 X9.2516 Y7.1535
G01 X9.2444 Y7.1468
G01 X9.2313 Y7.1322
G01 X9.2196 Y7.1165
G01 X9.2143 Y7.1082
G01 X9.2095 Y7.0996
G01 X9.2011 Y7.0819
G01 X9.1976 Y7.0727
G01 X9.1919 Y7.0540
G01 X9.1897 Y7.0444
G01 X9.1868 Y7.0250
G01 X9.1859 Y7.0054
G01 X9.1859 Y5.7554
G01 X9.1861 Y5.7455
G01 X9.1880 Y5.7260
G01 X9.1919 Y5.7068
G01 X9.1976 Y5.6880
G01 X9.2011 Y5.6788
G01 X9.2095 Y5.6611
G01 X9.2196 Y5.6442
G01 X9.2313 Y5.6285
G01 X9.2444 Y5.6139
G01 X9.2516 Y5.6072
G01 X9.2667 Y5.5947
G01 X9.2748 Y5.5891
G01 X9.2916 Y5.5790
G01 X9.3093 Y5.5706
G01 X9.3185 Y5.5671
G01 X9.3373 Y5.5614
G01 X9.3565 Y5.5575
G01 X9.3761 Y5.5556
G00 Z1.9990
G00 X6.8761 Y3.0156
G01 F80.00
G01 Z-0.2500
G01 F80.00
G01 X8.3859 Y3.0154
G01 X8.4055 Y3.0163
G01 X8.4249 Y3.0192
G01 X8.4345 Y3.0214
G01 X8.4532 Y3.0271
G01 X8.4624 Y3.0306
G01 X8.4714 Y3.0346
G01 X8.4887 Y3.0438
G01 X8.5050 Y3.0547
G01 X8.5127 Y3.0608
G01 X8.5202 Y3.0672
G01 X8.5341 Y3.0810
G01 X8.5465 Y3.0962
G01 X8.5522 Y3.1042
G01 X8.5622 Y3.1211
G01 X8.5667 Y3.1298
G01 X8.5742 Y3.1480
G01 X8.5799 Y3.1668
G01 X8.5837 Y3.1860
G01 X8.5856 Y3.2055
G01 X8.5859 Y3.2154
G01 X8.5859 Y4.4654
G01 X8.5856 Y4.4752
G01 X8.5837 Y4.4947
G01 X8.5820 Y4.5044
G01 X8.5773 Y4.5234
G01 X8.5706 Y4.5419
G01 X8.5622 Y4.5596
G01 X8.5574 Y4.5682
G01 X8.5522 Y4.5765
G01 X8.5405 Y4.5922
G01 X8.5273 Y4.6068
G01 X8.5202 Y4.6135
G01 X8.5050 Y4.6260
G01 X8.4887 Y4.6369
G01 X8.4714 Y4.6462
G01 X8.4532 Y4.6537
G01 X8.4439 Y4.6567
G01 X8.4345 Y4.6594
G01 X8.4152 Y4.6632
G01 X8.3957 Y4.6651
G01 X8.3859 Y4.6654
G01 X8.0860 Y4.6654
G01 X8.0860 Y5.5554
G01 X8.3957 Y5.5556
G01 X8.4152 Y5.5575
G01 X8.4249 Y5.5592
G01 X8.4345 Y5.5614
G01 X8.4532 Y5.5671
G01 X8.4714 Y5.5746
G01 X8.4801 Y5.5790
G01 X8.4887 Y5.5838
G01 X8.5050 Y5.5947
G01 X8.5202 Y5.6072
G01 X8.5273 Y5.6139
G01 X8.5405 Y5.6285
G01 X8.5522 Y5.6442
G01 X8.5574 Y5.6525
G01 X8.5622 Y5.6611
G01 X8.5706 Y5.6788
G01 X8.5742 Y5.6880
G01 X8.5799 Y5.7068
G01 X8.5837 Y5.7260
G01 X8.5856 Y5.7455
G01 X8.5859 Y5.7554
G01 X8.5859 Y7.0054
G01 X8.5849 Y7.0250
G01 X8.5820 Y7.0444
G01 X8.5799 Y7.0540
G01 X8.5742 Y7.0727
G01 X8.5706 Y7.0819
G01 X8.5622 Y7.0996
G01 X8.5574 Y7.1082
G01 X8.5522 Y7.1165
G01 X8.5405 Y7.1322
G01 X8.5273 Y7.1468
G01 X8.5202 Y7.1535
G01 X8.5050 Y7.1660
G01 X8.4887 Y7.1769
G01 X8.4801 Y7.1817
G01 X8.4714 Y7.1862
G01 X8.4532 Y7.1937
G01 X8.4345 Y7.1994
G01 X8.4152 Y7.2032
G01 X8.3957 Y7.2051
G01 X8.3859 Y7.2054
G01 X6.8761 Y7.2051
G01 X6.8565 Y7.2032
G01 X6.8468 Y7.2015
G01 X6.8278 Y7.1967
G01 X6.8185 Y7.1937
G01 X6.8093 Y7.1901
G01 X6.7916 Y7.1817
G01 X6.7830 Y7.1769
G01 X6.7667 Y7.1660
G01 X6.7590 Y7.1600
G01 X6.7444 Y7.1468
G01 X6.7313 Y7.1322
G01 X6.7252 Y7.1245
G01 X6.7143 Y7.1082
G01 X6.7095 Y7.0996
G01 X6.7011 Y7.0819
G01 X6.6976 Y7.0727
G01 X6.6919 Y7.0540
G01 X6.6880 Y7.0347
G01 X6.6861 Y7.0152
G01 X6.6859 Y7.0054
G01 X6.6859 Y5.7554
G01 X6.6861 Y5.7455
G01 X6.6880 Y5.7260
G01 X6.6897 Y5.7163
G01 X6.6945 Y5.6973
G01 X6.7011 Y5.6788
G01 X6.7095 Y5.6611
G01 X6.7143 Y5.6525
G01 X6.7196 Y5.6442
G01 X6.7313 Y5.6285
G01 X6.7444 Y5.6139
G01 X6.7590 Y5.6008
G01 X6.7748 Y5.5891
G01 X6.7830 Y5.5838
G01 X6.7916 Y5.5790
G01 X6.8093 Y5.5706
G01 X6.8278 Y5.5640
G01 X6.8468 Y5.5592
G01 X6.8565 Y5.5575
G01 X6.8761 Y5.5556
G01 X6.8859 Y5.5554
G01 X7.1857 Y5.5554
G01 X7.1857 Y4.6654
G01 X6.8761 Y4.6651
G01 X6.8565 Y4.6632
G01 X6.8468 Y4.6615
G01 X6.8278 Y4.6567
G01 X6.8185 Y4.6537
G01 X6.8093 Y4.6501
G01 X6.7916 Y4.6417
G01 X6.7830 Y4.6369
G01 X6.7667 Y4.6260
G01 X6.7516 Y4.6135
G01 X6.7444 Y4.6068
G01 X6.7313 Y4.5922
G01 X6.7196 Y4.5765
G01 X6.7143 Y4.5682
G01 X6.7095 Y4.5596
G01 X6.7011 Y4.5419
G01 X6.6976 Y4.5327
G01 X6.6919 Y4.5140
G01 X6.6897 Y4.5044
G01 X6.6868 Y4.4850
G01 X6.6859 Y4.4654
G01 X6.6859 Y3.2154
G01 X6.6861 Y3.2055
G01 X6.6880 Y3.1860
G01 X6.6919 Y3.1668
G01 X6.6976 Y3.1480
G01 X6.7011 Y3.1388
G01 X6.7095 Y3.1211
G01 X6.7143 Y3.1125
G01 X6.7252 Y3.0962
G01 X6.7377 Y3.0810
G01 X6.7516 Y3.0672
G01 X6.7667 Y3.0547
G01 X6.7830 Y3.0438
G01 X6.8004 Y3.0346
G01 X6.8093 Y3.0306
G01 X6.8278 Y3.0240
G01 X6.8468 Y3.0192
G01 X6.8663 Y3.0163
G01 X6.8761 Y3.0156
G00 Z1.9990
M05
G00 Z1.9990
G00 Z12.70
G00 X0.0 Y0.0

M02