(G-CODE GENERATED BY FLATCAM v8.97 - www.flatcam.org - Version Date: 2019/09/27)

(Name: hexPre-Edge_Cuts.gbr_iso_cnc)
(Type: G-code from Geometry)
(Units: MM)

(Created on Thursday, 17 October 2019 at 21:29)

(TOOL DIAMETER: 1.0 mm)
(Feedrate: 50.0 mm/min)
(Feedrate_Z: 50.0 mm/min)
(Feedrate rapids 79.9998 mm/min)

(Z_Cut: -2.8 mm)
(Z_Move: 1.999 mm)
(Z Toolchange: 12.7 mm)
(X,Y Toolchange: 0.0000, 0.0000 mm)
(Z Start: None mm)
(Z End: 12.7 mm)
(Steps per circle: 128)
(Postprocessor Geometry: default)

(X range:   -1.2100 ...   18.9900  mm)
(Y range:   -0.5750 ...   29.1500  mm)

(Spindle Speed: None RPM)

G21
G90
G94

G01 F50.00
G00 Z1.9990

M03
G00 X-0.0600 Y0.5750
G01 F50.00
G01 Z-2.8000
G01 F50.00
G01 X17.8400 Y0.5750
G01 X17.8400 Y28.0000
G01 X-0.0600 Y28.0000
G01 X-0.0600 Y0.5750
G00 Z1.9990
G00 X-1.2099 Y-0.0123
G01 F50.00
G01 Z-2.8000
G01 F50.00
G01 X-1.2086 Y-0.0405
G01 X-1.2059 Y-0.0686
G01 X-1.2019 Y-0.0965
G01 X-1.1964 Y-0.1242
G01 X-1.1897 Y-0.1516
G01 X-1.1816 Y-0.1786
G01 X-1.1721 Y-0.2052
G01 X-1.1614 Y-0.2313
G01 X-1.1500 Y-0.2557
G01 X-1.1362 Y-0.2818
G01 X-1.1218 Y-0.3061
G01 X-1.1062 Y-0.3296
G01 X-1.0894 Y-0.3523
G01 X-1.0716 Y-0.3742
G01 X-1.0527 Y-0.3952
G01 X-1.0416 Y-0.4066
G01 X-1.0302 Y-0.4177
G01 X-1.0092 Y-0.4366
G01 X-0.9873 Y-0.4544
G01 X-0.9646 Y-0.4712
G01 X-0.9411 Y-0.4868
G01 X-0.9168 Y-0.5012
G01 X-0.8907 Y-0.5150
G01 X-0.8663 Y-0.5264
G01 X-0.8402 Y-0.5371
G01 X-0.8136 Y-0.5466
G01 X-0.7866 Y-0.5547
G01 X-0.7592 Y-0.5614
G01 X-0.7315 Y-0.5669
G01 X-0.7036 Y-0.5709
G01 X-0.6755 Y-0.5736
G01 X-0.6473 Y-0.5749
G01 X18.4273 Y-0.5749
G01 X18.4591 Y-0.5733
G01 X18.4872 Y-0.5705
G01 X18.5115 Y-0.5669
G01 X18.5277 Y-0.5639
G01 X18.5428 Y-0.5606
G01 X18.5666 Y-0.5547
G01 X18.5971 Y-0.5454
G01 X18.6294 Y-0.5336
G01 X18.6497 Y-0.5249
G01 X18.6707 Y-0.5150
G01 X18.6968 Y-0.5012
G01 X18.7211 Y-0.4868
G01 X18.7446 Y-0.4712
G01 X18.7702 Y-0.4522
G01 X18.7920 Y-0.4342
G01 X18.8102 Y-0.4177
G01 X18.8216 Y-0.4066
G01 X18.8327 Y-0.3952
G01 X18.8492 Y-0.3770
G01 X18.8672 Y-0.3552
G01 X18.8862 Y-0.3296
G01 X18.9018 Y-0.3061
G01 X18.9144 Y-0.2850
G01 X18.9300 Y-0.2557
G01 X18.9399 Y-0.2347
G01 X18.9486 Y-0.2144
G01 X18.9616 Y-0.1786
G01 X18.9697 Y-0.1516
G01 X18.9756 Y-0.1278
G01 X18.9819 Y-0.0965
G01 X18.9859 Y-0.0686
G01 X18.9883 Y-0.0441
G01 X18.9898 Y-0.0160
G01 X18.9900 Y-0.0000
G01 X18.9900 Y28.5750
G01 X18.9898 Y28.5910
G01 X18.9886 Y28.6155
G01 X18.9859 Y28.6436
G01 X18.9812 Y28.6751
G01 X18.9756 Y28.7028
G01 X18.9687 Y28.7301
G01 X18.9604 Y28.7571
G01 X18.9521 Y28.7802
G01 X18.9414 Y28.8063
G01 X18.9278 Y28.8352
G01 X18.9144 Y28.8600
G01 X18.9018 Y28.8811
G01 X18.8862 Y28.9046
G01 X18.8672 Y28.9302
G01 X18.8492 Y28.9520
G01 X18.8327 Y28.9702
G01 X18.8216 Y28.9816
G01 X18.8102 Y28.9927
G01 X18.7920 Y29.0092
G01 X18.7702 Y29.0272
G01 X18.7446 Y29.0462
G01 X18.7211 Y29.0618
G01 X18.7000 Y29.0744
G01 X18.6707 Y29.0900
G01 X18.6497 Y29.0999
G01 X18.6294 Y29.1086
G01 X18.5936 Y29.1216
G01 X18.5666 Y29.1297
G01 X18.5428 Y29.1356
G01 X18.5115 Y29.1419
G01 X18.4836 Y29.1459
G01 X18.4591 Y29.1483
G01 X18.4310 Y29.1498
G01 X18.4150 Y29.1500
G01 X-0.6350 Y29.1500
G01 X-0.6510 Y29.1498
G01 X-0.6755 Y29.1486
G01 X-0.7036 Y29.1459
G01 X-0.7351 Y29.1412
G01 X-0.7628 Y29.1356
G01 X-0.7901 Y29.1287
G01 X-0.8171 Y29.1204
G01 X-0.8402 Y29.1121
G01 X-0.8663 Y29.1014
G01 X-0.8952 Y29.0878
G01 X-0.9200 Y29.0744
G01 X-0.9411 Y29.0618
G01 X-0.9646 Y29.0462
G01 X-0.9902 Y29.0272
G01 X-1.0120 Y29.0092
G01 X-1.0302 Y28.9927
G01 X-1.0416 Y28.9816
G01 X-1.0527 Y28.9702
G01 X-1.0692 Y28.9520
G01 X-1.0872 Y28.9302
G01 X-1.1062 Y28.9046
G01 X-1.1218 Y28.8811
G01 X-1.1344 Y28.8600
G01 X-1.1500 Y28.8307
G01 X-1.1599 Y28.8097
G01 X-1.1686 Y28.7894
G01 X-1.1816 Y28.7536
G01 X-1.1897 Y28.7266
G01 X-1.1956 Y28.7028
G01 X-1.2019 Y28.6715
G01 X-1.2059 Y28.6436
G01 X-1.2083 Y28.6191
G01 X-1.2098 Y28.5910
G01 X-1.2100 Y28.5750
G01 X-1.2099 Y-0.0123
G00 Z1.9990
M05
G00 Z1.9990
G00 Z12.70
G00 X0.0 Y0.0

M02